keeminlee/mlf-project/kuka_fk_pose7d.csv
ee_x,ee_y,ee_z,ee_qx,ee_qy,ee_qz,ee_qw,joint_0,joint_1,joint_2,joint_3,joint_4,joint_5,joint_6
-1.149547547101974487e-01,-7.171390056610107422e-01,2.563733458518981934e-01,2.246204465627670288e-01,3.409833610057830811e-01,-7.201325893402099609e-01,5.609679818153381348e-01,8.273752331733703613e-01,-1.989630341529846191e+00,-1.335002899169921875e+00,-1.159412145614624023e+00,1.403248429298400879e+00,7.401571273803710938e-01,2.395688772201538086e+00
3.029431402683258057e-01,3.863359689712524414e-01,8.615355491638183594e-01,2.522994875907897949e-01,3.477502986788749695e-02,-3.981207311153411865e-01,8.812692761421203613e-01,-2.451154232025146484e+00,-3.270531296730041504e-01,-2.790239334106445312e+00,-1.178566575050354004e+00,3.177891671657562256e-02,-1.983241558074951172e+00,-1.839696168899536133e+00
-3.953291475772857666e-02,1.421336531639099121e-01,1.120714664459228516e+00,3.621937930583953857e-01,6.803674101829528809e-01,-6.316068172454833984e-01,8.359781652688980103e-02,8.894321322441101074e-01,1.882504373788833618e-01,-1.658938646316528320e+00,3.739152252674102783e-01,1.836197257041931152e+00,-2.067173242568969727e+00,1.868143558502197266e+00
-2.529861629009246826e-01,1.262788623571395874e-01,6.887100934982299805e-01,-4.472227096557617188e-01,5.551400184631347656e-01,-1.497954577207565308e-01,6.851078271865844727e-01,1.175782799720764160e+00,-6.691570878028869629e-01,-2.044425725936889648e+00,1.915169715881347656e+00,-9.696674346923828125e-01,-1.705902218818664551e+00,-2.463519573211669922e+00
6.753267347812652588e-02,4.162792861461639404e-01,9.647764563560485840e-01,-3.646942377090454102e-01,-2.310690879821777344e-01,8.957120776176452637e-01,-1.063258945941925049e-01,2.062072992324829102e+00,4.344865977764129639e-01,1.822535753250122070e+00,9.622982740402221680e-01,2.149818092584609985e-01,1.981782674789428711e+00,-7.419912815093994141e-01
4.845781326293945312e-01,-1.286916285753250122e-01,8.085793852806091309e-01,-2.425116002559661865e-01,1.911345422267913818e-01,-7.085484266281127930e-01,6.345193982124328613e-01,3.088153004646301270e-01,1.379807114601135254e+00,7.033103704452514648e-01,1.515114307403564453e+00,4.590168595314025879e-01,8.569085001945495605e-01,-2.774400949478149414e+00
-2.635861635208129883e-01,6.525813937187194824e-01,4.849531054496765137e-01,7.889558076858520508e-01,2.656731009483337402e-01,-5.194840431213378906e-01,-1.926209330558776855e-01,-1.614684104919433594e+00,-8.822096586227416992e-01,-2.493564605712890625e+00,-1.119282960891723633e+00,-2.367705106735229492e+00,-9.300220012664794922e-01,8.288491368293762207e-01
-5.362902879714965820e-01,3.242431953549385071e-02,9.551695585250854492e-01,-6.262836605310440063e-02,-2.517437934875488281e-01,4.686067104339599609e-01,8.444586992263793945e-01,-8.021019697189331055e-01,-5.437847375869750977e-01,-1.723819971084594727e+00,-9.760810732841491699e-01,2.591160297393798828e+00,6.200891733169555664e-01,6.666433811187744141e-01
-4.071449935436248779e-01,-5.449604988098144531e-01,9.036549329757690430e-01,5.249947309494018555e-01,-2.245531231164932251e-02,-2.747996151447296143e-01,8.052089214324951172e-01,-1.951502442359924316e+00,9.597641229629516602e-01,-1.997409701347351074e+00,-5.049358606338500977e-01,2.904889822006225586e+00,5.864296555519104004e-01,3.478862047195434570e-01
-1.335523426532745361e-01,6.914346814155578613e-01,4.849097430706024170e-01,-1.178362667560577393e-01,-5.929788947105407715e-01,5.462646484375000000e-02,7.946739196777343750e-01,1.095522999763488770e+00,1.436134815216064453e+00,1.637816429138183594e+00,-1.134960770606994629e+00,-2.776572942733764648e+00,-7.730284929275512695e-01,-1.418790340423583984e+00
1.503126472234725952e-01,-8.200356960296630859e-01,3.096921145915985107e-01,2.028722167015075684e-01,7.542100548744201660e-01,-4.631954729557037354e-01,4.188795983791351318e-01,-1.715062260627746582e+00,1.855255961418151855e+00,2.233410358428955078e+00,-7.762755155563354492e-01,9.223915934562683105e-01,-4.371760785579681396e-01,2.532327175140380859e+00
-7.040433883666992188e-01,2.933857142925262451e-01,8.178574442863464355e-01,-1.231109350919723511e-02,-6.265429258346557617e-01,-2.960766255855560303e-01,7.208544015884399414e-01,-2.441780120134353638e-01,-9.848676919937133789e-01,-1.503542542457580566e+00,2.570582330226898193e-01,-1.407919526100158691e+00,3.543129861354827881e-01,2.430161714553833008e+00
-6.473047733306884766e-01,3.900807201862335205e-01,6.186788678169250488e-01,8.141244053840637207e-01,-5.264670848846435547e-01,-3.184888884425163269e-02,2.429392486810684204e-01,-5.969694256782531738e-01,-1.175706505775451660e+00,2.952447414398193359e+00,3.990364819765090942e-02,-2.427592277526855469e+00,-1.897034525871276855e+00,-2.384517908096313477e+00
3.884606063365936279e-01,1.049315556883811951e-01,1.911061108112335205e-01,7.659360766410827637e-02,-4.419310688972473145e-01,6.792081594467163086e-01,5.809532999992370605e-01,7.562800049781799316e-01,1.223459243774414062e+00,-4.619120359420776367e-01,-1.828290939331054688e+00,-7.024852633476257324e-01,2.078148365020751953e+00,1.778494268655776978e-01
-7.183696627616882324e-01,1.734769344329833984e-01,3.195188194513320923e-02,6.254379451274871826e-02,9.240310192108154297e-01,7.905446738004684448e-02,-3.687891662120819092e-01,2.795435190200805664e+00,1.511230468750000000e+00,-2.898929834365844727e+00,9.245574474334716797e-01,1.078290939331054688e+00,1.548609584569931030e-01,-1.424383878707885742e+00
-5.761231780052185059e-01,-5.926960110664367676e-01,3.316929340362548828e-01,3.731625676155090332e-01,8.323746323585510254e-01,5.480942875146865845e-02,-4.060765504837036133e-01,8.364841341972351074e-01,-1.627126455307006836e+00,-3.871107697486877441e-01,-1.938416957855224609e-01,2.692997932434082031e+00,1.574369192123413086e+00,-1.445374131202697754e+00
-3.469413220882415771e-01,-2.678506672382354736e-01,8.354381918907165527e-01,2.333168685436248779e-02,-6.492521613836288452e-02,9.492415785789489746e-01,3.068888187408447266e-01,3.478064667433500290e-03,-1.346059918403625488e+00,2.448582887649536133e+00,1.552024602890014648e+00,-1.196052670478820801e+00,5.820302963256835938e-01,6.656611561775207520e-01
-2.187351435422897339e-01,-2.084046900272369385e-01,8.935824036598205566e-01,2.625796794891357422e-01,8.501550555229187012e-01,4.560557305812835693e-01,1.736339554190635681e-02,-2.060093164443969727e+00,1.099602699279785156e+00,2.336798608303070068e-01,1.167107939720153809e+00,1.801223158836364746e-01,-2.091999530792236328e+00,-1.074169516563415527e+00
-4.839418530464172363e-01,2.086969166994094849e-01,8.112838119268417358e-02,1.627718210220336914e-01,1.748431771993637085e-01,8.656044602394104004e-01,-4.400728940963745117e-01,-2.851482391357421875e+00,1.797404170036315918e+00,2.247380733489990234e+00,1.389277338981628418e+00,-1.142234086990356445e+00,-1.851758837699890137e+00,2.309129238128662109e+00
3.208193182945251465e-01,-2.130392789840698242e-01,7.302064895629882812e-01,2.016591280698776245e-02,-4.940674006938934326e-01,7.285107970237731934e-01,4.740915000438690186e-01,2.652251243591308594e+00,-1.735610842704772949e+00,-8.313426375389099121e-02,-1.804478406906127930e+00,1.546444296836853027e+00,1.113524675369262695e+00,-2.270027399063110352e+00
9.445932507514953613e-02,4.193864762783050537e-01,7.177464365959167480e-01,7.445424795150756836e-01,6.241323351860046387e-01,2.208949476480484009e-01,-8.556210994720458984e-02,-1.466773152351379395e-01,2.086168080568313599e-01,-1.394181966781616211e+00,1.560043931007385254e+00,-4.561086297035217285e-01,-1.207216858863830566e+00,2.400461584329605103e-01
-4.033301770687103271e-01,-1.506891399621963501e-01,2.303293496370315552e-01,9.229490160942077637e-02,9.119604229927062988e-01,2.599285542964935303e-01,-3.037217855453491211e-01,1.364438414573669434e+00,-1.251815557479858398e+00,-1.117298007011413574e+00,2.074076890945434570e+00,8.893942832946777344e-01,-2.592857778072357178e-01,1.073647066950798035e-01
6.103737950325012207e-01,4.884550273418426514e-01,6.691734194755554199e-01,-1.086297854781150818e-01,3.122470378875732422e-01,-7.484123110771179199e-01,5.749611258506774902e-01,-2.249006271362304688e+00,-1.153185129165649414e+00,-9.608196020126342773e-01,3.699066936969757080e-01,-1.601531386375427246e+00,-1.171950697898864746e+00,-2.620654106140136719e+00
-1.518885884433984756e-02,-4.642242789268493652e-01,8.400194048881530762e-01,3.668029904365539551e-01,-4.679710566997528076e-01,6.047114133834838867e-01,5.298893451690673828e-01,7.779805660247802734e-01,-1.135406017303466797e+00,2.405810594558715820e+00,1.506437301635742188e+00,-2.546583652496337891e+00,-1.097443699836730957e+00,1.032226562500000000e+00
8.738491684198379517e-02,8.465016484260559082e-01,4.392412304878234863e-01,1.013256609439849854e-01,8.754736185073852539e-01,3.598363399505615234e-01,3.062627017498016357e-01,-1.695752859115600586e+00,-1.540168523788452148e+00,2.584393501281738281e+00,2.975846230983734131e-01,-1.621733903884887695e-01,1.192211031913757324e+00,1.878392338752746582e+00
1.317400187253952026e-01,8.335258364677429199e-01,4.426073431968688965e-01,-1.509969830513000488e-01,-3.100710511207580566e-01,-4.066633880138397217e-01,8.459791541099548340e-01,-1.837144494056701660e+00,-1.688372254371643066e+00,-4.091505110263824463e-01,-3.201131224632263184e-01,-1.956795454025268555e-01,9.595506787300109863e-01,1.059023737907409668e+00
7.903617620468139648e-01,6.237473338842391968e-03,4.990268647670745850e-01,3.676147162914276123e-01,5.343163013458251953e-01,7.425158619880676270e-01,-1.674387305974960327e-01,2.873094081878662109e+00,-1.682143330574035645e+00,-5.778568983078002930e-01,-6.731277108192443848e-01,2.146208047866821289e+00,-1.052825927734375000e+00,-1.892406105995178223e+00
-2.344536930322647095e-01,-3.576099574565887451e-01,1.002349853515625000e+00,-2.039908915758132935e-01,-5.387570261955261230e-01,8.162934780120849609e-01,-4.235109686851501465e-02,-3.049333393573760986e-01,-3.272214233875274658e-01,-1.314139485359191895e+00,-1.048008322715759277e+00,2.511708498001098633e+00,-2.382133901119232178e-01,2.207356214523315430e+00
-4.546506702899932861e-01,-2.410562783479690552e-01,5.948185324668884277e-01,6.106064319610595703e-01,2.036456018686294556e-01,7.160137891769409180e-01,2.702082097530364990e-01,2.986364066600799561e-01,-1.882491230964660645e+00,2.962801694869995117e+00,1.407549142837524414e+00,2.783079624176025391e+00,1.785961866378784180e+00,2.130061149597167969e+00
-1.797292977571487427e-01,1.422922760248184204e-01,1.195176601409912109e+00,-4.154166281223297119e-01,9.075043350458145142e-02,9.038063287734985352e-01,4.824426770210266113e-02,-1.980149626731872559e+00,-6.014631316065788269e-02,-1.698657631874084473e+00,-4.145214557647705078e-01,-2.619110107421875000e+00,-5.069562196731567383e-01,2.964583158493041992e+00
1.462836563587188721e-01,-7.342670559883117676e-01,5.961396694183349609e-01,9.142769873142242432e-02,4.093467593193054199e-01,8.012763261795043945e-01,4.266526401042938232e-01,-1.393313050270080566e+00,1.189912199974060059e+00,-2.669857144355773926e-01,-3.225055038928985596e-01,2.713777303695678711e+00,2.075221776962280273e+00,3.406693041324615479e-01
-4.771968126296997070e-01,-1.412602066993713379e-01,2.384048253297805786e-01,-3.612340688705444336e-01,-7.200469374656677246e-01,-9.896649979054927826e-03,5.924056768417358398e-01,1.296060800552368164e+00,-1.445983767509460449e+00,-1.206359982490539551e+00,1.963325262069702148e+00,4.698652923107147217e-01,1.767468452453613281e-01,1.514796495437622070e+00
1.408575624227523804e-01,1.646582931280136108e-01,8.834834694862365723e-01,8.554567694664001465e-01,1.863075494766235352e-01,-2.223479002714157104e-01,-4.290041923522949219e-01,-2.627834081649780273e+00,3.526023030281066895e-01,1.691451296210289001e-02,1.477469682693481445e+00,-2.032835006713867188e+00,1.930106163024902344e+00,-2.564953088760375977e+00
1.115706861019134521e-01,-5.068543553352355957e-01,8.656036853790283203e-01,5.506022647023200989e-02,-5.878495573997497559e-01,3.026876747608184814e-01,7.481854557991027832e-01,-1.864352107048034668e+00,3.980821371078491211e-01,1.039732217788696289e+00,-1.109175324440002441e+00,-2.255638122558593750e+00,1.634831666946411133e+00,-1.550282239913940430e+00
2.729410529136657715e-01,2.138158529996871948e-01,1.087251424789428711e+00,7.390969991683959961e-01,-3.679917752742767334e-01,4.490641653537750244e-01,-3.415539562702178955e-01,5.608879327774047852e-01,5.000641345977783203e-01,-4.793289899826049805e-01,3.504856824874877930e-01,1.351953446865081787e-01,1.820893406867980957e+00,-1.806577801704406738e+00
-4.366507530212402344e-01,-6.758532524108886719e-01,5.010384917259216309e-01,1.293125748634338379e-01,-6.890867352485656738e-01,-3.957426920533180237e-02,7.119491696357727051e-01,1.282907962799072266e+00,-1.094589710235595703e+00,-6.184192299842834473e-01,7.191743254661560059e-01,-1.186841130256652832e+00,-7.699951529502868652e-01,1.538552641868591309e+00
-3.446453213691711426e-01,-9.664373844861984253e-02,6.894897818565368652e-01,-4.485688209533691406e-01,-7.565239816904067993e-02,7.842562794685363770e-01,4.219062030315399170e-01,-2.536580085754394531e+00,-1.747331917285919189e-01,2.957888126373291016e+00,2.078043937683105469e+00,-2.532321691513061523e+00,-1.201536417007446289e+00,-1.434309124946594238e+00
-7.695528864860534668e-01,2.696700990200042725e-01,4.011399745941162109e-01,7.513319849967956543e-01,-6.103779673576354980e-01,-1.619414836168289185e-01,1.916089802980422974e-01,2.571012735366821289e+00,1.595360159873962402e+00,2.250634908676147461e+00,-5.465236902236938477e-01,-2.030971050262451172e+00,1.397987604141235352e+00,1.243354678153991699e+00
-1.376117169857025146e-01,2.415454089641571045e-01,2.019911073148250580e-02,6.590967178344726562e-01,5.745381116867065430e-01,-4.852675199508666992e-01,3.607812803238630295e-03,6.627091765403747559e-01,2.040917158126831055e+00,9.137138128280639648e-01,-2.061625719070434570e+00,1.881733775138854980e+00,-8.403603434562683105e-01,9.980849027633666992e-01
5.635280609130859375e-01,4.596587270498275757e-02,6.817655265331268311e-02,7.095502018928527832e-01,5.342818498611450195e-01,3.250609636306762695e-01,3.246795237064361572e-01,2.604662895202636719e+00,-1.531877875328063965e+00,-2.282092094421386719e+00,-1.646043896675109863e+00,3.158354163169860840e-01,-9.535856246948242188e-01,6.403689980506896973e-01
-3.750295341014862061e-01,-3.626783490180969238e-01,7.916579842567443848e-01,-6.213881075382232666e-02,6.879138946533203125e-01,7.195293307304382324e-01,7.204788923263549805e-02,1.291336655616760254e+00,-1.241568684577941895e+00,7.965840697288513184e-01,-9.886219501495361328e-01,-6.805335730314254761e-02,1.697869539260864258e+00,2.114227294921875000e+00
-3.111543357372283936e-01,2.410613745450973511e-01,5.884316563606262207e-01,7.281667590141296387e-01,-2.097442895174026489e-01,-6.096065640449523926e-01,2.327237874269485474e-01,-2.419349431991577148e+00,-3.201250731945037842e-01,-1.325206160545349121e+00,-2.079543113708496094e+00,1.608853816986083984e+00,5.743392109870910645e-01,-1.454132556915283203e+00
2.532270550727844238e-01,3.517936170101165771e-01,5.764407515525817871e-01,-5.854585021734237671e-02,3.812184631824493408e-01,3.489888086915016174e-02,9.219690561294555664e-01,1.431492924690246582e+00,2.164784520864486694e-01,-4.291144311428070068e-01,-2.053890705108642578e+00,-2.520553588867187500e+00,1.604752302169799805e+00,2.467459201812744141e+00
4.013288617134094238e-01,3.773872852325439453e-01,5.604394897818565369e-02,-1.234285607933998108e-01,8.366860151290893555e-01,4.795745909214019775e-01,-2.339446395635604858e-01,2.705382108688354492e-01,1.401548385620117188e+00,4.896216094493865967e-01,-1.474061369895935059e+00,-2.210782766342163086e+00,-8.031655550003051758e-01,2.437239408493041992e+00
-2.953473925590515137e-01,4.971634447574615479e-01,7.105907201766967773e-01,-3.647420108318328857e-01,2.466798871755599976e-01,-6.297984719276428223e-01,6.398954987525939941e-01,1.757225036621093750e+00,1.510907530784606934e+00,2.367266416549682617e+00,-1.214428544044494629e+00,-1.486320376396179199e+00,-1.663814187049865723e+00,1.711132764816284180e+00
-2.479052245616912842e-01,-1.585330218076705933e-01,9.575561881065368652e-01,1.985310465097427368e-01,-3.949195444583892822e-01,8.673093914985656738e-01,2.289070188999176025e-01,2.279501199722290039e+00,-3.921654820442199707e-01,7.160198092460632324e-01,-1.447003602981567383e+00,2.550965309143066406e+00,1.527256846427917480e+00,2.908977270126342773e+00
-3.278366625308990479e-01,5.909582972526550293e-01,8.284616470336914062e-02,-2.884689867496490479e-01,-2.503908872604370117e-01,5.484505891799926758e-01,7.438360452651977539e-01,1.844156384468078613e+00,1.597672462463378906e+00,-2.819974422454833984e+00,9.909189939498901367e-01,-9.958314299583435059e-01,1.804597377777099609e+00,1.846249461174011230e+00
-5.678747892379760742e-01,1.720523089170455933e-01,6.226841211318969727e-01,3.517085313796997070e-01,-3.046024143695831299e-01,8.117929100990295410e-01,3.528607189655303955e-01,2.160399436950683594e+00,1.301663756370544434e+00,-1.383802771568298340e+00,1.203751564025878906e+00,-2.325607299804687500e+00,1.558928608894348145e+00,2.190521478652954102e+00
-2.037227153778076172e-01,-7.455193400382995605e-01,2.411022186279296875e-01,4.063284993171691895e-01,6.402187943458557129e-01,-4.207004308700561523e-01,-4.980243742465972900e-01,-1.647111415863037109e+00,1.326114892959594727e+00,-2.355653345584869385e-01,-8.160145878791809082e-01,1.752615451812744141e+00,-1.141045331954956055e+00,-2.909768581390380859e+00
-3.386987447738647461e-01,4.275482520461082458e-02,7.366641759872436523e-01,4.768054485321044922e-01,-2.024502754211425781e-01,-2.482938021421432495e-01,8.185479044914245605e-01,-1.821004390716552734e+00,-7.193746566772460938e-01,2.162113904953002930e+00,1.955700516700744629e+00,-1.310698628425598145e+00,5.926373600959777832e-01,-6.128299236297607422e-01
2.111459076404571533e-01,-3.069125115871429443e-01,7.370171546936035156e-01,2.367070764303207397e-01,9.494813680648803711e-01,-1.978790611028671265e-01,5.743514746427536011e-02,2.855199575424194336e+00,1.517001092433929443e-01,2.606485605239868164e+00,-1.611252784729003906e+00,2.791413307189941406e+00,-1.346412062644958496e+00,2.825461387634277344e+00
-8.408801630139350891e-03,6.878422498703002930e-01,-4.962248727679252625e-02,3.401004895567893982e-02,9.404488801956176758e-01,3.111812770366668701e-01,-1.325345933437347412e-01,-1.391750574111938477e+00,-1.640319585800170898e+00,-3.883064687252044678e-01,9.573273658752441406e-01,-1.105661034584045410e+00,4.448866248130798340e-01,6.977950036525726318e-02
3.226190805435180664e-01,1.758922338485717773e-01,9.519947171211242676e-01,-3.550477623939514160e-01,8.668600320816040039e-01,3.417723178863525391e-01,7.540880143642425537e-02,-6.812639832496643066e-01,3.208112418651580811e-01,-1.455505847930908203e+00,8.745577931404113770e-01,-2.957023382186889648e+00,1.782645106315612793e+00,2.348898947238922119e-01
4.719876125454902649e-02,7.953034043312072754e-01,6.840659379959106445e-01,-5.892727971076965332e-01,-1.616771221160888672e-01,-5.434052944183349609e-01,5.756116509437561035e-01,1.302123785018920898e+00,1.013478159904479980e+00,1.012529850006103516e+00,-5.687477588653564453e-01,-2.551826715469360352e+00,6.879572272300720215e-01,-1.037248969078063965e+00
6.403831243515014648e-01,-5.177033543586730957e-01,3.805718719959259033e-01,-1.530242338776588440e-02,6.097775697708129883e-01,-3.022950291633605957e-01,7.324990630149841309e-01,-1.104246735572814941e+00,1.457763075828552246e+00,1.304047942161560059e+00,-8.364081382751464844e-01,-1.131727576255798340e+00,-3.837229013442993164e-01,-5.962021350860595703e-01
9.829829633235931396e-02,4.166665971279144287e-01,5.065846443176269531e-02,5.233755707740783691e-01,1.922960877418518066e-01,6.948516368865966797e-01,-4.541821777820587158e-01,-1.212606430053710938e+00,-1.561213254928588867e+00,-4.720809459686279297e-01,1.844591140747070312e+00,1.052225828170776367e+00,1.687268018722534180e+00,7.056404948234558105e-01
-1.423232853412628174e-01,1.954884082078933716e-01,1.122152686119079590e+00,-3.108083605766296387e-01,3.671295344829559326e-01,8.437317609786987305e-01,2.381821870803833008e-01,-1.181187152862548828e+00,2.007989287376403809e-01,-2.964650630950927734e+00,-8.925737738609313965e-01,-4.160520732402801514e-01,3.350394666194915771e-01,9.450429081916809082e-01
-1.487323343753814697e-01,3.190243989229202271e-02,1.197816491127014160e+00,-4.528869092464447021e-01,1.161513179540634155e-01,-6.281886100769042969e-01,6.219174861907958984e-01,-2.077642530202865601e-01,-2.422804683446884155e-01,-1.698930025100708008e+00,-1.123174428939819336e-01,2.380654811859130859e+00,1.239985704421997070e+00,-2.017740488052368164e+00
3.064293414354324341e-04,-3.000116646289825439e-01,1.122858047485351562e+00,4.048680067062377930e-01,2.057632654905319214e-01,6.589591503143310547e-01,5.995966792106628418e-01,-2.463872671127319336e+00,6.472522765398025513e-02,7.888869047164916992e-01,-6.903618574142456055e-01,1.889562845230102539e+00,1.051964998245239258e+00,1.055548667907714844e+00
-7.282802462577819824e-02,6.426341533660888672e-01,1.650944948196411133e-01,7.730651497840881348e-01,5.513337254524230957e-01,-2.133958637714385986e-01,2.299210578203201294e-01,-1.634015083312988281e+00,-1.260281682014465332e+00,-2.822116374969482422e+00,-1.068801045417785645e+00,-1.475438922643661499e-01,1.464977860450744629e+00,-2.609443902969360352e+00
5.436175465583801270e-01,1.078039407730102539e-01,8.832277655601501465e-01,-8.119884133338928223e-01,2.073266953229904175e-01,-1.702960133552551270e-01,5.183532834053039551e-01,-5.077172517776489258e-01,5.435599684715270996e-01,-1.813257694244384766e+00,8.224867582321166992e-01,-3.336654976010322571e-02,-1.072395443916320801e+00,9.533041715621948242e-01
-2.804687619209289551e-01,-4.883456230163574219e-01,6.290634870529174805e-01,-3.888007998466491699e-02,-3.131575584411621094e-01,6.741953492164611816e-01,6.677435040473937988e-01,-2.934155941009521484e+00,1.051237583160400391e+00,1.602486252784729004e+00,-1.647923350334167480e+00,-4.441913962364196777e-01,-1.357642769813537598e+00,2.797555446624755859e+00
-5.394102334976196289e-01,3.552204668521881104e-01,1.420198231935501099e-01,-2.189631313085556030e-01,8.494256138801574707e-01,1.685611307621002197e-01,-4.495758414268493652e-01,1.065634340047836304e-01,-1.884040832519531250e+00,-1.488287329673767090e+00,1.459107875823974609e+00,-2.583607137203216553e-01,1.262570977210998535e+00,1.023674130439758301e+00
-4.505721926689147949e-01,3.612726926803588867e-01,6.152542829513549805e-01,-4.073685407638549805e-01,-3.683640658855438232e-01,-2.754600644111633301e-01,7.889743447303771973e-01,2.895211935043334961e+00,3.998297452926635742e-01,2.670588731765747070e+00,1.639601111412048340e+00,6.684923171997070312e-01,9.184926748275756836e-01,2.918814867734909058e-02
1.250809729099273682e-01,4.817581176757812500e-01,8.852342963218688965e-01,1.404730230569839478e-01,8.643493652343750000e-01,4.314229488372802734e-01,2.168913483619689941e-01,1.961636900901794434e+00,2.005255669355392456e-01,2.357080221176147461e+00,1.020621538162231445e+00,-1.502849161624908447e-01,-1.008696079254150391e+00,-1.544024586677551270e+00
3.530540466308593750e-01,4.492678344249725342e-01,8.834496736526489258e-01,1.309334635734558105e-01,-6.704503893852233887e-01,-4.048478305339813232e-01,6.078247427940368652e-01,8.168993592262268066e-01,1.113437771797180176e+00,1.263956278562545776e-01,5.309226512908935547e-01,-1.337565660476684570e+00,-1.769833683967590332e+00,-1.308912277221679688e+00
5.457583442330360413e-02,-1.427731849253177643e-02,9.979326128959655762e-01,4.025158882141113281e-01,1.748806685209274292e-01,-7.328978776931762695e-01,5.198638439178466797e-01,-1.354669809341430664e+00,-7.551988363265991211e-01,2.382680773735046387e-01,-1.514775276184082031e+00,-1.594726443290710449e+00,8.124151229858398438e-01,1.260942816734313965e+00
1.897977590560913086e-01,3.825699537992477417e-02,1.220813870429992676e+00,1.046657841652631760e-02,2.109153270721435547e-01,-7.090290188789367676e-01,6.728172898292541504e-01,-2.585917949676513672e+00,-3.870468735694885254e-01,2.528595924377441406e-01,-3.528040647506713867e-01,-1.739679694175720215e+00,-3.345020711421966553e-01,2.473017692565917969e+00
5.792000889778137207e-01,-5.031167715787887573e-02,6.199189424514770508e-01,7.544697523117065430e-01,5.387762933969497681e-02,-5.350386500358581543e-01,3.763060569763183594e-01,4.989372789859771729e-01,8.190047740936279297e-01,2.116890430450439453e+00,1.112519979476928711e+00,-7.098332643508911133e-01,-2.069697618484497070e+00,-9.055539965629577637e-01
7.790927775204181671e-04,8.562681674957275391e-01,5.896520614624023438e-01,-5.095430612564086914e-01,5.353602766990661621e-02,1.156709622591733932e-02,8.587001562118530273e-01,1.504151582717895508e+00,1.480519413948059082e+00,2.690709590911865234e+00,-3.392028808593750000e-01,1.468787431716918945e+00,1.932385712862014771e-01,6.307342052459716797e-01
-1.893447488546371460e-01,7.188472896814346313e-02,7.775459289550781250e-01,-4.768091738224029541e-01,-5.182139873504638672e-01,7.026750445365905762e-01,1.017595306038856506e-01,-1.658356666564941406e+00,-1.175283908843994141e+00,-3.807569742202758789e-01,-1.972816228866577148e+00,-9.724268317222595215e-01,7.503877878189086914e-01,-5.844962000846862793e-01
1.374264210462570190e-01,-7.570983469486236572e-02,1.218397140502929688e+00,1.329879648983478546e-02,-9.735069237649440765e-03,-1.808454245328903198e-01,9.833734631538391113e-01,-1.987664461135864258e+00,-1.365958303213119507e-01,-2.209701061248779297e+00,5.121088027954101562e-01,-2.807037353515625000e+00,-4.439269304275512695e-01,3.933482468128204346e-01
-4.645186662673950195e-01,-5.483260750770568848e-02,1.112709522247314453e+00,-2.941043078899383545e-01,2.194202691316604614e-01,9.275408387184143066e-01,7.089030742645263672e-02,-2.806232929229736328e+00,5.979483723640441895e-01,-2.161802768707275391e+00,-1.604371815919876099e-01,-2.668664693832397461e+00,-5.064085721969604492e-01,-1.761367201805114746e+00
3.943981826305389404e-01,-2.756114304065704346e-01,9.488700628280639648e-01,2.134784311056137085e-01,7.459600269794464111e-02,-8.331254124641418457e-01,5.047419667243957520e-01,-1.027517676353454590e+00,1.094236493110656738e+00,-7.172794342041015625e-01,1.055616259574890137e+00,1.969678282737731934e+00,-1.037682652473449707e+00,-2.553989648818969727e+00
1.622961163520812988e-01,5.517611280083656311e-02,1.139749288558959961e+00,1.282351315021514893e-01,6.578323245048522949e-01,6.655878424644470215e-01,3.283368945121765137e-01,-2.852036952972412109e+00,1.651181280612945557e-01,2.966512680053710938e+00,-6.284846663475036621e-01,8.909729719161987305e-01,1.178026318550109863e+00,9.270164966583251953e-01
3.657203912734985352e-01,1.837275177240371704e-01,2.971063256263732910e-01,-6.528902053833007812e-01,6.612101197242736816e-01,-2.443387061357498169e-01,-2.771898210048675537e-01,1.508650183677673340e+00,1.883329272270202637e+00,-1.784029603004455566e+00,-2.009027481079101562e+00,-2.062804698944091797e+00,-1.565681934356689453e+00,1.035165190696716309e+00
-4.224188029766082764e-01,-6.116799116134643555e-01,4.704263210296630859e-01,3.575074672698974609e-01,-5.562345981597900391e-01,6.895735263824462891e-01,2.954316139221191406e-01,3.796031177043914795e-01,-1.181387424468994141e+00,1.183648943901062012e+00,1.117980122566223145e+00,-1.971378803253173828e+00,4.492372572422027588e-01,1.514491677284240723e+00
-3.355935961008071899e-02,-2.703205049037933350e-01,8.516932129859924316e-01,-4.560246467590332031e-01,1.942678391933441162e-01,-3.012980818748474121e-01,8.145679831504821777e-01,-2.287407875061035156e+00,1.337485671043395996e+00,2.757708549499511719e+00,-1.641592144966125488e+00,-2.814680814743041992e+00,-7.876716852188110352e-01,1.083352923393249512e+00
-1.463758200407028198e-01,-4.248037338256835938e-01,6.794552803039550781e-01,1.479535251855850220e-01,8.351382017135620117e-01,-5.171859860420227051e-01,-1.147724166512489319e-01,2.718852281570434570e+00,-4.328928887844085693e-01,1.275922894477844238e+00,-1.776061892509460449e+00,1.131128668785095215e+00,5.329917073249816895e-01,-2.431846618652343750e+00
-2.824904322624206543e-01,5.058264732360839844e-01,6.591409444808959961e-02,2.510587871074676514e-01,6.953532099723815918e-01,4.527846276760101318e-01,-4.984370172023773193e-01,1.616934061050415039e+00,1.467304944992065430e+00,5.958545207977294922e-01,-1.587320923805236816e+00,2.871190071105957031e+00,1.183900237083435059e+00,-9.333791136741638184e-01
-1.554420292377471924e-01,1.551301181316375732e-01,1.137686491012573242e+00,-5.608591437339782715e-01,-2.360938638448715210e-01,-2.493018805980682373e-01,7.533560395240783691e-01,-4.250134229660034180e-01,-5.421514511108398438e-01,3.537203744053840637e-02,-6.650493144989013672e-01,2.074423551559448242e+00,1.350176572799682617e+00,-2.409626007080078125e+00
-3.705317974090576172e-01,4.526008665561676025e-01,9.243861436843872070e-01,-2.654638588428497314e-01,-3.165952265262603760e-01,4.638734161853790283e-01,7.836567163467407227e-01,2.734368324279785156e+00,5.679375529289245605e-01,1.950588345527648926e+00,8.683724403381347656e-01,-3.828269839286804199e-01,9.793195128440856934e-01,2.843417406082153320e+00
1.715697944164276123e-01,-8.361669182777404785e-01,5.056297779083251953e-01,-4.579946398735046387e-02,9.140762686729431152e-01,-4.029400944709777832e-01,-2.506020711734890938e-03,-1.364358425140380859e+00,1.290981888771057129e+00,2.265225797891616821e-01,-6.912549585103988647e-02,-3.823086321353912354e-01,9.677203893661499023e-01,-1.414791226387023926e+00
-4.887140989303588867e-01,2.616442441940307617e-01,6.327615678310394287e-02,6.854493916034698486e-02,9.589042067527770996e-01,-9.493661671876907349e-02,-2.584404051303863525e-01,2.087107896804809570e+00,1.385362863540649414e+00,-2.452791690826416016e+00,1.598572969436645508e+00,-1.519944906234741211e+00,-1.478288322687149048e-01,6.739780306816101074e-01
-6.718756258487701416e-02,5.842913389205932617e-01,2.747916430234909058e-02,6.281041353940963745e-02,4.707181155681610107e-01,8.799757361412048340e-01,1.104689761996269226e-02,-7.180919051170349121e-01,-1.974176883697509766e+00,2.082596063613891602e+00,-1.332706093788146973e+00,-1.708315134048461914e+00,1.247557282447814941e+00,-9.753145575523376465e-01
1.391386538743972778e-01,3.191946148872375488e-01,4.498133957386016846e-01,6.874679923057556152e-01,-2.109932899475097656e-01,3.610205054283142090e-01,5.937455296516418457e-01,2.256864070892333984e+00,8.427165746688842773e-01,-1.327648997306823730e+00,-2.051874160766601562e+00,2.658856868743896484e+00,-1.735780358314514160e+00,1.344359636306762695e+00
6.704254746437072754e-01,-2.131000161170959473e-01,8.078636527061462402e-01,-5.591505765914916992e-01,3.527697920799255371e-01,-3.906591832637786865e-01,6.405384540557861328e-01,-6.778042018413543701e-02,1.081397652626037598e+00,1.131098508834838867e+00,6.111566424369812012e-01,-5.446729063987731934e-02,1.227034330368041992e+00,-2.485895633697509766e+00
8.923893421888351440e-02,-5.957560539245605469e-01,1.013751864433288574e+00,1.039776578545570374e-01,-3.348689079284667969e-01,9.321553707122802734e-01,9.021037071943283081e-02,-1.652080178260803223e+00,8.033561706542968750e-01,-1.149996519088745117e+00,3.416192531585693359e-01,-1.586754471063613892e-01,1.295254826545715332e-01,-4.550713300704956055e-01
-3.713773488998413086e-01,-3.567159175872802734e-01,8.834877014160156250e-01,7.996045947074890137e-01,-3.813219368457794189e-01,-1.379318535327911377e-02,4.637195467948913574e-01,1.459410190582275391e+00,-7.087797522544860840e-01,1.203765392303466797e+00,-9.595830440521240234e-01,-1.475200176239013672e+00,-1.588992953300476074e+00,-1.877895712852478027e+00
3.080047667026519775e-01,-3.590228259563446045e-01,8.929688930511474609e-01,1.515297889709472656e-01,5.947886109352111816e-01,-3.236179649829864502e-01,7.200949192047119141e-01,-2.257607460021972656e+00,1.502266377210617065e-01,1.555864453315734863e+00,-1.318841338157653809e+00,-1.683007359504699707e+00,-6.618880480527877808e-02,1.371911764144897461e+00
-9.254818409681320190e-02,4.426340758800506592e-01,6.965564489364624023e-01,-1.770630478858947754e-02,-8.239924907684326172e-01,-2.366213500499725342e-01,5.145221948623657227e-01,2.828242778778076172e+00,1.031986773014068604e-01,-1.287711620330810547e+00,-1.673312425613403320e+00,-1.815142750740051270e+00,-1.141515851020812988e+00,-1.958180189132690430e+00
1.497203558683395386e-01,-4.067409932613372803e-01,6.568773388862609863e-01,5.524421334266662598e-01,1.215755641460418701e-01,-2.566760964691638947e-02,8.242380023002624512e-01,-2.883101463317871094e+00,1.429847329854965210e-01,-1.339263439178466797e+00,1.986721992492675781e+00,3.166384696960449219e-01,8.269400596618652344e-01,-2.282928705215454102e+00
7.358071208000183105e-02,1.284445077180862427e-01,1.232668280601501465e+00,7.197439670562744141e-03,2.656488716602325439e-01,8.780786395072937012e-01,3.979407548904418945e-01,2.186492681503295898e+00,-3.820723667740821838e-02,2.211763381958007812e+00,3.102394938468933105e-01,-1.816021800041198730e-01,-2.493637204170227051e-01,-1.928112626075744629e+00
-4.235935509204864502e-01,-3.269768059253692627e-01,6.041818261146545410e-01,5.310481190681457520e-01,-3.887288570404052734e-01,6.452378034591674805e-01,-3.880026042461395264e-01,-2.662184000015258789e+00,1.847522974014282227e+00,-1.321576535701751709e-01,1.349274873733520508e+00,-5.892138481140136719e-01,-1.784080505371093750e+00,7.907388806343078613e-01
5.775866508483886719e-01,1.852023601531982422e-01,7.500139474868774414e-01,-1.680551022291183472e-01,-4.146957993507385254e-01,7.160363793373107910e-01,5.357956290245056152e-01,-2.648936986923217773e+00,-1.469437718391418457e+00,3.728976547718048096e-01,-8.216919302940368652e-01,2.930968999862670898e+00,-1.598226428031921387e+00,1.615393161773681641e+00
6.433444023132324219e-01,5.481209754943847656e-01,6.606824398040771484e-01,-2.345426678657531738e-01,5.677107572555541992e-01,4.249411821365356445e-01,6.649204492568969727e-01,6.309016346931457520e-01,1.217852354049682617e+00,-1.627805233001708984e+00,9.455161541700363159e-02,-2.936530709266662598e-01,-2.399297058582305908e-01,2.200133085250854492e+00
6.620948314666748047e-01,-1.109519973397254944e-01,7.599966526031494141e-01,-5.590334534645080566e-01,6.434031724929809570e-01,-3.686892688274383545e-01,-3.709206879138946533e-01,2.907903909683227539e+00,-8.152213692665100098e-01,7.181905508041381836e-01,4.592209160327911377e-01,1.424718618392944336e+00,1.874861478805541992e+00,-1.785022139549255371e+00
-3.655023574829101562e-01,-1.217880919575691223e-01,7.806645035743713379e-01,5.251096189022064209e-02,9.978768229484558105e-01,7.744043134152889252e-03,3.774088621139526367e-02,-1.714810967445373535e+00,6.719998121261596680e-01,-2.035063982009887695e+00,-1.366326689720153809e+00,-2.521615743637084961e+00,-2.083187103271484375e+00,-3.023556768894195557e-01
-6.714048385620117188e-01,1.720526814460754395e-02,8.210943937301635742e-01,-4.662799835205078125e-01,-3.965136408805847168e-01,3.486694991588592529e-01,7.097813487052917480e-01,5.566868185997009277e-01,-8.743710517883300781e-01,-1.593452095985412598e+00,8.668946027755737305e-01,1.204552412033081055e+00,-1.925531327724456787e-01,1.144669413566589355e+00
-4.349095225334167480e-01,5.616723895072937012e-01,8.331193923950195312e-01,-3.942175507545471191e-01,-3.171723484992980957e-01,-1.646896153688430786e-01,8.466826677322387695e-01,2.515538692474365234e+00,1.205651283264160156e+00,7.421091198921203613e-01,6.751619577407836914e-01,2.573440313339233398e+00,-3.135771751403808594e-01,2.722160816192626953e-01
-9.428219497203826904e-02,4.974246621131896973e-01,5.245734453201293945e-01,-2.216115146875381470e-01,7.973790913820266724e-02,8.919426798820495605e-01,-3.859643042087554932e-01,8.760820627212524414e-01,1.710749864578247070e+00,1.938268184661865234e+00,-1.795274376869201660e+00,-1.982453942298889160e+00,-8.058737516403198242e-01,1.520796179771423340e+00
-4.409564435482025146e-01,-2.651358768343925476e-02,9.684159755706787109e-01,2.821863591670989990e-01,4.860977232456207275e-01,-3.152716755867004395e-01,7.646461129188537598e-01,4.106828868389129639e-01,-8.854659199714660645e-01,-2.229130268096923828e+00,7.903325557708740234e-01,1.185243487358093262e+00,1.854277968406677246e+00,2.884366083890199661e-03
-8.297274112701416016e-01,-6.154838204383850098e-02,1.441586762666702271e-01,1.632803231477737427e-01,-5.100407004356384277e-01,2.915931940078735352e-01,7.925726175308227539e-01,-3.681990876793861389e-02,-1.757441163063049316e+00,-2.730520963668823242e+00,-2.847176790237426758e-01,-1.054364919662475586e+00,-1.045656561851501465e+00,-2.496442079544067383e+00
-8.025892078876495361e-02,2.222243696451187134e-01,7.758379578590393066e-01,4.219512045383453369e-01,-3.734865486621856689e-01,7.445652484893798828e-01,-3.578931093215942383e-01,2.741035461425781250e+00,1.407260179519653320e+00,4.462404847145080566e-01,1.888249158859252930e+00,2.964522361755371094e+00,7.216514348983764648e-01,-1.407977104187011719e+00
-5.552248954772949219e-01,-2.285416722297668457e-01,9.183375835418701172e-01,-1.645363420248031616e-01,-6.919791698455810547e-01,-6.983208656311035156e-02,6.994398236274719238e-01,-2.728320121765136719e+00,1.073456406593322754e+00,-1.750516295433044434e-01,6.346414685249328613e-01,2.469025611877441406e+00,-1.334175229072570801e+00,5.212490558624267578e-01
-7.912159711122512817e-02,-3.139415681362152100e-01,1.124302864074707031e+00,5.263949632644653320e-01,-2.038394212722778320e-01,-2.623395621776580811e-01,7.826466560363769531e-01,7.998285889625549316e-01,-3.465887904167175293e-02,-2.425616264343261719e+00,-6.368592381477355957e-01,-9.891678690910339355e-01,7.126535773277282715e-01,2.185267210006713867e+00
4.330475330352783203e-01,1.375816911458969116e-01,6.416753530502319336e-01,-5.701649785041809082e-01,5.079824924468994141e-01,2.538790367543697357e-02,6.451520919799804688e-01,-1.009965300559997559e+00,8.112584352493286133e-01,-1.256740808486938477e+00,1.864822387695312500e+00,1.860738277435302734e+00,2.098441869020462036e-01,-2.759528160095214844e-01
-2.292675971984863281e-01,5.963188409805297852e-01,7.629671692848205566e-01,-4.113628566265106201e-01,9.080497622489929199e-01,-2.439651452004909515e-02,7.504113763570785522e-02,-1.100677251815795898e+00,-7.402690649032592773e-01,2.790132284164428711e+00,-4.013905823230743408e-01,8.661590516567230225e-02,2.044629096984863281e+00,9.630925059318542480e-01
-2.447780966758728027e-01,-3.316556513309478760e-01,1.107468247413635254e+00,2.812419533729553223e-01,-1.667387187480926514e-01,7.391346096992492676e-01,5.888813734054565430e-01,2.527554631233215332e-01,-3.633877336978912354e-01,-1.853922486305236816e+00,-5.789772868156433105e-01,1.521764278411865234e+00,5.253109335899353027e-01,1.588191866874694824e+00
7.262794673442840576e-02,-1.664837896823883057e-01,1.159680724143981934e+00,2.871893346309661865e-01,6.794605851173400879e-01,-4.738412499427795410e-01,4.809678792953491211e-01,-1.759120702743530273e+00,2.061707526445388794e-01,2.537861108779907227e+00,-2.592186927795410156e-01,1.176439285278320312e+00,-1.585766792297363281e+00,2.890289545059204102e+00
-6.297962665557861328e-01,-2.848537564277648926e-01,7.632115483283996582e-01,-7.203414440155029297e-01,4.961715638637542725e-02,2.425487339496612549e-01,6.479325294494628906e-01,6.460574269294738770e-01,-1.092028260231018066e+00,-2.027224779129028320e+00,2.129539400339126587e-01,3.100661039352416992e-01,-1.703961372375488281e+00,3.007027864456176758e+00
-3.516179025173187256e-01,-1.379882991313934326e-01,9.603428840637207031e-01,7.595802843570709229e-02,-1.839054077863693237e-01,9.778966009616851807e-02,9.751135110855102539e-01,2.450375080108642578e+00,-1.614866852760314941e-01,-2.270001411437988281e+00,1.391278147697448730e+00,-9.639948606491088867e-03,9.073058962821960449e-01,5.419605970382690430e-02
2.574134171009063721e-01,-5.604051947593688965e-01,8.453890681266784668e-01,3.349976614117622375e-02,4.296061396598815918e-01,-6.930272579193115234e-01,5.779529213905334473e-01,-1.344523668289184570e+00,1.402088403701782227e+00,2.849828958511352539e+00,-1.073457479476928711e+00,3.042130768299102783e-01,-4.876337945461273193e-01,2.577045917510986328e+00
6.844044327735900879e-01,3.703485429286956787e-01,5.386811494827270508e-01,-3.350220024585723877e-01,5.632560253143310547e-01,3.854402005672454834e-01,6.495680212974548340e-01,4.890243336558341980e-02,1.588918089866638184e+00,2.160179138183593750e+00,-9.372527003288269043e-01,1.720931291580200195e+00,-3.562883436679840088e-01,2.652672529220581055e+00
6.371102333068847656e-01,-2.586454451084136963e-01,3.823018670082092285e-01,3.803903162479400635e-01,8.213234543800354004e-01,-1.995683759450912476e-01,-3.753711879253387451e-01,4.591628909111022949e-02,1.342714548110961914e+00,-1.288659334182739258e+00,-8.438072800636291504e-01,5.158988237380981445e-01,2.089797258377075195e+00,-6.328352540731430054e-02
4.550492018461227417e-02,-1.049228534102439880e-01,1.245593428611755371e+00,1.501363217830657959e-01,3.469227626919746399e-02,9.339148998260498047e-01,3.225811421871185303e-01,-2.085276603698730469e+00,1.616059541702270508e-01,-9.190530180931091309e-01,2.174711674451828003e-01,2.577191591262817383e-01,-1.870520412921905518e-01,-1.088700294494628906e+00
-1.118405461311340332e-01,-6.497999429702758789e-01,5.029940605163574219e-01,6.985239684581756592e-02,-7.839493155479431152e-01,-2.520704865455627441e-01,5.630316734313964844e-01,-1.847573876380920410e+00,8.272795081138610840e-01,4.260557591915130615e-01,-1.116051077842712402e+00,1.635113716125488281e+00,-1.911565780639648438e+00,1.494818806648254395e+00
1.823331788182258606e-02,6.576816439628601074e-01,6.872086524963378906e-01,8.513426184654235840e-01,-3.427581191062927246e-01,-3.422747552394866943e-01,2.014464437961578369e-01,1.217846751213073730e+00,1.304426550865173340e+00,-6.760222911834716797e-01,6.856581568717956543e-01,1.903354167938232422e+00,2.014046430587768555e+00,-2.853565663099288940e-02
2.693408131599426270e-01,3.909752666950225830e-01,8.065913915634155273e-01,-5.252391695976257324e-01,3.674840033054351807e-01,1.310119479894638062e-01,7.562507390975952148e-01,-2.747380733489990234e+00,9.597147814929485321e-03,5.351414084434509277e-01,1.548597097396850586e+00,2.220490217208862305e+00,-2.500447630882263184e-01,1.585261672735214233e-01
5.251078605651855469e-01,2.157270349562168121e-02,1.034581065177917480e+00,-1.136351004242897034e-01,2.704559266567230225e-01,8.302352577447891235e-02,9.523905515670776367e-01,-2.555939555168151855e-01,9.317705631256103516e-01,-5.341976284980773926e-01,6.483465433120727539e-01,-2.051061630249023438e+00,-1.277974694967269897e-01,2.866201877593994141e+00
-1.720564514398574829e-01,-2.283449470996856689e-01,8.747509121894836426e-01,-6.244581937789916992e-01,-9.904017299413681030e-02,-2.355242520570755005e-02,7.743954658508300781e-01,-9.579969048500061035e-01,8.071991801261901855e-01,8.891485333442687988e-01,1.473471045494079590e+00,2.090835571289062500e+00,1.505209088325500488e+00,-7.329809069633483887e-01
-1.644169539213180542e-01,-5.027266144752502441e-01,6.957335472106933594e-01,-8.498854935169219971e-02,2.775144875049591064e-01,-7.531744837760925293e-01,5.903311967849731445e-01,-1.087954521179199219e+00,9.161614179611206055e-01,1.539321303367614746e+00,1.559834361076354980e+00,-2.754029989242553711e+00,-1.807795047760009766e+00,8.012170791625976562e-01
-6.537742018699645996e-01,3.727958798408508301e-01,-1.061551868915557861e-01,-4.881596565246582031e-01,7.996019124984741211e-01,3.478655219078063965e-01,-3.642043098807334900e-02,2.497843503952026367e+00,2.083612918853759766e+00,1.464341044425964355e+00,-2.765796482563018799e-01,-2.382886409759521484e+00,5.602416396141052246e-01,2.275957107543945312e+00
1.137006208300590515e-01,3.128957152366638184e-01,7.362101078033447266e-01,3.675908222794532776e-02,8.066491484642028809e-01,5.873882770538330078e-01,5.423054099082946777e-02,-3.342182040214538574e-01,8.126301765441894531e-01,2.393966436386108398e+00,-1.901748657226562500e+00,1.757350683212280273e+00,-8.655390739440917969e-01,-7.645522952079772949e-01
8.259977400302886963e-02,2.702555954456329346e-01,9.795192480087280273e-01,3.780836164951324463e-01,-4.604992866516113281e-01,7.463379502296447754e-01,-2.966021895408630371e-01,-2.103231191635131836e+00,1.305491775274276733e-01,3.912249803543090820e-01,1.225302696228027344e+00,-1.958356380462646484e+00,-1.763613343238830566e+00,2.265330314636230469e+00
-6.445342302322387695e-01,-2.042758315801620483e-01,2.974778711795806885e-01,-1.209853440523147583e-01,-7.004030942916870117e-01,4.769495427608489990e-01,5.170272588729858398e-01,7.103756070137023926e-01,-1.085609674453735352e+00,2.449776649475097656e+00,-1.494904994964599609e+00,-2.305410504341125488e-01,-1.030537366867065430e+00,-1.494624137878417969e+00
-8.393858075141906738e-01,4.126911237835884094e-02,3.773804903030395508e-01,7.124722003936767578e-01,8.431641012430191040e-02,-6.188496947288513184e-01,-3.198422789573669434e-01,-2.911294221878051758e+00,1.276044130325317383e+00,2.380824565887451172e+00,7.439747452735900879e-01,-2.029613494873046875e+00,-2.440817207098007202e-01,-9.433859586715698242e-01
6.311602592468261719e-01,9.717570245265960693e-02,6.881714463233947754e-01,6.693724989891052246e-01,4.067717790603637695e-01,-5.893610045313835144e-02,6.188730001449584961e-01,5.196609497070312500e-01,5.819851160049438477e-01,-4.491597712039947510e-01,-1.046786189079284668e+00,2.049074649810791016e+00,-1.259916901588439941e+00,-7.043688893318176270e-01
-8.073276877403259277e-01,3.417689353227615356e-02,6.914676427841186523e-01,-4.154663905501365662e-02,-2.690506875514984131e-01,-5.608052015304565430e-02,9.605938792228698730e-01,-9.964536875486373901e-02,-1.100790262222290039e+00,4.267978370189666748e-01,3.133714795112609863e-01,2.923693418502807617e+00,-8.577354550361633301e-01,2.919596910476684570e+00
-2.618661522865295410e-01,-6.513518691062927246e-01,5.804361701011657715e-01,-2.493798285722732544e-01,5.730211138725280762e-01,-3.515050709247589111e-01,6.970657706260681152e-01,9.389545917510986328e-01,-9.446544051170349121e-01,3.912306427955627441e-01,7.782751321792602539e-01,1.451894044876098633e+00,-1.888959050178527832e+00,6.500002741813659668e-01
5.541316866874694824e-01,4.148013591766357422e-01,4.559727013111114502e-01,-3.430968523025512695e-01,2.682919800281524658e-01,6.386960744857788086e-01,6.343274712562561035e-01,-1.942067220807075500e-02,1.692921757698059082e+00,-1.268749356269836426e+00,1.251862406730651855e+00,6.353364586830139160e-01,-6.185965538024902344e-01,8.345511555671691895e-01
5.209038853645324707e-01,7.710218429565429688e-02,1.009773969650268555e+00,2.360818088054656982e-01,1.799528747797012329e-01,-9.791665524244308472e-02,9.498919248580932617e-01,7.173825502395629883e-01,7.446180582046508789e-01,1.311015367507934570e+00,6.667780876159667969e-01,2.007732868194580078e+00,5.372044444084167480e-01,2.464253187179565430e+00
-4.151652157306671143e-01,-5.295261740684509277e-01,7.897897362709045410e-01,7.912643551826477051e-01,-3.274205923080444336e-01,4.508534967899322510e-01,2.518486082553863525e-01,8.684026002883911133e-01,-8.003401160240173340e-01,-3.511622548103332520e-01,3.333179950714111328e-01,1.378850579261779785e+00,-1.716845393180847168e+00,-1.251599073410034180e+00
-1.579878330230712891e-01,-8.491696119308471680e-01,6.004224419593811035e-01,4.574322104454040527e-01,3.051872551441192627e-01,-6.630868911743164062e-01,5.078702569007873535e-01,1.468580961227416992e+00,-1.358675718307495117e+00,-2.182807683944702148e+00,1.650708466768264771e-01,2.797875404357910156e+00,1.292341202497482300e-01,2.525848388671875000e+00
3.001287281513214111e-01,-7.085157632827758789e-01,7.536723017692565918e-01,1.152092888951301575e-01,8.093390464782714844e-01,-2.961985468864440918e-01,4.939266443252563477e-01,1.961063981056213379e+00,-1.018001317977905273e+00,1.926748037338256836e+00,-7.603563368320465088e-02,1.818739295005798340e+00,1.032785415649414062e+00,-9.852324724197387695e-01
1.625662744045257568e-01,-2.878275811672210693e-01,3.758781403303146362e-02,8.405485153198242188e-01,-2.149751931428909302e-01,2.031865566968917847e-01,-4.538491070270538330e-01,-2.283628940582275391e+00,1.938962936401367188e+00,-2.131790637969970703e+00,1.954071521759033203e+00,2.137117147445678711e+00,9.391967654228210449e-01,2.931800365447998047e+00
-5.425935983657836914e-01,-1.363559067249298096e-01,8.333486914634704590e-01,3.599239885807037354e-01,-1.907511800527572632e-02,-2.734191119670867920e-01,8.918143510818481445e-01,2.772834300994873047e+00,1.275853753089904785e+00,-7.965068817138671875e-01,1.217605829238891602e+00,-2.884464740753173828e+00,1.531937271356582642e-01,-2.761964499950408936e-01
2.608560621738433838e-01,1.836762204766273499e-02,9.921556711196899414e-01,3.974464535713195801e-01,4.319029748439788818e-01,8.014151453971862793e-01,1.150213703513145447e-01,1.025584220886230469e+00,7.218994498252868652e-01,5.017896890640258789e-01,1.350538492202758789e+00,2.612744569778442383e+00,-1.640556097030639648e+00,-1.625989556312561035e+00
-3.768479228019714355e-01,-6.211523711681365967e-02,7.238550186157226562e-01,-4.067050665616989136e-02,-6.638334393501281738e-01,7.222746014595031738e-01,-1.897115856409072876e-01,-2.818560361862182617e+00,1.609479188919067383e+00,3.643987178802490234e-01,1.739419937133789062e+00,-1.653440237045288086e+00,-1.829592227935791016e+00,1.978319883346557617e+00
1.985995173454284668e-01,1.732425540685653687e-01,9.056084156036376953e-01,-4.849289059638977051e-01,-5.535072088241577148e-01,-4.512413442134857178e-01,5.048318505287170410e-01,2.429355144500732422e+00,-8.285838961601257324e-01,-5.441833138465881348e-01,-1.508898615837097168e+00,2.648169040679931641e+00,-8.194757103919982910e-01,-4.505364224314689636e-02
-7.099569439888000488e-01,-4.807374775409698486e-01,3.355532884597778320e-01,-5.031438469886779785e-01,6.368078589439392090e-01,5.034939050674438477e-01,-2.963375747203826904e-01,-2.390310764312744141e+00,1.622148036956787109e+00,-2.162013053894042969e+00,-1.941765844821929932e-01,1.011685490608215332e+00,1.018463015556335449e+00,2.724300861358642578e+00
5.492772459983825684e-01,-4.575510025024414062e-01,8.838698267936706543e-01,4.175054132938385010e-01,1.378724426031112671e-01,2.758927941322326660e-01,8.547301292419433594e-01,-4.799114763736724854e-01,1.014814138412475586e+00,-2.050102233886718750e+00,-3.565308749675750732e-01,-2.379453420639038086e+00,-4.462302476167678833e-02,-5.612881183624267578e-01
7.008416652679443359e-01,-3.586196899414062500e-01,8.668962121009826660e-02,7.671158313751220703e-01,-3.205875754356384277e-01,5.716425180435180664e-02,5.527108907699584961e-01,2.679382562637329102e+00,-1.957353472709655762e+00,-7.682906389236450195e-01,-2.371563762426376343e-01,2.673648118972778320e+00,1.488906383514404297e+00,-2.447403430938720703e+00
-2.678988687694072723e-02,-2.509555965662002563e-02,1.186468124389648438e+00,2.073411047458648682e-01,3.999150395393371582e-01,4.922699630260467529e-01,7.448140382766723633e-01,1.101848840713500977e+00,1.862581670284271240e-01,2.835574626922607422e+00,-5.919856429100036621e-01,-6.044514775276184082e-01,-1.299326896667480469e+00,-2.308094978332519531e+00
3.192821741104125977e-01,-1.009242311120033264e-01,1.015312194824218750e+00,6.688542962074279785e-01,-6.446625590324401855e-01,-6.711035966873168945e-02,-3.640609085559844971e-01,2.065270423889160156e+00,-1.896794438362121582e-01,9.658890962600708008e-01,5.935702919960021973e-01,5.764756798744201660e-01,-2.004933357238769531e+00,1.751928567886352539e+00
6.888472288846969604e-02,3.219656050205230713e-01,7.750287652015686035e-01,3.693663775920867920e-01,-1.894718557596206665e-01,-7.327311635017395020e-01,5.392345786094665527e-01,-1.521692752838134766e+00,-1.566926360130310059e+00,3.832134008407592773e-01,-1.807001590728759766e+00,1.573475480079650879e+00,-1.226656317710876465e+00,-1.735154509544372559e+00
-2.504787445068359375e-01,-2.514987587928771973e-01,7.047390937805175781e-01,4.029254615306854248e-01,8.758115768432617188e-01,1.015440449118614197e-01,-2.455484122037887573e-01,2.193816661834716797e+00,-7.181280851364135742e-01,-2.091455459594726562e+00,1.677740573883056641e+00,-2.950233221054077148e+00,1.501288056373596191e+00,-2.170477628707885742e+00
4.785883724689483643e-01,3.997965753078460693e-01,8.072175979614257812e-01,6.868929266929626465e-01,-9.715799242258071899e-02,-5.626165270805358887e-01,-4.496677815914154053e-01,-2.195670843124389648e+00,-1.044457316398620605e+00,-1.931572914123535156e+00,6.746367216110229492e-01,-2.814077138900756836e+00,-2.032148361206054688e+00,1.771415591239929199e+00
-4.361043274402618408e-01,2.922841310501098633e-01,4.596433937549591064e-01,-2.296598702669143677e-01,-8.007180094718933105e-01,1.820181012153625488e-01,5.224714279174804688e-01,-1.555145144462585449e+00,-7.381843924522399902e-01,-1.933061838150024414e+00,-1.874906659126281738e+00,1.434383749961853027e+00,1.092668026685714722e-01,1.500683784484863281e+00
4.375876486301422119e-01,-3.095473721623420715e-02,1.463721394538879395e-01,7.075089216232299805e-01,-1.460938900709152222e-01,-6.898068189620971680e-01,4.747874289751052856e-02,-1.409592777490615845e-01,1.164555072784423828e+00,7.855562120676040649e-02,-1.637590765953063965e+00,2.277924306690692902e-02,1.865752696990966797e+00,-2.789424419403076172e+00
-7.422608882188796997e-02,7.808490991592407227e-01,2.462853193283081055e-01,5.980148315429687500e-01,7.648844718933105469e-01,-5.081317201256752014e-02,2.339832186698913574e-01,1.680702805519104004e+00,1.537206053733825684e+00,1.272940635681152344e-01,-1.757510751485824585e-01,2.753586769104003906e+00,-1.839610338211059570e+00,-1.283922046422958374e-01
5.924330651760101318e-02,4.249253123998641968e-02,9.371261596679687500e-01,4.911015331745147705e-01,2.026971802115440369e-02,8.676319718360900879e-01,-7.498771697282791138e-02,-5.838149189949035645e-01,7.795233726501464844e-01,-5.774578079581260681e-02,1.716150879859924316e+00,-2.530956983566284180e+00,-1.755980849266052246e+00,6.615513563156127930e-01
4.881075322628021240e-01,3.912325501441955566e-01,8.330094218254089355e-01,-4.917091727256774902e-01,3.607924282550811768e-02,7.801913022994995117e-01,-3.849962353706359863e-01,-2.577293395996093750e+00,-9.424108266830444336e-01,7.896931767463684082e-01,2.025549560785293579e-01,-1.037370443344116211e+00,2.071892023086547852e+00,1.866611093282699585e-01
6.064052581787109375e-01,5.935238301753997803e-02,8.780329227447509766e-01,3.785380423069000244e-01,6.430699825286865234e-01,2.847624719142913818e-01,6.017310619354248047e-01,-2.746582329273223877e-01,4.416107237339019775e-01,-2.378522872924804688e+00,8.452116847038269043e-01,2.093514204025268555e+00,6.321582794189453125e-01,1.642999887466430664e+00
-4.812970757484436035e-03,-4.455126821994781494e-01,9.797639250755310059e-01,8.638622611761093140e-02,3.428118303418159485e-02,-1.442603915929794312e-01,9.851655364036560059e-01,1.310490369796752930e+00,-1.193708658218383789e+00,-2.874788939952850342e-01,-1.137283444404602051e+00,-9.557989835739135742e-01,-1.947833448648452759e-01,-5.131900310516357422e-01
1.315275877714157104e-01,-7.772129494696855545e-03,1.139226078987121582e+00,-2.267559319734573364e-01,-5.949277877807617188e-01,-3.634906932711601257e-02,7.702736258506774902e-01,-2.402808904647827148e+00,-3.067702353000640869e-01,9.797697663307189941e-01,-5.265266299247741699e-01,-2.061281919479370117e+00,1.771795630455017090e+00,-2.644232273101806641e+00
3.293024748563766479e-02,-7.556229829788208008e-01,5.777455568313598633e-01,2.229751497507095337e-01,-3.093730211257934570e-01,6.059590578079223633e-01,6.981289386749267578e-01,1.968773961067199707e+00,-1.703873753547668457e+00,-2.394034862518310547e+00,1.000266313552856445e+00,1.850076079368591309e+00,2.361251860857009888e-01,5.281851291656494141e-01
-4.633633494377136230e-01,-4.554816782474517822e-01,8.466141819953918457e-01,4.620198011398315430e-01,-4.371646940708160400e-01,7.025365829467773438e-01,3.191661536693572998e-01,3.654611110687255859e-01,-7.135772705078125000e-01,-2.241724491119384766e+00,-6.132469177246093750e-01,9.811503291130065918e-01,1.048388242721557617e+00,2.248547077178955078e+00
9.506220370531082153e-02,6.767206788063049316e-01,-1.147662997245788574e-01,3.696854412555694580e-01,6.632948517799377441e-01,5.958077311515808105e-01,2.615067064762115479e-01,1.311800479888916016e+00,1.962023615837097168e+00,5.958454608917236328e-01,-6.214230060577392578e-01,4.623777866363525391e-01,-1.203276872634887695e+00,9.574476480484008789e-01
2.647694945335388184e-01,7.980576157569885254e-01,1.645246148109436035e-01,4.901680052280426025e-01,7.343485951423645020e-01,4.647338092327117920e-01,-6.700795143842697144e-02,-1.636363863945007324e+00,-1.641091108322143555e+00,2.049487113952636719e+00,-5.547589659690856934e-01,1.558333158493041992e+00,3.103893697261810303e-01,1.876708626747131348e+00
-1.187215819954872131e-01,6.296708583831787109e-01,-4.226068779826164246e-02,7.324796915054321289e-01,-4.284258186817169189e-01,4.814348816871643066e-01,2.194202989339828491e-01,2.048191785812377930e+00,1.987776160240173340e+00,1.889582991600036621e+00,4.757346510887145996e-01,8.467938303947448730e-01,-1.984423398971557617e+00,2.621126890182495117e+00
-1.176847442984580994e-01,-5.848745107650756836e-01,8.906025886535644531e-01,-1.925186365842819214e-01,-2.270616143941879272e-01,6.711546778678894043e-01,6.789189577102661133e-01,1.955059647560119629e+00,-9.741126894950866699e-01,-1.896449089050292969e+00,8.490626811981201172e-01,-1.133507609367370605e+00,-6.709409356117248535e-01,-3.017028093338012695e+00
-3.351153433322906494e-02,4.682723283767700195e-01,7.644371986389160156e-01,3.053753972053527832e-01,-9.683553129434585571e-02,9.415605068206787109e-01,1.040796563029289246e-01,2.194809436798095703e+00,2.778051495552062988e-01,-5.887575149536132812e-01,-1.500111937522888184e+00,7.902585864067077637e-01,-1.965978980064392090e+00,1.503411293029785156e+00
-1.428938060998916626e-01,8.695961534976959229e-02,1.162131547927856445e+00,4.489321112632751465e-01,1.903092712163925171e-01,-2.525873780250549316e-01,8.357284069061279297e-01,-1.690435409545898438e+00,-3.358048796653747559e-01,-9.441422224044799805e-01,-5.443203449249267578e-01,1.314976930618286133e+00,1.159606337547302246e+00,4.129055440425872803e-01
7.572337388992309570e-01,3.004249036312103271e-01,1.762003004550933838e-01,8.298579454421997070e-01,-1.424465030431747437e-01,4.718630313873291016e-01,2.615151405334472656e-01,-2.462914466857910156e+00,-1.874027848243713379e+00,-2.032970428466796875e+00,4.935994446277618408e-01,1.032351016998291016e+00,-9.546133875846862793e-01,9.892272353172302246e-01
-1.965644657611846924e-01,4.227788448333740234e-01,9.863581657409667969e-01,-3.925394713878631592e-01,1.879139244556427002e-01,4.302763640880584717e-01,7.908624410629272461e-01,-8.508515357971191406e-02,-2.427647560834884644e-01,-1.346055030822753906e+00,1.067903399467468262e+00,-2.291652917861938477e+00,-2.935771048069000244e-01,-1.324072003364562988e+00
-1.927677690982818604e-01,3.863684237003326416e-01,6.136905550956726074e-01,3.213808834552764893e-01,8.270610570907592773e-01,3.994139730930328369e-01,-2.305487841367721558e-01,1.059158682823181152e+00,-5.599259212613105774e-02,9.917845129966735840e-01,-1.904151320457458496e+00,-6.215195059776306152e-01,4.160514175891876221e-01,-3.007368564605712891e+00
-4.980656802654266357e-01,4.832801520824432373e-01,4.848478138446807861e-01,-4.025606811046600342e-02,1.148698851466178894e-01,-8.220404386520385742e-01,5.562680959701538086e-01,-1.178401231765747070e+00,-1.209580302238464355e+00,-2.152691841125488281e+00,-1.024077534675598145e+00,-1.019942402839660645e+00,-2.062016248703002930e+00,1.508923411369323730e+00
1.603403538465499878e-01,4.456826746463775635e-01,1.061673283576965332e+00,7.295086383819580078e-01,2.716252803802490234e-01,3.875814080238342285e-01,-4.937788844108581543e-01,-1.924465656280517578e+00,-5.017858743667602539e-01,1.208609580993652344e+00,1.098914770409464836e-03,1.978163599967956543e+00,1.282608389854431152e+00,-2.614042043685913086e+00
1.519505381584167480e-01,-4.375643134117126465e-01,6.787507534027099609e-01,-5.683458410203456879e-03,-3.672987804748117924e-04,6.902410984039306641e-01,7.235570549964904785e-01,2.146752834320068359e+00,-1.917199850082397461e+00,-2.855845212936401367e+00,1.764161109924316406e+00,2.148803949356079102e+00,3.173392415046691895e-01,4.483731389045715332e-01
1.121184676885604858e-01,-4.008195698261260986e-01,4.546777009963989258e-01,5.487704277038574219e-01,7.602211833000183105e-01,-2.987780869007110596e-01,-1.778948456048965454e-01,1.243191838264465332e+00,-3.447627425193786621e-01,-2.283607006072998047e+00,-2.007031440734863281e+00,-1.039846539497375488e+00,1.262175321578979492e+00,7.215861678123474121e-01
-4.590752422809600830e-01,2.509165108203887939e-01,-6.625436991453170776e-02,-2.774515375494956970e-02,8.627224564552307129e-01,-1.565781235694885254e-01,-4.800243675708770752e-01,1.970281362533569336e+00,1.758327484130859375e+00,-2.444086313247680664e+00,1.442972779273986816e+00,-1.523190617561340332e+00,3.722631931304931641e-01,1.463788449764251709e-01
-5.050287246704101562e-01,4.859383776783943176e-02,1.038382887840270996e+00,3.680951148271560669e-02,-3.293070495128631592e-01,2.809253633022308350e-01,9.007124304771423340e-01,-6.185328364372253418e-01,-7.947200536727905273e-01,-9.523473381996154785e-01,-6.992405652999877930e-01,-1.969340085983276367e+00,4.391228035092353821e-02,-2.357777118682861328e+00
6.389916539192199707e-01,3.630311191082000732e-01,4.409682452678680420e-01,8.169669508934020996e-01,-2.505809664726257324e-01,-2.694113552570343018e-01,-4.440627396106719971e-01,5.905672535300254822e-02,1.700325250625610352e+00,-8.938251137733459473e-01,9.524434208869934082e-01,1.892678976058959961e+00,1.319623947143554688e+00,-1.611042022705078125e+00
7.876602560281753540e-02,6.832895278930664062e-01,2.571126818656921387e-01,6.755157113075256348e-01,-2.767428457736968994e-01,-6.533225774765014648e-01,2.006528079509735107e-01,-2.098042249679565430e+00,-1.268064975738525391e+00,6.076477766036987305e-01,1.089987277984619141e+00,9.228090047836303711e-01,-1.352367162704467773e+00,1.666734218597412109e+00
7.772272229194641113e-01,5.763803422451019287e-02,7.999375462532043457e-01,-2.728085517883300781e-01,3.439522981643676758e-01,-5.846238732337951660e-01,6.822662949562072754e-01,-3.491027653217315674e-02,1.065820217132568359e+00,1.542142033576965332e+00,-2.140251696109771729e-01,2.516981840133666992e+00,2.701425552368164062e-01,8.264904022216796875e-01
1.222909465432167053e-01,5.646159648895263672e-01,4.032839089632034302e-02,6.819561123847961426e-01,5.925549864768981934e-01,-4.636324942111968994e-02,-4.262216389179229736e-01,7.389270663261413574e-01,1.525753736495971680e+00,7.549232840538024902e-01,-1.462066292762756348e+00,-2.561840772628784180e+00,-2.420783042907714844e-01,-1.204501509666442871e+00
-1.474980264902114868e-01,7.547982931137084961e-01,3.570064008235931396e-01,9.729524254798889160e-01,-1.718469709157943726e-01,6.865194439888000488e-02,-1.382716149091720581e-01,-1.337113380432128906e+00,-1.859101891517639160e+00,4.353795200586318970e-02,-7.941617369651794434e-01,-2.853488624095916748e-01,-1.856094717979431152e+00,2.026219606399536133e+00
-8.001376986503601074e-01,-3.353022336959838867e-01,2.778677344322204590e-01,3.101531267166137695e-01,-7.353951334953308105e-01,-1.928810775279998779e-01,5.707852840423583984e-01,-2.511728763580322266e+00,1.525766968727111816e+00,2.108353137969970703e+00,4.817460179328918457e-01,4.194127023220062256e-02,-1.561930477619171143e-01,3.317998349666595459e-01
-1.780264377593994141e-01,5.260926485061645508e-01,7.580223679542541504e-01,1.494246572256088257e-01,1.229553762823343277e-02,9.255762100219726562e-01,3.476056754589080811e-01,1.731681585311889648e+00,1.658244729042053223e+00,-2.982861995697021484e-01,1.297753930091857910e+00,9.010215401649475098e-01,-7.475869655609130859e-01,-1.488738059997558594e-01
5.392479300498962402e-01,2.425862848758697510e-01,5.249997377395629883e-01,1.391964405775070190e-01,7.215995192527770996e-01,6.607673317193984985e-02,6.749460697174072266e-01,-2.071831941604614258e+00,-1.835219264030456543e+00,-2.352867126464843750e+00,1.671858668327331543e+00,-9.290589094161987305e-01,8.977228999137878418e-01,2.778827026486396790e-02
2.435227483510971069e-01,6.774720549583435059e-01,7.902260422706604004e-01,4.839559495449066162e-01,7.508754730224609375e-01,4.486328363418579102e-01,2.648095786571502686e-02,-1.943074464797973633e+00,-1.056648612022399902e+00,-3.693498075008392334e-01,-2.537494003772735596e-01,1.349895596504211426e-01,-1.429440617561340332e+00,-7.767030596733093262e-01
7.005450874567031860e-02,4.181857407093048096e-01,1.116830587387084961e+00,3.073651492595672607e-01,1.722689419984817505e-01,9.240779280662536621e-01,1.480885893106460571e-01,-1.288335442543029785e+00,-3.821458518505096436e-01,-9.591486454010009766e-01,4.100233614444732666e-01,1.716307044029235840e+00,6.170312762260437012e-01,-2.651693582534790039e+00
-1.407729834318161011e-01,-5.208572149276733398e-01,8.792005777359008789e-01,7.425714731216430664e-01,-3.233681917190551758e-01,-3.542368113994598389e-01,4.674792885780334473e-01,-2.406250000000000000e+00,7.471936941146850586e-01,-1.280897617340087891e+00,9.371733665466308594e-01,9.290699362754821777e-01,1.702084302902221680e+00,2.280235767364501953e+00
-6.525803357362747192e-02,-2.647162973880767822e-01,1.165397405624389648e+00,1.664526313543319702e-01,2.789316177368164062e-01,-4.161393344402313232e-01,8.493048548698425293e-01,-9.888495206832885742e-01,3.465784788131713867e-01,-2.127806663513183594e+00,-6.290692090988159180e-01,2.775366783142089844e+00,8.313909769058227539e-01,-6.599911451339721680e-01
6.898214817047119141e-01,2.645816206932067871e-01,4.785538651049137115e-03,5.266600847244262695e-01,8.225935101509094238e-01,1.194297298789024353e-01,-1.780607104301452637e-01,5.639860033988952637e-01,1.834699392318725586e+00,-1.129963755607604980e+00,-5.165645480155944824e-01,1.730756878852844238e+00,1.311865448951721191e+00,1.039181947708129883e+00
-2.112545371055603027e-01,7.160621285438537598e-01,8.536300659179687500e-01,-4.213749617338180542e-02,5.301215052604675293e-01,8.388886451721191406e-01,1.160237714648246765e-01,1.952081799507141113e+00,1.000177025794982910e+00,1.100271344184875488e+00,1.105561628937721252e-01,8.665286898612976074e-01,-3.208346664905548096e-01,-8.440441489219665527e-01
1.440514475107192993e-01,4.124497771263122559e-01,4.638435542583465576e-01,6.654901057481765747e-02,7.522846460342407227e-01,-3.778675496578216553e-01,5.355886220932006836e-01,-8.153617978096008301e-01,-1.339311599731445312e+00,-1.696014881134033203e+00,1.875188469886779785e+00,-8.146999031305313110e-02,-1.145453810691833496e+00,-2.213987350463867188e+00
-3.559141755104064941e-01,-5.194303393363952637e-01,1.150199696421623230e-01,-5.534238815307617188e-01,7.642278075218200684e-01,2.954393327236175537e-01,1.496443003416061401e-01,-2.509152889251708984e+00,1.442738294601440430e+00,-2.366878271102905273e+00,1.134637355804443359e+00,1.988641023635864258e+00,1.607164144515991211e+00,-2.823740005493164062e+00
2.820773720741271973e-01,-5.891110897064208984e-01,8.549209237098693848e-01,3.335522711277008057e-01,2.298060506582260132e-01,9.095904231071472168e-01,9.261332452297210693e-02,-9.686596989631652832e-01,1.115506768226623535e+00,-2.189399003982543945e+00,-5.163946151733398438e-01,-2.004265308380126953e+00,1.387934923171997070e+00,1.656042337417602539e+00
3.112504482269287109e-01,-7.568906545639038086e-01,5.951833724975585938e-01,7.722611427307128906e-01,-3.259180188179016113e-01,5.392360091209411621e-01,8.133117109537124634e-02,1.833902239799499512e+00,-1.400986313819885254e+00,-3.698534369468688965e-01,-3.733945786952972412e-01,1.046558618545532227e+00,-1.099430918693542480e+00,-3.408707082271575928e-01
1.475965082645416260e-01,-6.903601884841918945e-01,8.262662291526794434e-01,-4.390366375446319580e-01,-5.126895904541015625e-01,7.183793783187866211e-01,1.683071404695510864e-01,-1.276263236999511719e+00,1.041067361831665039e+00,-3.030675649642944336e-01,1.424655765295028687e-01,-1.130640268325805664e+00,1.292760729789733887e+00,-1.892729103565216064e-01
9.574544429779052734e-02,2.497954666614532471e-01,6.711304187774658203e-01,3.973794877529144287e-01,8.517627120018005371e-01,3.079142570495605469e-01,-1.475758254528045654e-01,1.988602876663208008e+00,-5.535865426063537598e-01,2.653323650360107422e+00,2.029216766357421875e+00,-2.273955792188644409e-01,-9.141124486923217773e-01,-7.216002345085144043e-01
5.812097787857055664e-01,-3.164895176887512207e-01,7.644383609294891357e-02,1.330857723951339722e-01,5.659718513488769531e-01,-1.712090671062469482e-01,7.953939437866210938e-01,1.629496514797210693e-01,1.953099489212036133e+00,1.880470395088195801e+00,1.261911749839782715e+00,-2.145786285400390625e+00,-1.047184109687805176e+00,8.624137043952941895e-01
-5.115118622779846191e-01,9.183242172002792358e-02,7.902655601501464844e-01,-5.176340937614440918e-01,-2.295700274407863617e-02,7.184030413627624512e-01,-4.641389846801757812e-01,2.220054626464843750e+00,2.284597456455230713e-01,-2.358279943466186523e+00,1.448870182037353516e+00,2.083861112594604492e+00,-9.003259539604187012e-01,1.607289314270019531e+00
5.184744670987129211e-02,-8.378479480743408203e-01,3.730240762233734131e-01,3.249098956584930420e-01,-2.226694487035274506e-03,-7.280683517456054688e-01,6.036099791526794434e-01,-1.348283529281616211e+00,1.697742700576782227e+00,-2.092675209045410156e+00,-2.619143426418304443e-01,2.649069547653198242e+00,-1.164324522018432617e+00,-2.985421419143676758e-01
-3.914588987827301025e-01,5.878793001174926758e-01,1.890624873340129852e-02,7.682386040687561035e-01,-7.583246380090713501e-02,6.318839192390441895e-01,-6.914918869733810425e-02,-8.925800919532775879e-01,-1.982679367065429688e+00,-2.651026964187622070e+00,8.407382294535636902e-03,-1.567924380302429199e+00,2.071463108062744141e+00,-7.641150355339050293e-01
-7.120182514190673828e-01,-7.153259217739105225e-02,2.036383934319019318e-02,-4.263808131217956543e-01,8.645121455192565918e-01,-2.660987973213195801e-01,3.090641694143414497e-03,-2.799791336059570312e+00,1.804639339447021484e+00,2.012712478637695312e+00,6.281538605690002441e-01,1.729087471961975098e+00,-1.518019318580627441e+00,-1.301879763603210449e+00
-4.521482586860656738e-01,4.333378970623016357e-01,6.321751475334167480e-01,8.648613691329956055e-01,-4.377280175685882568e-01,1.823399364948272705e-01,1.648063510656356812e-01,1.956844568252563477e+00,8.213044404983520508e-01,-2.143447160720825195e+00,8.609479665756225586e-01,-3.050049841403961182e-01,-2.072398900985717773e+00,-2.570363521575927734e+00
-5.375431105494499207e-02,-5.284286737442016602e-01,8.017827868461608887e-01,-1.584544032812118530e-01,5.656867623329162598e-01,7.965058684349060059e-01,-1.430702060461044312e-01,-1.448376536369323730e+00,1.403090238571166992e+00,2.896102070808410645e-01,9.518388509750366211e-01,1.647994220256805420e-01,-1.628656744956970215e+00,-1.294413805007934570e+00
5.476938188076019287e-02,3.939417004585266113e-01,-1.191424429416656494e-01,6.122974157333374023e-01,-1.863031983375549316e-01,6.645307540893554688e-01,3.857226073741912842e-01,-1.179992556571960449e+00,-1.894382715225219727e+00,-4.757647812366485596e-01,1.231081724166870117e+00,-2.544929087162017822e-01,-1.630034685134887695e+00,2.474901676177978516e+00
-6.664015650749206543e-01,-3.606241643428802490e-01,4.620258808135986328e-01,2.338800728321075439e-01,-3.401551246643066406e-01,-4.253325164318084717e-01,8.054109811782836914e-01,5.740610361099243164e-01,-2.025550842285156250e+00,9.124141931533813477e-02,-1.080967068672180176e+00,-2.115057468414306641e+00,-2.964034378528594971e-01,7.013318538665771484e-01
2.901348471641540527e-01,-1.047468855977058411e-01,7.036523222923278809e-01,8.688988685607910156e-01,-3.824951052665710449e-01,-1.581801623106002808e-01,2.714613974094390869e-01,-1.539522767066955566e+00,-3.494808375835418701e-01,9.753988981246948242e-01,-1.735776305198669434e+00,2.816656351089477539e+00,-1.810900688171386719e+00,1.591880917549133301e-01
6.186605095863342285e-01,9.735330939292907715e-02,-2.248481512069702148e-01,9.882829189300537109e-01,1.167022362351417542e-01,4.759123548865318298e-02,-8.609660714864730835e-02,4.348342493176460266e-02,2.045518159866333008e+00,3.213441371917724609e-01,-4.588663578033447266e-01,-1.772220134735107422e-01,5.682964920997619629e-01,2.938502788543701172e+00
2.069537490606307983e-01,6.995391845703125000e-01,-6.011399999260902405e-02,2.067096829414367676e-01,9.252710342407226562e-01,2.412478029727935791e-01,2.072296142578125000e-01,-1.461868762969970703e+00,-2.026359796524047852e+00,1.712112188339233398e+00,-6.500898003578186035e-01,1.382299780845642090e+00,5.372415184974670410e-01,1.658507585525512695e+00
-1.828532516956329346e-01,-4.983836412429809570e-01,1.009586811065673828e+00,3.136281371116638184e-01,7.069544792175292969e-01,-5.129466056823730469e-01,-3.724762201309204102e-01,1.395627617835998535e+00,-7.015444040298461914e-01,-2.703966379165649414e+00,1.927419304847717285e-01,1.860399007797241211e+00,-1.360983490943908691e+00,1.705185174942016602e+00
8.044255524873733521e-02,-3.578373491764068604e-01,8.879674077033996582e-01,6.885640621185302734e-01,4.651710987091064453e-01,-5.496262907981872559e-01,8.605949580669403076e-02,-2.099319249391555786e-01,8.184446096420288086e-01,7.817362546920776367e-01,1.304798483848571777e+00,-2.592613458633422852e+00,1.156903624534606934e+00,-2.585207521915435791e-01
-4.901797771453857422e-01,5.145454034209251404e-02,1.856174021959304810e-01,7.007691860198974609e-01,-1.994395703077316284e-01,-3.939196765422821045e-01,5.603336095809936523e-01,-1.225736379623413086e+00,-1.910899877548217773e+00,-1.783381819725036621e+00,-1.918859958648681641e+00,2.571675062179565430e+00,6.443862617015838623e-02,2.987880706787109375e+00
-4.723819494247436523e-01,3.143099844455718994e-01,6.840201020240783691e-01,-2.455104328691959381e-02,5.570237636566162109e-01,5.760683417320251465e-01,5.977181792259216309e-01,2.553492784500122070e-01,-1.033316969871520996e+00,1.503058552742004395e+00,-1.293902993202209473e+00,-8.487322926521301270e-01,1.176386475563049316e+00,2.234534502029418945e+00
6.055991351604461670e-02,5.222472548484802246e-01,1.369276940822601318e-01,2.370946258306503296e-01,2.623633742332458496e-01,9.336653351783752441e-01,5.675085633993148804e-02,-9.973789453506469727e-01,-1.572995424270629883e+00,-7.831899523735046387e-01,1.631477355957031250e+00,1.443816900253295898e+00,1.653053760528564453e+00,-6.924477219581604004e-01
4.090181589126586914e-01,-1.563200056552886963e-01,7.610212564468383789e-01,1.265181005001068115e-01,-2.367892563343048096e-01,8.342562317848205566e-01,-4.816021323204040527e-01,2.811132192611694336e+00,-1.590388827025890350e-02,-1.469648443162441254e-02,1.777347564697265625e+00,1.143852099776268005e-01,1.261446237564086914e+00,1.387160897254943848e+00
-3.194022178649902344e-01,-7.949885725975036621e-02,1.090579271316528320e+00,-6.266447901725769043e-01,-3.073045313358306885e-01,-4.110630154609680176e-01,5.864362120628356934e-01,-2.498697280883789062e+00,4.291553795337677002e-01,1.912811636924743652e+00,1.904827207326889038e-01,-1.060952663421630859e+00,-1.759003281593322754e+00,9.829996228218078613e-01
1.831778734922409058e-01,3.277781605720520020e-02,1.050235152244567871e+00,6.992748379707336426e-01,-5.865322351455688477e-01,1.041110828518867493e-01,-3.951652646064758301e-01,-1.148276686668395996e+00,4.298604726791381836e-01,-4.384360313415527344e-01,7.948849797248840332e-01,-8.809378743171691895e-01,-1.916978240013122559e+00,2.260428667068481445e+00
4.920973181724548340e-01,-3.089496120810508728e-02,3.088262379169464111e-01,6.895847916603088379e-01,-1.699314564466476440e-01,5.955852270126342773e-01,3.753322660923004150e-01,-8.749306201934814453e-01,2.086648464202880859e+00,-1.337815403938293457e+00,2.010733604431152344e+00,2.657917976379394531e+00,-1.780063509941101074e+00,8.400163054466247559e-01
-1.656544357538223267e-01,-4.082882404327392578e-01,6.156184673309326172e-01,5.636421442031860352e-01,-4.833535850048065186e-01,-3.913744390010833740e-01,5.436019897460937500e-01,-8.111280202865600586e-01,1.261227965354919434e+00,1.064643979072570801e+00,1.896639823913574219e+00,-2.119789123535156250e+00,4.506003260612487793e-01,1.718437075614929199e+00
8.333398103713989258e-01,4.438291490077972412e-02,1.571748703718185425e-01,4.432267546653747559e-01,-5.734144449234008789e-01,6.004983782768249512e-01,-3.378574550151824951e-01,-2.760558366775512695e+00,-1.812768697738647461e+00,1.652743458747863770e+00,-5.599219799041748047e-01,-6.951559185981750488e-01,2.816736996173858643e-01,6.419878005981445312e-01
8.616498112678527832e-02,7.616179585456848145e-01,4.541305303573608398e-01,-5.500741600990295410e-01,9.754845499992370605e-02,3.152233064174652100e-01,7.671616673469543457e-01,1.062575578689575195e+00,1.880027651786804199e+00,-7.594878673553466797e-01,1.102005720138549805e+00,4.386606514453887939e-01,1.234012693166732788e-01,-6.228746175765991211e-01
-5.098112821578979492e-01,-1.344090402126312256e-01,9.215101599693298340e-01,-8.091444522142410278e-02,-4.244409501552581787e-01,-6.464417576789855957e-01,6.288210153579711914e-01,8.875112533569335938e-01,-1.048824310302734375e+00,-2.293842077255249023e+00,9.871925711631774902e-01,-5.673253908753395081e-03,-4.733861684799194336e-01,3.767371773719787598e-01
-2.677347511053085327e-02,4.044539630413055420e-01,1.961596161127090454e-01,-3.233024105429649353e-02,-7.272678017616271973e-01,-1.711498349905014038e-01,6.638855934143066406e-01,-1.413645625114440918e+00,-1.004095911979675293e+00,-3.188217580318450928e-01,2.079169273376464844e+00,-1.272412419319152832e+00,1.744542837142944336e+00,-5.375495180487632751e-02
-6.595632433891296387e-02,-2.943812906742095947e-01,7.424879670143127441e-01,7.892961502075195312e-01,-2.859459817409515381e-01,2.979338169097900391e-01,-4.544029235839843750e-01,-2.239314556121826172e+00,1.477915406227111816e+00,-2.845844328403472900e-01,1.669982910156250000e+00,-3.257167339324951172e-01,-1.726658105850219727e+00,1.111342668533325195e+00
2.394609898328781128e-01,1.309237927198410034e-01,7.033187747001647949e-01,3.812269270420074463e-01,8.291211128234863281e-01,4.256843030452728271e-02,-4.067088067531585693e-01,2.050364017486572266e+00,-7.557089924812316895e-01,-9.053965210914611816e-01,-1.822378993034362793e+00,2.502498924732208252e-01,1.639206409454345703e+00,2.146348714828491211e+00
4.442048966884613037e-01,4.075855612754821777e-01,5.224050879478454590e-01,4.661361277103424072e-01,3.028713464736938477e-01,-4.663232564926147461e-01,6.881341934204101562e-01,1.256900429725646973e+00,1.789972543716430664e+00,8.171283602714538574e-01,1.230232596397399902e+00,5.195763707160949707e-02,-1.586033225059509277e+00,-1.826606988906860352e+00
-3.788362443447113037e-01,-7.079373002052307129e-01,6.332997679710388184e-01,2.377784103155136108e-01,1.129829045385122299e-02,5.817320346832275391e-01,7.777670621871948242e-01,-2.142947673797607422e+00,1.216311812400817871e+00,-2.811087131500244141e+00,2.262844741344451904e-01,-7.778967618942260742e-01,1.271975278854370117e+00,3.154931664466857910e-01
-3.554230332374572754e-01,2.064346522092819214e-01,1.627245396375656128e-01,-7.308682203292846680e-01,-2.556616663932800293e-01,-1.374631226062774658e-01,6.177156567573547363e-01,6.643149256706237793e-01,-1.733256578445434570e+00,-1.131691575050354004e+00,2.092698812484741211e+00,1.298798680305480957e+00,1.076337099075317383e-01,1.644232749938964844e+00
3.437728285789489746e-01,-7.844830751419067383e-01,3.856286406517028809e-01,-4.487873241305351257e-02,7.937654852867126465e-01,-6.058844923973083496e-01,2.874458953738212585e-02,1.918734550476074219e+00,-1.785468935966491699e+00,2.803157567977905273e+00,5.962265133857727051e-01,-2.968572974205017090e-01,7.544388175010681152e-01,-9.498052000999450684e-01
-6.384891271591186523e-01,2.555505037307739258e-01,2.602747082710266113e-01,9.137377738952636719e-01,1.192028298974037170e-01,-3.833318650722503662e-01,6.269564479589462280e-02,2.242860555648803711e+00,1.173962593078613281e+00,8.295538425445556641e-01,-1.332189679145812988e+00,2.766869783401489258e+00,-2.822478711605072021e-01,2.508898496627807617e+00
2.261316776275634766e-01,5.499485135078430176e-01,9.919525682926177979e-02,9.405113458633422852e-01,-2.692990899085998535e-01,-2.069128453731536865e-01,-1.017628889530897141e-02,-2.638233184814453125e+00,-1.574310302734375000e+00,-2.059047698974609375e+00,-1.404681205749511719e+00,-1.052352190017700195e+00,8.768483996391296387e-01,-9.405915141105651855e-01
-7.594538927078247070e-01,1.622521877288818359e-02,5.108211040496826172e-01,-4.837660193443298340e-01,-4.264174401760101318e-02,7.852873802185058594e-01,-3.840258121490478516e-01,2.616377115249633789e+00,1.654261827468872070e+00,2.052811861038208008e+00,-1.044662117958068848e+00,8.014448881149291992e-01,2.129640281200408936e-01,-2.289704561233520508e+00
1.530221402645111084e-01,-4.474974274635314941e-01,7.235697507858276367e-01,-4.778693318367004395e-01,8.364170193672180176e-01,-5.550808086991310120e-02,-2.626144886016845703e-01,-1.170062303543090820e+00,1.402324438095092773e-01,1.526934746652841568e-02,-1.388014674186706543e+00,2.620548486709594727e+00,-1.448507666587829590e+00,9.696439504623413086e-01
1.402575075626373291e-01,3.959115445613861084e-01,1.027163863182067871e+00,-5.470879673957824707e-01,6.773374080657958984e-01,4.871033728122711182e-01,-6.811100989580154419e-02,1.309261202812194824e+00,4.404048323631286621e-01,2.032613992691040039e+00,2.664826214313507080e-01,1.929990768432617188e+00,-1.975544571876525879e+00,-2.776615858078002930e+00
2.346319407224655151e-01,-2.302810400724411011e-01,1.060275077819824219e+00,2.885044515132904053e-01,1.269625574350357056e-01,5.659352540969848633e-01,7.618156075477600098e-01,8.394033312797546387e-01,3.215785920619964600e-01,8.968232870101928711e-01,1.118235230445861816e+00,-4.949839711189270020e-01,5.822049379348754883e-01,-1.198480930179357529e-02
-4.833795130252838135e-01,-5.120179057121276855e-01,8.871380686759948730e-01,-3.700260221958160400e-01,-4.502850770950317383e-01,6.469663381576538086e-01,-4.916896224021911621e-01,7.546064257621765137e-01,-8.810213208198547363e-01,2.709816455841064453e+00,-7.144057750701904297e-02,1.808055877685546875e+00,7.748878598213195801e-01,-1.237406134605407715e+00
6.847837567329406738e-01,5.259305238723754883e-01,1.303841322660446167e-01,-4.128320217132568359e-01,7.295328974723815918e-01,2.775897085666656494e-01,4.693563282489776611e-01,-2.534029006958007812e+00,-1.843432068824768066e+00,-3.583881556987762451e-01,-6.596871465444564819e-02,-1.756362676620483398e+00,4.467774629592895508e-01,-1.144868373870849609e+00
4.608471393585205078e-01,2.065562754869461060e-01,3.265290856361389160e-01,1.860364526510238647e-01,7.364618182182312012e-01,-1.010392606258392334e-02,6.503171324729919434e-01,1.295791387557983398e+00,9.810136556625366211e-01,2.140895843505859375e+00,1.991242527961730957e+00,-2.191077709197998047e+00,-5.422799587249755859e-01,3.766058683395385742e-01
-3.348199725151062012e-01,-2.216427326202392578e-01,9.736167192459106445e-01,4.217523336410522461e-01,-6.020258665084838867e-01,4.115161299705505371e-01,5.388359427452087402e-01,-1.073387861251831055e+00,-1.404393911361694336e-01,-1.379850864410400391e+00,-1.055914998054504395e+00,-2.392567634582519531e+00,-8.787578940391540527e-01,-7.076883912086486816e-01
-6.709163188934326172e-01,-2.596995979547500610e-02,3.792236745357513428e-01,-2.749468684196472168e-01,-7.536357045173645020e-01,-2.316087037324905396e-01,5.502679944038391113e-01,6.846635341644287109e-01,-1.054443001747131348e+00,2.167778253555297852e+00,-1.425446748733520508e+00,-1.024016380310058594e+00,3.254147171974182129e-01,-1.144059538841247559e+00
-6.446631997823715210e-02,-3.998422622680664062e-02,1.146372318267822266e+00,7.507886886596679688e-01,3.792371749877929688e-01,-5.403010249137878418e-01,2.388137578964233398e-02,1.561393618583679199e+00,-7.265280466526746750e-03,8.737894892692565918e-02,-5.195321515202522278e-03,-1.136143565177917480e+00,-1.997314453125000000e+00,2.719772577285766602e+00
7.732512950897216797e-01,-2.524862885475158691e-01,8.604805916547775269e-02,5.679328441619873047e-01,-5.476602911949157715e-01,6.079801917076110840e-01,-8.877268433570861816e-02,3.230809420347213745e-02,1.954852461814880371e+00,-1.690366983413696289e+00,-6.161916255950927734e-01,-2.667146921157836914e+00,-2.138711139559745789e-02,2.335578918457031250e+00
-1.731706708669662476e-01,-4.138014018535614014e-01,8.504061102867126465e-01,1.906172186136245728e-01,-1.114415377378463745e-02,9.357934594154357910e-01,2.963638901710510254e-01,9.153974652290344238e-01,-1.232055053114891052e-01,2.177272737026214600e-01,1.454232215881347656e+00,-4.098828434944152832e-01,1.602026820182800293e+00,1.389767765998840332e+00
-6.804887950420379639e-02,-5.755751132965087891e-01,1.033975839614868164e+00,5.629783123731613159e-02,-4.625188112258911133e-01,8.767914175987243652e-01,1.189271584153175354e-01,1.565757513046264648e+00,-5.615603327751159668e-01,-5.899605154991149902e-01,2.943950593471527100e-01,-1.811951875686645508e+00,2.229396849870681763e-01,-2.605146408081054688e+00
1.037026196718215942e-01,3.080686330795288086e-01,5.900623798370361328e-01,4.607489109039306641e-01,-1.725702136754989624e-01,-5.024316310882568359e-01,7.109799385070800781e-01,2.525281719863414764e-02,1.107533454895019531e+00,-1.307163715362548828e+00,2.048698425292968750e+00,1.070507049560546875e+00,-1.596720695495605469e+00,2.902115821838378906e+00
3.220387995243072510e-01,1.227928772568702698e-01,7.419909834861755371e-01,-1.658879071474075317e-01,-2.276876717805862427e-01,5.694438815116882324e-01,7.722520828247070312e-01,-6.295880079269409180e-01,1.235262632369995117e+00,-9.548870325088500977e-01,1.838663458824157715e+00,1.512993693351745605e+00,-1.260583400726318359e+00,5.572628229856491089e-02
-6.991247534751892090e-01,-2.501721084117889404e-01,-5.407158657908439636e-02,7.215205430984497070e-01,-4.898409247398376465e-01,-2.105140089988708496e-01,4.417552649974822998e-01,4.622890846803784370e-04,-1.904628872871398926e+00,-2.153869390487670898e+00,-6.993574500083923340e-01,-1.558053344488143921e-01,-1.801659017801284790e-01,6.491085886955261230e-01
-1.468335390090942383e-01,2.657739222049713135e-01,9.917278289794921875e-01,-3.013413250446319580e-01,9.122568368911743164e-02,8.915145993232727051e-01,3.256883919239044189e-01,9.201285988092422485e-02,-7.206149697303771973e-01,6.709597110748291016e-01,-1.413708209991455078e+00,2.911372184753417969e+00,1.002458572387695312e+00,-1.226407647132873535e+00
2.562443912029266357e-01,-6.038447022438049316e-01,7.768272161483764648e-01,3.158367574214935303e-01,6.805358529090881348e-01,-6.604973077774047852e-01,-2.935089543461799622e-02,-9.709794521331787109e-01,1.375135421752929688e+00,1.919084042310714722e-01,8.743672966957092285e-01,-1.188066601753234863e+00,1.322605609893798828e+00,-8.041564226150512695e-01
4.907062053680419922e-01,5.177346467971801758e-01,4.784229397773742676e-01,-4.334158003330230713e-01,1.163428649306297302e-02,-9.032720327377319336e-02,8.965803980827331543e-01,1.031387805938720703e+00,2.010192155838012695e+00,4.966984987258911133e-01,1.243043661117553711e+00,1.337100744247436523e+00,7.876754403114318848e-01,-2.891548156738281250e+00
5.355415940284729004e-01,-4.740144908428192139e-01,1.019866093993186951e-01,7.101287841796875000e-01,1.171559989452362061e-01,5.663169622421264648e-01,4.015927314758300781e-01,-1.507847011089324951e-01,1.956461191177368164e+00,1.678786039352416992e+00,1.156784772872924805e+00,4.606917500495910645e-01,9.273986220359802246e-01,5.102146863937377930e-01
-2.976832389831542969e-01,1.586243510246276855e-01,9.147710204124450684e-01,-5.085679292678833008e-01,-5.406797528266906738e-01,5.247093737125396729e-02,6.680350899696350098e-01,-1.955220699310302734e+00,5.404596924781799316e-01,7.105265259742736816e-01,1.429077506065368652e+00,-2.090141057968139648e+00,7.570270895957946777e-01,-2.861473083496093750e+00
6.754525303840637207e-01,-3.121270537376403809e-01,8.671243675053119659e-03,6.322537064552307129e-01,-5.755281448364257812e-01,4.800639748573303223e-01,1.963699311017990112e-01,2.659703016281127930e+00,-1.634065866470336914e+00,-2.854682922363281250e+00,-7.804031372070312500e-01,-2.068448543548583984e+00,7.979656457901000977e-01,-5.474732518196105957e-01
2.243692278861999512e-01,6.750006079673767090e-01,8.417655527591705322e-02,-4.236713051795959473e-01,-2.508281469345092773e-01,-3.689026236534118652e-01,7.883518934249877930e-01,1.631718397140502930e+00,1.761474132537841797e+00,2.212344646453857422e+00,9.878728985786437988e-01,-2.597475051879882812e+00,-1.515996575355529785e+00,-1.787747859954833984e+00
3.003684580326080322e-01,-5.801574587821960449e-01,7.530604004859924316e-01,-9.827369451522827148e-02,-6.057768464088439941e-01,4.513362944126129150e-01,6.478211879730224609e-01,-1.038176894187927246e+00,6.795340776443481445e-01,1.511844545602798462e-01,-7.801513075828552246e-01,-1.939374446868896484e+00,1.726301670074462891e+00,-9.631694555282592773e-01
2.750630676746368408e-01,-6.888894438743591309e-01,7.905045747756958008e-01,2.697143852710723877e-01,1.779780387878417969e-01,-2.600621581077575684e-01,9.099152088165283203e-01,-8.646783828735351562e-01,1.139308214187622070e+00,1.310992717742919922e+00,6.002917885780334473e-01,1.147144198417663574e+00,4.610877037048339844e-01,-1.879851222038269043e+00
4.085376560688018799e-01,-1.067345291376113892e-01,5.527364611625671387e-01,3.229597508907318115e-01,8.561254143714904785e-01,-2.041220068931579590e-01,3.479662239551544189e-01,-1.504185676574707031e+00,2.433128058910369873e-01,-1.632671833038330078e+00,1.980923414230346680e+00,-1.200979351997375488e+00,-8.838174343109130859e-01,-1.788138270378112793e+00
-4.405955970287322998e-01,-3.237221539020538330e-01,3.685014247894287109e-01,6.797286868095397949e-01,-6.198540925979614258e-01,1.617378741502761841e-01,3.571983277797698975e-01,1.216424822807312012e+00,-7.663779854774475098e-01,-8.972200155258178711e-01,1.816679954528808594e+00,1.752970576286315918e+00,-9.489389061927795410e-01,-2.309839725494384766e+00
2.006947100162506104e-01,3.740261495113372803e-02,9.486904740333557129e-01,7.029870748519897461e-01,-5.099207162857055664e-01,2.646633982658386230e-01,-4.192174971103668213e-01,1.048097491264343262e+00,-5.039358139038085938e-01,2.849329948425292969e+00,1.333616375923156738e+00,2.697703123092651367e+00,1.275971889495849609e+00,-1.280051946640014648e+00
1.444564014673233032e-01,-7.309949994087219238e-01,8.545125722885131836e-01,5.143604278564453125e-01,-1.187254935503005981e-01,3.273659646511077881e-01,7.836894392967224121e-01,-1.260226845741271973e+00,8.969929814338684082e-01,-9.116972088813781738e-01,-2.413743883371353149e-01,-1.445290446281433105e+00,-8.763258159160614014e-02,-1.819963097572326660e+00
2.579697966575622559e-01,5.166190266609191895e-01,9.183301031589508057e-02,-3.834775686264038086e-01,6.380061507225036621e-01,6.670101881027221680e-01,3.147391229867935181e-02,2.289260029792785645e-01,1.813846468925476074e+00,1.164103865623474121e+00,-1.519387483596801758e+00,6.864413022994995117e-01,3.637147545814514160e-01,-1.573234319686889648e+00
-5.911196768283843994e-02,4.303077161312103271e-01,5.508866310119628906e-01,7.551645636558532715e-01,6.173832416534423828e-01,2.070394158363342285e-01,-7.549236714839935303e-02,1.007815003395080566e+00,1.300262957811355591e-01,8.185795545578002930e-01,-1.874520897865295410e+00,-5.144800543785095215e-01,9.104673266410827637e-01,-2.440132379531860352e+00
1.590617597103118896e-01,-1.735826730728149414e-01,-1.443624943494796753e-01,3.134872019290924072e-01,7.203316092491149902e-01,-3.600511252880096436e-01,5.032010674476623535e-01,1.606758117675781250e+00,-2.072691202163696289e+00,2.987981140613555908e-01,1.797408580780029297e+00,-5.524222850799560547e-01,1.822258234024047852e+00,2.311511754989624023e+00
-7.158815264701843262e-01,1.551357805728912354e-01,2.765874266624450684e-01,4.955632984638214111e-01,7.992109060287475586e-01,-2.005435228347778320e-01,2.747023105621337891e-01,-1.338231712579727173e-01,-1.258915901184082031e+00,2.752921104431152344e+00,-7.490909695625305176e-01,8.657756447792053223e-01,1.708762407302856445e+00,-2.507841825485229492e+00
1.797942072153091431e-01,-3.776648640632629395e-01,7.364149689674377441e-01,3.069533705711364746e-01,3.292363882064819336e-01,3.993124365806579590e-01,7.987068891525268555e-01,4.399161636829376221e-01,1.472455114126205444e-01,1.324006915092468262e+00,1.829116463661193848e+00,2.452154397964477539e+00,-1.361085534095764160e+00,2.335001707077026367e+00
-2.201733142137527466e-01,-7.298080921173095703e-01,4.451965391635894775e-01,2.477198988199234009e-01,1.001169458031654358e-01,8.494786024093627930e-01,-4.549698531627655029e-01,-1.923908472061157227e+00,1.757762193679809570e+00,2.950276851654052734e+00,-4.314681291580200195e-01,-2.739250287413597107e-02,1.828862428665161133e+00,2.822999954223632812e+00
-6.665433049201965332e-01,3.644608557224273682e-01,2.199104130268096924e-01,7.323920726776123047e-01,3.418619632720947266e-01,-2.151054590940475464e-01,5.481440424919128418e-01,2.528170347213745117e+00,1.578098177909851074e+00,-2.912067174911499023e+00,2.846780121326446533e-01,-2.330324411392211914e+00,2.023160219192504883e+00,-1.316038012504577637e+00
3.900426924228668213e-01,-1.027055159211158752e-01,7.376924753189086914e-01,7.008302807807922363e-01,-1.337685436010360718e-01,7.003439068794250488e-01,-2.147719822824001312e-02,2.902374505996704102e+00,1.813766509294509888e-01,-3.612442314624786377e-02,1.837038040161132812e+00,2.083230257034301758e+00,-1.339542865753173828e-01,-1.876508474349975586e+00
2.916546165943145752e-01,5.554522871971130371e-01,8.017607927322387695e-01,4.913150146603584290e-02,6.260720491409301758e-01,7.089053988456726074e-01,-3.210499286651611328e-01,-2.298600196838378906e+00,-1.413740754127502441e+00,-2.438064217567443848e-01,-1.016766548156738281e+00,-1.862132191658020020e+00,9.911427497863769531e-01,1.776198625564575195e+00
2.618102133274078369e-01,5.174706578254699707e-01,3.731740415096282959e-01,7.040188312530517578e-01,-6.993531584739685059e-01,-4.526570439338684082e-02,1.149509400129318237e-01,4.022218585014343262e-01,1.077703475952148438e+00,-1.925651907920837402e+00,1.491823077201843262e+00,2.356099128723144531e+00,1.369691848754882812e+00,9.334423393011093140e-02
-4.785525798797607422e-01,1.696051359176635742e-01,7.733158469200134277e-01,5.291479825973510742e-02,-7.140411138534545898e-01,-7.853814959526062012e-02,6.936692595481872559e-01,-2.452347278594970703e+00,7.089772820472717285e-01,-1.870545983314514160e+00,-1.505401492118835449e+00,-1.046768665313720703e+00,-1.055377960205078125e+00,-1.461279630661010742e+00
1.742245703935623169e-01,-4.947920739650726318e-01,8.648662567138671875e-01,6.921249628067016602e-01,-6.410670280456542969e-01,3.156580924987792969e-01,-1.017651632428169250e-01,-1.569448471069335938e+00,1.062933444976806641e+00,2.694296836853027344e+00,-8.296073675155639648e-01,1.322611451148986816e+00,-2.046493291854858398e+00,9.387983083724975586e-01
-3.274750709533691406e-02,-7.181711196899414062e-01,-5.143347382545471191e-02,7.532576918601989746e-01,-4.992297887802124023e-01,3.512916564941406250e-01,2.448810040950775146e-01,1.143911838531494141e+00,-1.834169387817382812e+00,-2.265499353408813477e+00,-8.092477321624755859e-01,-5.612691044807434082e-01,1.055772509425878525e-02,2.413640737533569336e+00
-3.758262395858764648e-01,8.065931499004364014e-02,8.021350502967834473e-01,-6.398265361785888672e-01,2.642920240759849548e-03,6.618728041648864746e-01,3.905628323554992676e-01,1.207931756973266602e+00,-7.917737364768981934e-01,-2.270300626754760742e+00,1.743082880973815918e+00,-1.216271281242370605e+00,4.801419675350189209e-01,-1.715745806694030762e+00
3.270048797130584717e-01,8.126322031021118164e-01,4.498669505119323730e-01,-6.211561560630798340e-01,-1.480985283851623535e-01,-4.114076793193817139e-01,6.503657698631286621e-01,-2.174446582794189453e+00,-1.452732920646667480e+00,1.470088005065917969e+00,4.429182708263397217e-01,-4.993821382522583008e-01,2.062330394983291626e-01,-1.782011389732360840e-01
4.921477138996124268e-01,-2.553764581680297852e-01,8.046334385871887207e-01,6.711574196815490723e-01,-6.180030107498168945e-01,2.897666990756988525e-01,-2.892321944236755371e-01,2.226344347000122070e-01,6.873571872711181641e-01,-1.670979022979736328e+00,-1.057814359664916992e+00,1.511654853820800781e+00,1.562984466552734375e+00,-2.554208993911743164e+00
7.248414158821105957e-01,-1.419130712747573853e-01,8.560838699340820312e-01,2.602916359901428223e-01,4.919111132621765137e-01,4.278382658958435059e-01,7.121980786323547363e-01,-3.160038590431213379e-01,8.535335659980773926e-01,-2.503588676452636719e+00,2.687893211841583252e-01,-2.600579977035522461e+00,1.995927095413208008e-01,3.351851925253868103e-02
-7.701562047004699707e-01,-3.333440423011779785e-01,5.043848752975463867e-01,-1.430070847272872925e-01,-6.284358352422714233e-02,9.025157690048217773e-01,-4.013289809226989746e-01,4.314204156398773193e-01,-1.466694951057434082e+00,-1.019970417022705078e+00,8.520644903182983398e-02,-2.277277469635009766e+00,-1.234011411666870117e+00,5.079202651977539062e-01
3.517831861972808838e-02,-7.054360955953598022e-02,1.253388404846191406e+00,-1.336201094090938568e-02,-2.473041042685508728e-02,9.988446235656738281e-01,3.897769376635551453e-02,-2.427401065826416016e+00,4.346018284559249878e-02,1.831815600395202637e+00,-1.950623244047164917e-01,7.861427962779998779e-02,-1.809621304273605347e-01,-2.701632261276245117e+00
8.091418743133544922e-01,-6.258948706090450287e-04,6.158021092414855957e-01,1.912323534488677979e-01,-1.020546257495880127e-02,9.268119931221008301e-01,-3.230256140232086182e-01,-2.232516258955001831e-01,1.285604000091552734e+00,1.324970602989196777e+00,-4.358490407466888428e-01,1.877871155738830566e+00,1.029623389244079590e+00,4.783762991428375244e-01
5.177221447229385376e-02,-2.281263768672943115e-01,7.712289094924926758e-01,2.353797405958175659e-01,3.831447660923004150e-01,2.252791970968246460e-01,8.643180727958679199e-01,-2.698304414749145508e+00,-6.512359976768493652e-01,-2.588700771331787109e+00,2.069780349731445312e+00,2.578866243362426758e+00,-1.805288434028625488e+00,2.649784326553344727e+00
5.099673569202423096e-02,4.881007373332977295e-01,9.028816819190979004e-01,6.866819262504577637e-01,-3.404845595359802246e-01,-4.302632510662078857e-01,-4.768770635128021240e-01,-2.778741121292114258e+00,-3.817372918128967285e-01,1.596112251281738281e+00,1.113496422767639160e+00,2.838486671447753906e+00,6.110641360282897949e-01,-4.864812493324279785e-01
3.263234160840511322e-03,3.592864274978637695e-01,8.540360927581787109e-01,-2.063185423612594604e-01,-2.799499928951263428e-01,-1.624317914247512817e-01,9.234048724174499512e-01,2.924669742584228516e+00,-4.922682344913482666e-01,2.193370819091796875e+00,1.703863024711608887e+00,-7.379342317581176758e-01,7.654191255569458008e-01,9.883344173431396484e-01
6.150580048561096191e-01,-2.323754131793975830e-01,5.983883738517761230e-01,6.306526064872741699e-01,5.006409883499145508e-01,1.207471936941146851e-01,5.805652141571044922e-01,2.332124561071395874e-01,6.431221365928649902e-01,-9.033516645431518555e-01,-1.346806526184082031e+00,2.210963070392608643e-01,1.208153516054153442e-01,1.391906261444091797e+00
