keeminlee/mlf-project/data/kuka_fk_dataset.csv
ee_x,ee_y,ee_z,ee_qx,ee_qy,ee_qz,ee_qw,joint_0,joint_1,joint_2,joint_3,joint_4,joint_5,joint_6
-1.149546429514884949e-01,-7.171390056610107422e-01,2.563733756542205811e-01,2.246203869581222534e-01,3.409834206104278564e-01,-7.201325297355651855e-01,5.609679818153381348e-01,8.273754119873046875e-01,-1.989630341529846191e+00,-1.335002779960632324e+00,-1.159412145614624023e+00,1.403248310089111328e+00,7.401568889617919922e-01,2.395688772201538086e+00
3.029431104660034180e-01,3.863359391689300537e-01,8.615356087684631348e-01,2.522995769977569580e-01,3.477507084608078003e-02,-3.981207311153411865e-01,8.812692165374755859e-01,-2.451154232025146484e+00,-3.270530700683593750e-01,-2.790239334106445312e+00,-1.178566455841064453e+00,3.177905082702636719e-02,-1.983241558074951172e+00,-1.839696168899536133e+00
-3.953291475772857666e-02,1.421337723731994629e-01,1.120714664459228516e+00,3.621938526630401611e-01,6.803672313690185547e-01,-6.316070556640625000e-01,8.359801024198532104e-02,8.894321918487548828e-01,1.882505416870117188e-01,-1.658938646316528320e+00,3.739154338836669922e-01,1.836197376251220703e+00,-2.067173242568969727e+00,1.868143796920776367e+00
-2.529861330986022949e-01,1.262789070606231689e-01,6.887100934982299805e-01,-4.472227096557617188e-01,5.551401376724243164e-01,-1.497955918312072754e-01,6.851077675819396973e-01,1.175782680511474609e+00,-6.691570281982421875e-01,-2.044425725936889648e+00,1.915169715881347656e+00,-9.696674346923828125e-01,-1.705902338027954102e+00,-2.463519573211669922e+00
6.753284484148025513e-02,4.162792861461639404e-01,9.647764563560485840e-01,-3.646941781044006348e-01,-2.310689687728881836e-01,8.957120776176452637e-01,-1.063256785273551941e-01,2.062072753906250000e+00,4.344866275787353516e-01,1.822535514831542969e+00,9.622983932495117188e-01,2.149820327758789062e-01,1.981782436370849609e+00,-7.419912815093994141e-01
4.845780432224273682e-01,-1.286916136741638184e-01,8.085794448852539062e-01,-2.425116002559661865e-01,1.911344230175018311e-01,-7.085485458374023438e-01,6.345193386077880859e-01,3.088152408599853516e-01,1.379806995391845703e+00,7.033102512359619141e-01,1.515114307403564453e+00,4.590170383453369141e-01,8.569085597991943359e-01,-2.774401187896728516e+00
-2.635861635208129883e-01,6.525813937187194824e-01,4.849531054496765137e-01,7.889558076858520508e-01,2.656731605529785156e-01,-5.194840431213378906e-01,-1.926209181547164917e-01,-1.614684104919433594e+00,-8.822096586227416992e-01,-2.493564605712890625e+00,-1.119282960891723633e+00,-2.367705106735229492e+00,-9.300221204757690430e-01,8.288490772247314453e-01
-5.362902283668518066e-01,3.242424875497817993e-02,9.551696181297302246e-01,-6.262829899787902832e-02,-2.517437338829040527e-01,4.686067402362823486e-01,8.444586992263793945e-01,-8.021018505096435547e-01,-5.437847375869750977e-01,-1.723819851875305176e+00,-9.760810136795043945e-01,2.591160297393798828e+00,6.200892925262451172e-01,6.666431427001953125e-01
-4.071450233459472656e-01,-5.449604988098144531e-01,9.036548733711242676e-01,5.249947309494018555e-01,-2.245531231164932251e-02,-2.747995555400848389e-01,8.052089214324951172e-01,-1.951502442359924316e+00,9.597642421722412109e-01,-1.997409701347351074e+00,-5.049358606338500977e-01,2.904890060424804688e+00,5.864295959472656250e-01,3.478860855102539062e-01
-1.335522979497909546e-01,6.914346218109130859e-01,4.849097430706024170e-01,-1.178362667560577393e-01,-5.929788947105407715e-01,5.462646484375000000e-02,7.946739196777343750e-01,1.095522880554199219e+00,1.436134815216064453e+00,1.637816429138183594e+00,-1.134960889816284180e+00,-2.776572942733764648e+00,-7.730284929275512695e-01,-1.418790340423583984e+00
1.503126025199890137e-01,-8.200356960296630859e-01,3.096921741962432861e-01,2.028721272945404053e-01,7.542099952697753906e-01,-4.631955921649932861e-01,4.188795089721679688e-01,-1.715062260627746582e+00,1.855255842208862305e+00,2.233410358428955078e+00,-7.762753963470458984e-01,9.223916530609130859e-01,-4.371759891510009766e-01,2.532326936721801758e+00
-7.040433883666992188e-01,2.933857142925262451e-01,8.178575634956359863e-01,-1.231105159968137741e-02,-6.265428662300109863e-01,-2.960767447948455811e-01,7.208544015884399414e-01,-2.441780567169189453e-01,-9.848675727844238281e-01,-1.503542542457580566e+00,2.570581436157226562e-01,-1.407919645309448242e+00,3.543128967285156250e-01,2.430161714553833008e+00
-6.473047733306884766e-01,3.900806903839111328e-01,6.186788678169250488e-01,8.141244053840637207e-01,-5.264670848846435547e-01,-3.184887021780014038e-02,2.429392486810684204e-01,-5.969693660736083984e-01,-1.175706505775451660e+00,2.952447414398193359e+00,3.990364074707031250e-02,-2.427592277526855469e+00,-1.897034525871276855e+00,-2.384517908096313477e+00
3.884605765342712402e-01,1.049316525459289551e-01,1.911060810089111328e-01,7.659367471933364868e-02,-4.419310092926025391e-01,6.792082190513610840e-01,5.809531807899475098e-01,7.562801837921142578e-01,1.223459243774414062e+00,-4.619119167327880859e-01,-1.828290939331054688e+00,-7.024853229522705078e-01,2.078148365020751953e+00,1.778495311737060547e-01
-7.183697223663330078e-01,1.734767556190490723e-01,3.195188194513320923e-02,6.254368275403976440e-02,9.240310192108154297e-01,7.905443012714385986e-02,-3.687891662120819092e-01,2.795435428619384766e+00,1.511230468750000000e+00,-2.898929834365844727e+00,9.245574474334716797e-01,1.078290939331054688e+00,1.548609733581542969e-01,-1.424383878707885742e+00
-5.761231780052185059e-01,-5.926960110664367676e-01,3.316929340362548828e-01,3.731625378131866455e-01,8.323746323585510254e-01,5.480941012501716614e-02,-4.060765206813812256e-01,8.364841938018798828e-01,-1.627126455307006836e+00,-3.871107101440429688e-01,-1.938416957855224609e-01,2.692997932434082031e+00,1.574369192123413086e+00,-1.445374131202697754e+00
-3.469412922859191895e-01,-2.678507566452026367e-01,8.354381918907165527e-01,2.333177439868450165e-02,-6.492530554533004761e-02,9.492416381835937500e-01,3.068887591361999512e-01,3.478050231933593750e-03,-1.346059799194335938e+00,2.448582649230957031e+00,1.552024602890014648e+00,-1.196052670478820801e+00,5.820302963256835938e-01,6.656613349914550781e-01
-2.187350988388061523e-01,-2.084046602249145508e-01,8.935824036598205566e-01,2.625797092914581299e-01,8.501551151275634766e-01,4.560557007789611816e-01,1.736338995397090912e-02,-2.060093164443969727e+00,1.099602699279785156e+00,2.336797714233398438e-01,1.167108058929443359e+00,1.801223754882812500e-01,-2.091999530792236328e+00,-1.074169635772705078e+00
-4.839419126510620117e-01,2.086969017982482910e-01,8.112841844558715820e-02,1.627719402313232422e-01,1.748431622982025146e-01,8.656043410301208496e-01,-4.400730729103088379e-01,-2.851482391357421875e+00,1.797404050827026367e+00,2.247380733489990234e+00,1.389277219772338867e+00,-1.142234086990356445e+00,-1.851758837699890137e+00,2.309129476547241211e+00
3.208192884922027588e-01,-2.130393087863922119e-01,7.302064895629882812e-01,2.016595378518104553e-02,-4.940674304962158203e-01,7.285107970237731934e-01,4.740914702415466309e-01,2.652251243591308594e+00,-1.735610842704772949e+00,-8.313417434692382812e-02,-1.804478406906127930e+00,1.546444416046142578e+00,1.113524675369262695e+00,-2.270027399063110352e+00
9.445934742689132690e-02,4.193864762783050537e-01,7.177463769912719727e-01,7.445424795150756836e-01,6.241322755813598633e-01,2.208948284387588501e-01,-8.556219190359115601e-02,-1.466772556304931641e-01,2.086169719696044922e-01,-1.394181966781616211e+00,1.560044050216674805e+00,-4.561085700988769531e-01,-1.207216858863830566e+00,2.400462627410888672e-01
-4.033300876617431641e-01,-1.506890952587127686e-01,2.303293347358703613e-01,9.229509532451629639e-02,9.119604229927062988e-01,2.599285244941711426e-01,-3.037217855453491211e-01,1.364438533782958984e+00,-1.251815557479858398e+00,-1.117298007011413574e+00,2.074077129364013672e+00,8.893945217132568359e-01,-2.592858076095581055e-01,1.073648929595947266e-01
6.103737950325012207e-01,4.884550273418426514e-01,6.691734194755554199e-01,-1.086298227310180664e-01,3.122470974922180176e-01,-7.484123706817626953e-01,5.749610662460327148e-01,-2.249006271362304688e+00,-1.153185129165649414e+00,-9.608194828033447266e-01,3.699066638946533203e-01,-1.601531386375427246e+00,-1.171950697898864746e+00,-2.620654106140136719e+00
-1.518876757472753525e-02,-4.642242193222045898e-01,8.400195240974426270e-01,3.668029606342315674e-01,-4.679710268974304199e-01,6.047116518020629883e-01,5.298891663551330566e-01,7.779808044433593750e-01,-1.135406017303466797e+00,2.405810832977294922e+00,1.506437301635742188e+00,-2.546583652496337891e+00,-1.097443580627441406e+00,1.032226800918579102e+00
8.738490939140319824e-02,8.465016484260559082e-01,4.392411708831787109e-01,1.013256683945655823e-01,8.754736185073852539e-01,3.598362803459167480e-01,3.062628507614135742e-01,-1.695752859115600586e+00,-1.540168523788452148e+00,2.584393024444580078e+00,2.975845336914062500e-01,-1.621732711791992188e-01,1.192211151123046875e+00,1.878392457962036133e+00
1.317400336265563965e-01,8.335258364677429199e-01,4.426073431968688965e-01,-1.509969830513000488e-01,-3.100710511207580566e-01,-4.066634774208068848e-01,8.459791541099548340e-01,-1.837144494056701660e+00,-1.688372254371643066e+00,-4.091503620147705078e-01,-3.201131820678710938e-01,-1.956796646118164062e-01,9.595506191253662109e-01,1.059023618698120117e+00
7.903617620468139648e-01,6.237514317035675049e-03,4.990268945693969727e-01,3.676147460937500000e-01,5.343164205551147461e-01,7.425158023834228516e-01,-1.674386262893676758e-01,2.873094081878662109e+00,-1.682143330574035645e+00,-5.778570175170898438e-01,-6.731277704238891602e-01,2.146207809448242188e+00,-1.052825927734375000e+00,-1.892406105995178223e+00
-2.344536632299423218e-01,-3.576099574565887451e-01,1.002349853515625000e+00,-2.039908319711685181e-01,-5.387570261955261230e-01,8.162934780120849609e-01,-4.235098883509635925e-02,-3.049333095550537109e-01,-3.272213935852050781e-01,-1.314139485359191895e+00,-1.048008322715759277e+00,2.511708259582519531e+00,-2.382134199142456055e-01,2.207356214523315430e+00
-4.546507894992828369e-01,-2.410562038421630859e-01,5.948184728622436523e-01,6.106061935424804688e-01,2.036456763744354248e-01,7.160140275955200195e-01,2.702081501483917236e-01,2.986364364624023438e-01,-1.882491230964660645e+00,2.962801933288574219e+00,1.407548904418945312e+00,2.783080101013183594e+00,1.785961866378784180e+00,2.130061388015747070e+00
-1.797292828559875488e-01,1.422923207283020020e-01,1.195176601409912109e+00,-4.154165983200073242e-01,9.075047075748443604e-02,9.038063287734985352e-01,4.824431613087654114e-02,-1.980149626731872559e+00,-6.014633178710937500e-02,-1.698657751083374023e+00,-4.145214557647705078e-01,-2.619110107421875000e+00,-5.069562196731567383e-01,2.964583158493041992e+00
1.462836563587188721e-01,-7.342671155929565430e-01,5.961396098136901855e-01,9.142765402793884277e-02,4.093466103076934814e-01,8.012763857841491699e-01,4.266528189182281494e-01,-1.393313050270080566e+00,1.189912319183349609e+00,-2.669856548309326172e-01,-3.225054740905761719e-01,2.713777542114257812e+00,2.075221538543701172e+00,3.406691551208496094e-01
-4.771968424320220947e-01,-1.412604302167892456e-01,2.384048104286193848e-01,-3.612339794635772705e-01,-7.200469374656677246e-01,-9.896448813378810883e-03,5.924056768417358398e-01,1.296061038970947266e+00,-1.445983648300170898e+00,-1.206359863281250000e+00,1.963325023651123047e+00,4.698653221130371094e-01,1.767468452453613281e-01,1.514796495437622070e+00
1.408575177192687988e-01,1.646582037210464478e-01,8.834835290908813477e-01,8.554567694664001465e-01,1.863075345754623413e-01,-2.223478257656097412e-01,-4.290042519569396973e-01,-2.627834081649780273e+00,3.526024818420410156e-01,1.691436767578125000e-02,1.477469682693481445e+00,-2.032835006713867188e+00,1.930106163024902344e+00,-2.564953088760375977e+00
1.115707531571388245e-01,-5.068543553352355957e-01,8.656035661697387695e-01,5.506028607487678528e-02,-5.878495573997497559e-01,3.026875853538513184e-01,7.481854557991027832e-01,-1.864352107048034668e+00,3.980822563171386719e-01,1.039732456207275391e+00,-1.109175443649291992e+00,-2.255638122558593750e+00,1.634831905364990234e+00,-1.550282359123229980e+00
2.729411125183105469e-01,2.138158380985260010e-01,1.087251543998718262e+00,7.390971183776855469e-01,-3.679917454719543457e-01,4.490640163421630859e-01,-3.415538966655731201e-01,5.608878135681152344e-01,5.000641345977783203e-01,-4.793288707733154297e-01,3.504855632781982422e-01,1.351954936981201172e-01,1.820893526077270508e+00,-1.806577801704406738e+00
-4.366507530212402344e-01,-6.758531928062438965e-01,5.010384917259216309e-01,1.293126046657562256e-01,-6.890867352485656738e-01,-3.957433253526687622e-02,7.119491696357727051e-01,1.282907962799072266e+00,-1.094589710235595703e+00,-6.184191703796386719e-01,7.191743850708007812e-01,-1.186841130256652832e+00,-7.699952125549316406e-01,1.538552522659301758e+00
-3.446452915668487549e-01,-9.664371609687805176e-02,6.894897818565368652e-01,-4.485687613487243652e-01,-7.565234601497650146e-02,7.842563986778259277e-01,4.219061732292175293e-01,-2.536580085754394531e+00,-1.747332811355590820e-01,2.957888126373291016e+00,2.078043937683105469e+00,-2.532321691513061523e+00,-1.201536417007446289e+00,-1.434309124946594238e+00
-7.695529460906982422e-01,2.696699798107147217e-01,4.011399149894714355e-01,7.513319849967956543e-01,-6.103779077529907227e-01,-1.619413793087005615e-01,1.916090697050094604e-01,2.571012973785400391e+00,1.595360279083251953e+00,2.250635147094726562e+00,-5.465235710144042969e-01,-2.030971050262451172e+00,1.397987604141235352e+00,1.243354558944702148e+00
-1.376116871833801270e-01,2.415454685688018799e-01,2.019915729761123657e-02,6.590968370437622070e-01,5.745380520820617676e-01,-4.852673411369323730e-01,3.607721766456961632e-03,6.627092361450195312e-01,2.040916919708251953e+00,9.137139320373535156e-01,-2.061625719070434570e+00,1.881733894348144531e+00,-8.403602838516235352e-01,9.980847835540771484e-01
5.635280609130859375e-01,4.596587270498275757e-02,6.817653030157089233e-02,7.095503807067871094e-01,5.342817902565002441e-01,3.250609934329986572e-01,3.246794044971466064e-01,2.604662895202636719e+00,-1.531877875328063965e+00,-2.282092094421386719e+00,-1.646043896675109863e+00,3.158357143402099609e-01,-9.535855054855346680e-01,6.403691768646240234e-01
-3.750293850898742676e-01,-3.626785278320312500e-01,7.916579246520996094e-01,-6.213882192969322205e-02,6.879137754440307617e-01,7.195294499397277832e-01,7.204762846231460571e-02,1.291337013244628906e+00,-1.241568803787231445e+00,7.965838909149169922e-01,-9.886219501495361328e-01,-6.805324554443359375e-02,1.697869539260864258e+00,2.114227533340454102e+00
-3.111543357372283936e-01,2.410613894462585449e-01,5.884316563606262207e-01,7.281667590141296387e-01,-2.097442895174026489e-01,-6.096065640449523926e-01,2.327237427234649658e-01,-2.419349431991577148e+00,-3.201251029968261719e-01,-1.325206160545349121e+00,-2.079543113708496094e+00,1.608853816986083984e+00,5.743391513824462891e-01,-1.454132556915283203e+00
2.532270848751068115e-01,3.517936170101165771e-01,5.764406919479370117e-01,-5.854579061269760132e-02,3.812184035778045654e-01,3.489892929792404175e-02,9.219690561294555664e-01,1.431492805480957031e+00,2.164785861968994141e-01,-4.291143417358398438e-01,-2.053890705108642578e+00,-2.520553588867187500e+00,1.604752540588378906e+00,2.467459440231323242e+00
4.013289809226989746e-01,3.773872852325439453e-01,5.604396760463714600e-02,-1.234285235404968262e-01,8.366860151290893555e-01,4.795746505260467529e-01,-2.339445799589157104e-01,2.705380916595458984e-01,1.401548385620117188e+00,4.896216392517089844e-01,-1.474061250686645508e+00,-2.210782766342163086e+00,-8.031655550003051758e-01,2.437239408493041992e+00
-2.953473031520843506e-01,4.971633851528167725e-01,7.105908989906311035e-01,-3.647421002388000488e-01,2.466800510883331299e-01,-6.297982931137084961e-01,6.398954987525939941e-01,1.757225036621093750e+00,1.510907411575317383e+00,2.367266654968261719e+00,-1.214428663253784180e+00,-1.486320376396179199e+00,-1.663814306259155273e+00,1.711132764816284180e+00
-2.479052245616912842e-01,-1.585329174995422363e-01,9.575562477111816406e-01,1.985310763120651245e-01,-3.949195742607116699e-01,8.673093318939208984e-01,2.289071977138519287e-01,2.279500961303710938e+00,-3.921655416488647461e-01,7.160196304321289062e-01,-1.447003602981567383e+00,2.550965309143066406e+00,1.527256965637207031e+00,2.908977270126342773e+00
-3.278365731239318848e-01,5.909583568572998047e-01,8.284618705511093140e-02,-2.884689271450042725e-01,-2.503908276557922363e-01,5.484504699707031250e-01,7.438361644744873047e-01,1.844156265258789062e+00,1.597672462463378906e+00,-2.819974422454833984e+00,9.909188747406005859e-01,-9.958313703536987305e-01,1.804597377777099609e+00,1.846249341964721680e+00
-5.678747892379760742e-01,1.720522940158843994e-01,6.226841807365417480e-01,3.517086505889892578e-01,-3.046024143695831299e-01,8.117929100990295410e-01,3.528606891632080078e-01,2.160399436950683594e+00,1.301663637161254883e+00,-1.383802771568298340e+00,1.203751564025878906e+00,-2.325607299804687500e+00,1.558928728103637695e+00,2.190521478652954102e+00
-2.037226706743240356e-01,-7.455193400382995605e-01,2.411021739244461060e-01,4.063285589218139648e-01,6.402187943458557129e-01,-4.207003712654113770e-01,-4.980243444442749023e-01,-1.647111415863037109e+00,1.326114892959594727e+00,-2.355651855468750000e-01,-8.160146474838256836e-01,1.752615451812744141e+00,-1.141045331954956055e+00,-2.909768581390380859e+00
-3.386988043785095215e-01,4.275497794151306152e-02,7.366641759872436523e-01,4.768053293228149414e-01,-2.024504840373992920e-01,-2.482938766479492188e-01,8.185479044914245605e-01,-1.821004390716552734e+00,-7.193747758865356445e-01,2.162113666534423828e+00,1.955700397491455078e+00,-1.310698509216308594e+00,5.926373004913330078e-01,-6.128299236297607422e-01
2.111457884311676025e-01,-3.069126307964324951e-01,7.370170950889587402e-01,2.367074042558670044e-01,9.494813084602355957e-01,-1.978790462017059326e-01,5.743508040904998779e-02,2.855199337005615234e+00,1.517000198364257812e-01,2.606485366821289062e+00,-1.611252784729003906e+00,2.791413307189941406e+00,-1.346412062644958496e+00,2.825461626052856445e+00
-8.408837020397186279e-03,6.878422498703002930e-01,-4.962249472737312317e-02,3.401001542806625366e-02,9.404488801956176758e-01,3.111812770366668701e-01,-1.325346231460571289e-01,-1.391750574111938477e+00,-1.640319585800170898e+00,-3.883063793182373047e-01,9.573273658752441406e-01,-1.105661034584045410e+00,4.448866844177246094e-01,6.977939605712890625e-02
3.226190805435180664e-01,1.758922338485717773e-01,9.519946575164794922e-01,-3.550477921962738037e-01,8.668599724769592285e-01,3.417723476886749268e-01,7.540887594223022461e-02,-6.812639236450195312e-01,3.208112716674804688e-01,-1.455505847930908203e+00,8.745577335357666016e-01,-2.957023382186889648e+00,1.782644987106323242e+00,2.348897457122802734e-01
4.719896242022514343e-02,7.953034043312072754e-01,6.840658187866210938e-01,-5.892728567123413086e-01,-1.616770327091217041e-01,-5.434053540229797363e-01,5.756115317344665527e-01,1.302123546600341797e+00,1.013478279113769531e+00,1.012529850006103516e+00,-5.687477588653564453e-01,-2.551826715469360352e+00,6.879572868347167969e-01,-1.037248849868774414e+00
6.403831243515014648e-01,-5.177033543586730957e-01,3.805718421936035156e-01,-1.530236378312110901e-02,6.097776293754577637e-01,-3.022950291633605957e-01,7.324990034103393555e-01,-1.104246735572814941e+00,1.457763195037841797e+00,1.304048061370849609e+00,-8.364081382751464844e-01,-1.131727576255798340e+00,-3.837229013442993164e-01,-5.962021350860595703e-01
9.829825162887573242e-02,4.166667163372039795e-01,5.065844580531120300e-02,5.233755707740783691e-01,1.922961324453353882e-01,6.948515176773071289e-01,-4.541823267936706543e-01,-1.212606430053710938e+00,-1.561213254928588867e+00,-4.720809459686279297e-01,1.844590902328491211e+00,1.052225589752197266e+00,1.687268018722534180e+00,7.056405544281005859e-01
-1.423232555389404297e-01,1.954883337020874023e-01,1.122152686119079590e+00,-3.108082711696624756e-01,3.671294450759887695e-01,8.437318801879882812e-01,2.381821274757385254e-01,-1.181187152862548828e+00,2.007989883422851562e-01,-2.964650630950927734e+00,-8.925737142562866211e-01,-4.160521030426025391e-01,3.350393772125244141e-01,9.450430870056152344e-01
-1.487323641777038574e-01,3.190242499113082886e-02,1.197816491127014160e+00,-4.528868198394775391e-01,1.161512583494186401e-01,-6.281887292861938477e-01,6.219175457954406738e-01,-2.077641487121582031e-01,-2.422804832458496094e-01,-1.698930025100708008e+00,-1.123174428939819336e-01,2.380654811859130859e+00,1.239985466003417969e+00,-2.017740488052368164e+00
3.062281757593154907e-04,-3.000116944313049316e-01,1.122858047485351562e+00,4.048681855201721191e-01,2.057633101940155029e-01,6.589590907096862793e-01,5.995968580245971680e-01,-2.463872909545898438e+00,6.472539901733398438e-02,7.888867855072021484e-01,-6.903617382049560547e-01,1.889562606811523438e+00,1.051964998245239258e+00,1.055548429489135742e+00
-7.282801717519760132e-02,6.426341533660888672e-01,1.650945693254470825e-01,7.730650901794433594e-01,5.513337850570678711e-01,-2.133958488702774048e-01,2.299210578203201294e-01,-1.634015083312988281e+00,-1.260281562805175781e+00,-2.822116374969482422e+00,-1.068801045417785645e+00,-1.475439071655273438e-01,1.464977979660034180e+00,-2.609443902969360352e+00
5.436175465583801270e-01,1.078040152788162231e-01,8.832277059555053711e-01,-8.119884133338928223e-01,2.073265761137008667e-01,-1.702960133552551270e-01,5.183532834053039551e-01,-5.077171325683593750e-01,5.435600280761718750e-01,-1.813257694244384766e+00,8.224868774414062500e-01,-3.336668014526367188e-02,-1.072395443916320801e+00,9.533040523529052734e-01
-2.804687917232513428e-01,-4.883456826210021973e-01,6.290634274482727051e-01,-3.888000547885894775e-02,-3.131575286388397217e-01,6.741951704025268555e-01,6.677436232566833496e-01,-2.934155941009521484e+00,1.051237583160400391e+00,1.602486133575439453e+00,-1.647923350334167480e+00,-4.441914558410644531e-01,-1.357642769813537598e+00,2.797555208206176758e+00
-5.394101738929748535e-01,3.552205264568328857e-01,1.420198082923889160e-01,-2.189630270004272461e-01,8.494256734848022461e-01,1.685611605644226074e-01,-4.495757222175598145e-01,1.065633296966552734e-01,-1.884040832519531250e+00,-1.488287329673767090e+00,1.459107875823974609e+00,-2.583608627319335938e-01,1.262570858001708984e+00,1.023674249649047852e+00
-4.505723416805267334e-01,3.612724840641021729e-01,6.152544021606445312e-01,-4.073683917522430420e-01,-3.683640658855438232e-01,-2.754598855972290039e-01,7.889744639396667480e-01,2.895212173461914062e+00,3.998296260833740234e-01,2.670588970184326172e+00,1.639600992202758789e+00,6.684920787811279297e-01,9.184927940368652344e-01,2.918815612792968750e-02
1.250812411308288574e-01,4.817580282688140869e-01,8.852342963218688965e-01,1.404732614755630493e-01,8.643493056297302246e-01,4.314228296279907227e-01,2.168915122747421265e-01,1.961636543273925781e+00,2.005255222320556641e-01,2.357079982757568359e+00,1.020621538162231445e+00,-1.502850055694580078e-01,-1.008696079254150391e+00,-1.544024586677551270e+00
3.530540466308593750e-01,4.492679238319396973e-01,8.834496140480041504e-01,1.309334784746170044e-01,-6.704503297805786133e-01,-4.048478603363037109e-01,6.078248620033264160e-01,8.168995380401611328e-01,1.113437891006469727e+00,1.263957023620605469e-01,5.309226512908935547e-01,-1.337565660476684570e+00,-1.769833564758300781e+00,-1.308912277221679688e+00
5.457585677504539490e-02,-1.427731011062860489e-02,9.979326128959655762e-01,4.025158286094665527e-01,1.748805791139602661e-01,-7.328976392745971680e-01,5.198640823364257812e-01,-1.354669809341430664e+00,-7.551988363265991211e-01,2.382681369781494141e-01,-1.514775276184082031e+00,-1.594726443290710449e+00,8.124151229858398438e-01,1.260943174362182617e+00
1.897978186607360840e-01,3.825702145695686340e-02,1.220813870429992676e+00,1.046657748520374298e-02,2.109153419733047485e-01,-7.090288996696472168e-01,6.728173494338989258e-01,-2.585917949676513672e+00,-3.870469331741333008e-01,2.528595924377441406e-01,-3.528040647506713867e-01,-1.739679694175720215e+00,-3.345021009445190430e-01,2.473017930984497070e+00
5.792000293731689453e-01,-5.031175911426544189e-02,6.199189424514770508e-01,7.544697523117065430e-01,5.387756973505020142e-02,-5.350387096405029297e-01,3.763059973716735840e-01,4.989371299743652344e-01,8.190047740936279297e-01,2.116890430450439453e+00,1.112519979476928711e+00,-7.098333835601806641e-01,-2.069697618484497070e+00,-9.055540561676025391e-01
7.789038354530930519e-04,8.562681674957275391e-01,5.896519422531127930e-01,-5.095430612564086914e-01,5.353609845042228699e-02,1.156725361943244934e-02,8.587001562118530273e-01,1.504151821136474609e+00,1.480519533157348633e+00,2.690709590911865234e+00,-3.392028808593750000e-01,1.468787670135498047e+00,1.932387351989746094e-01,6.307342052459716797e-01
-1.893446892499923706e-01,7.188473641872406006e-02,7.775459885597229004e-01,-4.768090844154357910e-01,-5.182139873504638672e-01,7.026751041412353516e-01,1.017595529556274414e-01,-1.658356785774230957e+00,-1.175283908843994141e+00,-3.807568550109863281e-01,-1.972816228866577148e+00,-9.724267721176147461e-01,7.503876686096191406e-01,-5.844962596893310547e-01
1.374263763427734375e-01,-7.570972293615341187e-02,1.218397140502929688e+00,1.329869870096445084e-02,-9.735141880810260773e-03,-1.808454245328903198e-01,9.833734631538391113e-01,-1.987664461135864258e+00,-1.365958452224731445e-01,-2.209701061248779297e+00,5.121085643768310547e-01,-2.807037353515625000e+00,-4.439269304275512695e-01,3.933482170104980469e-01
-4.645186066627502441e-01,-5.483257398009300232e-02,1.112709522247314453e+00,-2.941042780876159668e-01,2.194202840328216553e-01,9.275408387184143066e-01,7.089029252529144287e-02,-2.806232929229736328e+00,5.979483127593994141e-01,-2.161802768707275391e+00,-1.604372262954711914e-01,-2.668664693832397461e+00,-5.064085721969604492e-01,-1.761367201805114746e+00
3.943981230258941650e-01,-2.756113708019256592e-01,9.488701224327087402e-01,2.134783416986465454e-01,7.459583133459091187e-02,-8.331253528594970703e-01,5.047419071197509766e-01,-1.027517676353454590e+00,1.094236373901367188e+00,-7.172794342041015625e-01,1.055616140365600586e+00,1.969677925109863281e+00,-1.037682652473449707e+00,-2.553989648818969727e+00
1.622960120439529419e-01,5.517609417438507080e-02,1.139749407768249512e+00,1.282350867986679077e-01,6.578323841094970703e-01,6.655878424644470215e-01,3.283368945121765137e-01,-2.852036952972412109e+00,1.651182174682617188e-01,2.966512680053710938e+00,-6.284846067428588867e-01,8.909730911254882812e-01,1.178026437759399414e+00,9.270164966583251953e-01
3.657204508781433105e-01,1.837273836135864258e-01,2.971063554286956787e-01,-6.528899669647216797e-01,6.612103581428527832e-01,-2.443386763334274292e-01,-2.771897614002227783e-01,1.508649826049804688e+00,1.883329153060913086e+00,-1.784029603004455566e+00,-2.009027481079101562e+00,-2.062804698944091797e+00,-1.565681934356689453e+00,1.035165548324584961e+00
-4.224188625812530518e-01,-6.116798520088195801e-01,4.704263508319854736e-01,3.575073778629302979e-01,-5.562346577644348145e-01,6.895735263824462891e-01,2.954316139221191406e-01,3.796029090881347656e-01,-1.181387424468994141e+00,1.183649063110351562e+00,1.117980241775512695e+00,-1.971378803253173828e+00,4.492371082305908203e-01,1.514491796493530273e+00
-3.355940058827400208e-02,-2.703205645084381104e-01,8.516931533813476562e-01,-4.560246467590332031e-01,1.942679584026336670e-01,-3.012979924678802490e-01,8.145680427551269531e-01,-2.287407875061035156e+00,1.337485790252685547e+00,2.757708549499511719e+00,-1.641592144966125488e+00,-2.814680814743041992e+00,-7.876716852188110352e-01,1.083353281021118164e+00
-1.463757306337356567e-01,-4.248037636280059814e-01,6.794553399085998535e-01,1.479534506797790527e-01,8.351381421089172363e-01,-5.171860456466674805e-01,-1.147723793983459473e-01,2.718852519989013672e+00,-4.328929185867309570e-01,1.275922775268554688e+00,-1.776061773300170898e+00,1.131128787994384766e+00,5.329916477203369141e-01,-2.431846618652343750e+00
-2.824904620647430420e-01,5.058264732360839844e-01,6.591404229402542114e-02,2.510585784912109375e-01,6.953533291816711426e-01,4.527845978736877441e-01,-4.984369575977325439e-01,1.616934299468994141e+00,1.467304944992065430e+00,5.958542823791503906e-01,-1.587320804595947266e+00,2.871190071105957031e+00,1.183900117874145508e+00,-9.333791732788085938e-01
-1.554420441389083862e-01,1.551300436258316040e-01,1.137686491012573242e+00,-5.608592033386230469e-01,-2.360938042402267456e-01,-2.493020594120025635e-01,7.533559799194335938e-01,-4.250133037567138672e-01,-5.421514511108398438e-01,3.537178039550781250e-02,-6.650493144989013672e-01,2.074423313140869141e+00,1.350176572799682617e+00,-2.409626007080078125e+00
-3.705319166183471680e-01,4.526008665561676025e-01,9.243860840797424316e-01,-2.654639780521392822e-01,-3.165951669216156006e-01,4.638735353946685791e-01,7.836566567420959473e-01,2.734368324279785156e+00,5.679376125335693359e-01,1.950588703155517578e+00,8.683724403381347656e-01,-3.828270435333251953e-01,9.793193340301513672e-01,2.843417406082153320e+00
1.715696901082992554e-01,-8.361669182777404785e-01,5.056296586990356445e-01,-4.579935222864151001e-02,9.140763282775878906e-01,-4.029400944709777832e-01,-2.506030723452568054e-03,-1.364358544349670410e+00,1.290982007980346680e+00,2.265224456787109375e-01,-6.912541389465332031e-02,-3.823084831237792969e-01,9.677205085754394531e-01,-1.414791107177734375e+00
-4.887141585350036621e-01,2.616441249847412109e-01,6.327615678310394287e-02,6.854485720396041870e-02,9.589042067527770996e-01,-9.493665397167205811e-02,-2.584404051303863525e-01,2.087108135223388672e+00,1.385362863540649414e+00,-2.452791690826416016e+00,1.598572969436645508e+00,-1.519944906234741211e+00,-1.478288173675537109e-01,6.739780902862548828e-01
-6.718748062849044800e-02,5.842912793159484863e-01,2.747909724712371826e-02,6.281051784753799438e-02,4.707181155681610107e-01,8.799757361412048340e-01,1.104690227657556534e-02,-7.180919647216796875e-01,-1.974176883697509766e+00,2.082596302032470703e+00,-1.332706212997436523e+00,-1.708315134048461914e+00,1.247557401657104492e+00,-9.753143787384033203e-01
1.391386538743972778e-01,3.191945850849151611e-01,4.498134255409240723e-01,6.874679923057556152e-01,-2.109933495521545410e-01,3.610204458236694336e-01,5.937455296516418457e-01,2.256864070892333984e+00,8.427164554595947266e-01,-1.327648997306823730e+00,-2.051874160766601562e+00,2.658856868743896484e+00,-1.735780477523803711e+00,1.344359636306762695e+00
6.704254746437072754e-01,-2.131000310182571411e-01,8.078637123107910156e-01,-5.591506361961364746e-01,3.527697920799255371e-01,-3.906591832637786865e-01,6.405385136604309082e-01,-6.778049468994140625e-02,1.081397533416748047e+00,1.131098747253417969e+00,6.111564636230468750e-01,-5.446720123291015625e-02,1.227034330368041992e+00,-2.485895633697509766e+00
8.923893421888351440e-02,-5.957562327384948730e-01,1.013751745223999023e+00,1.039776876568794250e-01,-3.348689973354339600e-01,9.321553111076354980e-01,9.021033346652984619e-02,-1.652080178260803223e+00,8.033564090728759766e-01,-1.149996638298034668e+00,3.416192531585693359e-01,-1.586754322052001953e-01,1.295254230499267578e-01,-4.550712108612060547e-01
-3.713773488998413086e-01,-3.567159473896026611e-01,8.834876418113708496e-01,7.996045947074890137e-01,-3.813219368457794189e-01,-1.379318535327911377e-02,4.637195169925689697e-01,1.459410190582275391e+00,-7.087798118591308594e-01,1.203765392303466797e+00,-9.595830440521240234e-01,-1.475200176239013672e+00,-1.588992953300476074e+00,-1.877895712852478027e+00
3.080047369003295898e-01,-3.590228557586669922e-01,8.929689526557922363e-01,1.515297740697860718e-01,5.947886109352111816e-01,-3.236180245876312256e-01,7.200949192047119141e-01,-2.257607460021972656e+00,1.502265930175781250e-01,1.555864334106445312e+00,-1.318841218948364258e+00,-1.683007359504699707e+00,-6.618881225585937500e-02,1.371911764144897461e+00
-9.254826605319976807e-02,4.426341056823730469e-01,6.965564489364624023e-01,-1.770621724426746368e-02,-8.239923715591430664e-01,-2.366212755441665649e-01,5.145221948623657227e-01,2.828242778778076172e+00,1.031987667083740234e-01,-1.287711501121520996e+00,-1.673312425613403320e+00,-1.815142750740051270e+00,-1.141515851020812988e+00,-1.958180308341979980e+00
1.497203111648559570e-01,-4.067409932613372803e-01,6.568773388862609863e-01,5.524421334266662598e-01,1.215755119919776917e-01,-2.566756680607795715e-02,8.242380023002624512e-01,-2.883101463317871094e+00,1.429848670959472656e-01,-1.339263439178466797e+00,1.986721992492675781e+00,3.166384696960449219e-01,8.269400596618652344e-01,-2.282928705215454102e+00
7.358074188232421875e-02,1.284443885087966919e-01,1.232668280601501465e+00,7.197490427643060684e-03,2.656487822532653809e-01,8.780785799026489258e-01,3.979408740997314453e-01,2.186492443084716797e+00,-3.820729255676269531e-02,2.211763381958007812e+00,3.102393150329589844e-01,-1.816022396087646484e-01,-2.493637800216674805e-01,-1.928112745285034180e+00
-4.235935807228088379e-01,-3.269767761230468750e-01,6.041818261146545410e-01,5.310480594635009766e-01,-3.887288570404052734e-01,6.452378034591674805e-01,-3.880026340484619141e-01,-2.662184000015258789e+00,1.847522974014282227e+00,-1.321575641632080078e-01,1.349274873733520508e+00,-5.892138481140136719e-01,-1.784080505371093750e+00,7.907390594482421875e-01
5.775867104530334473e-01,1.852024644613265991e-01,7.500138878822326660e-01,-1.680551618337631226e-01,-4.146957099437713623e-01,7.160364985466003418e-01,5.357954502105712891e-01,-2.648936986923217773e+00,-1.469437837600708008e+00,3.728973865509033203e-01,-8.216918706893920898e-01,2.930969238281250000e+00,-1.598226428031921387e+00,1.615393400192260742e+00
6.433444619178771973e-01,5.481209158897399902e-01,6.606824398040771484e-01,-2.345425933599472046e-01,5.677108168601989746e-01,4.249411821365356445e-01,6.649204492568969727e-01,6.309015750885009766e-01,1.217852354049682617e+00,-1.627805233001708984e+00,9.455156326293945312e-02,-2.936530113220214844e-01,-2.399296760559082031e-01,2.200133085250854492e+00
6.620948314666748047e-01,-1.109521463513374329e-01,7.599967122077941895e-01,-5.590332746505737305e-01,6.434032320976257324e-01,-3.686893284320831299e-01,-3.709207177162170410e-01,2.907903671264648438e+00,-8.152213096618652344e-01,7.181906700134277344e-01,4.592208862304687500e-01,1.424718379974365234e+00,1.874861478805541992e+00,-1.785022139549255371e+00
-3.655023574829101562e-01,-1.217881068587303162e-01,7.806645631790161133e-01,5.251098796725273132e-02,9.978768825531005859e-01,7.744137197732925415e-03,3.774078190326690674e-02,-1.714810967445373535e+00,6.719999313354492188e-01,-2.035064220428466797e+00,-1.366326570510864258e+00,-2.521615743637084961e+00,-2.083187103271484375e+00,-3.023557662963867188e-01
-6.714048385620117188e-01,1.720528304576873779e-02,8.210943341255187988e-01,-4.662798941135406494e-01,-3.965136408805847168e-01,3.486692905426025391e-01,7.097814083099365234e-01,5.566868782043457031e-01,-8.743710517883300781e-01,-1.593452095985412598e+00,8.668947219848632812e-01,1.204552173614501953e+00,-1.925531625747680664e-01,1.144669294357299805e+00
-4.349094629287719727e-01,5.616723895072937012e-01,8.331193923950195312e-01,-3.942175507545471191e-01,-3.171722590923309326e-01,-1.646896898746490479e-01,8.466826677322387695e-01,2.515538692474365234e+00,1.205651283264160156e+00,7.421090602874755859e-01,6.751620769500732422e-01,2.573440074920654297e+00,-3.135770559310913086e-01,2.722163200378417969e-01
-9.428223222494125366e-02,4.974246919155120850e-01,5.245734453201293945e-01,-2.216115742921829224e-01,7.973789423704147339e-02,8.919427394866943359e-01,-3.859642148017883301e-01,8.760821819305419922e-01,1.710749864578247070e+00,1.938268184661865234e+00,-1.795274257659912109e+00,-1.982454061508178711e+00,-8.058737516403198242e-01,1.520796060562133789e+00
-4.409564435482025146e-01,-2.651361003518104553e-02,9.684159755706787109e-01,2.821863889694213867e-01,4.860977828502655029e-01,-3.152716159820556641e-01,7.646461129188537598e-01,4.106829166412353516e-01,-8.854659795761108398e-01,-2.229130268096923828e+00,7.903325557708740234e-01,1.185243606567382812e+00,1.854278087615966797e+00,2.884387969970703125e-03
-8.297274112701416016e-01,-6.154835596680641174e-02,1.441587805747985840e-01,1.632802784442901611e-01,-5.100408196449279785e-01,2.915931344032287598e-01,7.925726175308227539e-01,-3.681993484497070312e-02,-1.757441043853759766e+00,-2.730520963668823242e+00,-2.847176790237426758e-01,-1.054364800453186035e+00,-1.045656442642211914e+00,-2.496442079544067383e+00
-8.025889843702316284e-02,2.222244441509246826e-01,7.758378982543945312e-01,4.219512641429901123e-01,-3.734864890575408936e-01,7.445653080940246582e-01,-3.578931391239166260e-01,2.741035461425781250e+00,1.407260179519653320e+00,4.462406635284423828e-01,1.888249158859252930e+00,2.964522361755371094e+00,7.216513156890869141e-01,-1.407977104187011719e+00
-5.552249550819396973e-01,-2.285417169332504272e-01,9.183375239372253418e-01,-1.645363718271255493e-01,-6.919791698455810547e-01,-6.983205676078796387e-02,6.994398236274719238e-01,-2.728320121765136719e+00,1.073456525802612305e+00,-1.750516891479492188e-01,6.346414089202880859e-01,2.469025611877441406e+00,-1.334175229072570801e+00,5.212492942810058594e-01
-7.912163436412811279e-02,-3.139415681362152100e-01,1.124302864074707031e+00,5.263949632644653320e-01,-2.038394808769226074e-01,-2.623395025730133057e-01,7.826466560363769531e-01,7.998285293579101562e-01,-3.465890884399414062e-02,-2.425616264343261719e+00,-6.368591785430908203e-01,-9.891678094863891602e-01,7.126536369323730469e-01,2.185267210006713867e+00
4.330475330352783203e-01,1.375816911458969116e-01,6.416753530502319336e-01,-5.701649188995361328e-01,5.079824924468994141e-01,2.538781240582466125e-02,6.451520323753356934e-01,-1.009965300559997559e+00,8.112583160400390625e-01,-1.256740927696228027e+00,1.864822387695312500e+00,1.860738277435302734e+00,2.098443508148193359e-01,-2.759528160095214844e-01
-2.292676120996475220e-01,5.963188409805297852e-01,7.629671096801757812e-01,-4.113628566265106201e-01,9.080496430397033691e-01,-2.439656108617782593e-02,7.504110038280487061e-02,-1.100677251815795898e+00,-7.402690649032592773e-01,2.790132522583007812e+00,-4.013906717300415039e-01,8.661580085754394531e-02,2.044629096984863281e+00,9.630925655364990234e-01
-2.447780966758728027e-01,-3.316556215286254883e-01,1.107468366622924805e+00,2.812419533729553223e-01,-1.667386293411254883e-01,7.391345500946044922e-01,5.888814330101013184e-01,2.527554035186767578e-01,-3.633877038955688477e-01,-1.853922486305236816e+00,-5.789772272109985352e-01,1.521764278411865234e+00,5.253109931945800781e-01,1.588191747665405273e+00
7.262791693210601807e-02,-1.664838492870330811e-01,1.159680724143981934e+00,2.871894240379333496e-01,6.794605255126953125e-01,-4.738413095474243164e-01,4.809677898883819580e-01,-1.759120821952819824e+00,2.061707973480224609e-01,2.537860870361328125e+00,-2.592186927795410156e-01,1.176439285278320312e+00,-1.585766792297363281e+00,2.890289545059204102e+00
-6.297962665557861328e-01,-2.848536968231201172e-01,7.632115483283996582e-01,-7.203413248062133789e-01,4.961715266108512878e-02,2.425485998392105103e-01,6.479325890541076660e-01,6.460573673248291016e-01,-1.092028260231018066e+00,-2.027224540710449219e+00,2.129540443420410156e-01,3.100659847259521484e-01,-1.703961372375488281e+00,3.007027864456176758e+00
-3.516179025173187256e-01,-1.379883289337158203e-01,9.603428244590759277e-01,7.595805823802947998e-02,-1.839054226875305176e-01,9.778967499732971191e-02,9.751135110855102539e-01,2.450375080108642578e+00,-1.614867448806762695e-01,-2.270001411437988281e+00,1.391278266906738281e+00,-9.639978408813476562e-03,9.073059558868408203e-01,5.419611930847167969e-02
2.574135065078735352e-01,-5.604051947593688965e-01,8.453890085220336914e-01,3.349976241588592529e-02,4.296061396598815918e-01,-6.930271983146667480e-01,5.779529809951782227e-01,-1.344523668289184570e+00,1.402088403701782227e+00,2.849828720092773438e+00,-1.073457479476928711e+00,3.042130470275878906e-01,-4.876337051391601562e-01,2.577046155929565430e+00
6.844045519828796387e-01,3.703483343124389648e-01,5.386812090873718262e-01,-3.350219130516052246e-01,5.632561445236206055e-01,3.854402303695678711e-01,6.495680809020996094e-01,4.890227317810058594e-02,1.588918209075927734e+00,2.160179615020751953e+00,-9.372526407241821289e-01,1.720931053161621094e+00,-3.562884330749511719e-01,2.652672529220581055e+00
6.371102333068847656e-01,-2.586454749107360840e-01,3.823018670082092285e-01,3.803903460502624512e-01,8.213234543800354004e-01,-1.995684355497360229e-01,-3.753710389137268066e-01,4.591631889343261719e-02,1.342714548110961914e+00,-1.288659453392028809e+00,-8.438073396682739258e-01,5.158989429473876953e-01,2.089797019958496094e+00,-6.328344345092773438e-02
4.550495371222496033e-02,-1.049229428172111511e-01,1.245593428611755371e+00,1.501363664865493774e-01,3.469224646687507629e-02,9.339148402214050293e-01,3.225810825824737549e-01,-2.085276603698730469e+00,1.616060733795166016e-01,-9.190530776977539062e-01,2.174713611602783203e-01,2.577192783355712891e-01,-1.870520114898681641e-01,-1.088700294494628906e+00
-1.118405759334564209e-01,-6.497999429702758789e-01,5.029940605163574219e-01,6.985236704349517822e-02,-7.839491963386535645e-01,-2.520704269409179688e-01,5.630316734313964844e-01,-1.847573995590209961e+00,8.272795677185058594e-01,4.260559082031250000e-01,-1.116051077842712402e+00,1.635113716125488281e+00,-1.911565780639648438e+00,1.494818925857543945e+00
1.823351532220840454e-02,6.576816439628601074e-01,6.872087717056274414e-01,8.513426184654235840e-01,-3.427581489086151123e-01,-3.422749042510986328e-01,2.014462500810623169e-01,1.217846393585205078e+00,1.304426431655883789e+00,-6.760222911834716797e-01,6.856582164764404297e-01,1.903354167938232422e+00,2.014046192169189453e+00,-2.853584289550781250e-02
2.693408429622650146e-01,3.909752964973449707e-01,8.065913319587707520e-01,-5.252390503883361816e-01,3.674840629100799561e-01,1.310120373964309692e-01,7.562507390975952148e-01,-2.747380733489990234e+00,9.597063064575195312e-03,5.351414680480957031e-01,1.548597097396850586e+00,2.220490455627441406e+00,-2.500447034835815430e-01,1.585261821746826172e-01
5.251078009605407715e-01,2.157269604504108429e-02,1.034581065177917480e+00,-1.136350631713867188e-01,2.704558670520782471e-01,8.302363753318786621e-02,9.523905515670776367e-01,-2.555940151214599609e-01,9.317705631256103516e-01,-5.341975688934326172e-01,6.483466625213623047e-01,-2.051061630249023438e+00,-1.277974843978881836e-01,2.866202116012573242e+00
-1.720564365386962891e-01,-2.283450812101364136e-01,8.747509121894836426e-01,-6.244580745697021484e-01,-9.904029220342636108e-02,-2.355231903493404388e-02,7.743955254554748535e-01,-9.579968452453613281e-01,8.071992397308349609e-01,8.891487121582031250e-01,1.473470926284790039e+00,2.090835571289062500e+00,1.505208969116210938e+00,-7.329809665679931641e-01
-1.644169986248016357e-01,-5.027266144752502441e-01,6.957335472106933594e-01,-8.498855680227279663e-02,2.775143980979919434e-01,-7.531743645668029785e-01,5.903312563896179199e-01,-1.087954640388488770e+00,9.161612987518310547e-01,1.539321422576904297e+00,1.559834241867065430e+00,-2.754029989242553711e+00,-1.807795047760009766e+00,8.012170791625976562e-01
-6.537741422653198242e-01,3.727959990501403809e-01,-1.061551719903945923e-01,-4.881596565246582031e-01,7.996019124984741211e-01,3.478655219078063965e-01,-3.642050549387931824e-02,2.497843265533447266e+00,2.083612918853759766e+00,1.464341163635253906e+00,-2.765797376632690430e-01,-2.382886409759521484e+00,5.602414608001708984e-01,2.275956869125366211e+00
1.137005761265754700e-01,3.128956854343414307e-01,7.362101674079895020e-01,3.675897419452667236e-02,8.066490888595581055e-01,5.873883366584777832e-01,5.423063784837722778e-02,-3.342182636260986328e-01,8.126301765441894531e-01,2.393966674804687500e+00,-1.901748657226562500e+00,1.757350444793701172e+00,-8.655390739440917969e-01,-7.645523548126220703e-01
8.259974420070648193e-02,2.702555954456329346e-01,9.795192480087280273e-01,3.780837953090667725e-01,-4.604992568492889404e-01,7.463378906250000000e-01,-2.966021895408630371e-01,-2.103230953216552734e+00,1.305491924285888672e-01,3.912248611450195312e-01,1.225302696228027344e+00,-1.958356380462646484e+00,-1.763613224029541016e+00,2.265330076217651367e+00
-6.445341706275939941e-01,-2.042759507894515991e-01,2.974778413772583008e-01,-1.209852248430252075e-01,-7.004030346870422363e-01,4.769494831562042236e-01,5.170272588729858398e-01,7.103757858276367188e-01,-1.085609674453735352e+00,2.449776649475097656e+00,-1.494904994964599609e+00,-2.305412292480468750e-01,-1.030537366867065430e+00,-1.494624018669128418e+00
-8.393858075141906738e-01,4.126909747719764709e-02,3.773805201053619385e-01,7.124722003936767578e-01,8.431646227836608887e-02,-6.188496947288513184e-01,-3.198423087596893311e-01,-2.911294221878051758e+00,1.276044130325317383e+00,2.380824565887451172e+00,7.439746856689453125e-01,-2.029613494873046875e+00,-2.440817356109619141e-01,-9.433860778808593750e-01
6.311603188514709473e-01,9.717555344104766846e-02,6.881714463233947754e-01,6.693725585937500000e-01,4.067716896533966064e-01,-5.893629044294357300e-02,6.188730001449584961e-01,5.196607112884521484e-01,5.819852352142333984e-01,-4.491598606109619141e-01,-1.046786069869995117e+00,2.049074649810791016e+00,-1.259917020797729492e+00,-7.043690681457519531e-01
-8.073276877403259277e-01,3.417687863111495972e-02,6.914677023887634277e-01,-4.154664278030395508e-02,-2.690506279468536377e-01,-5.608049407601356506e-02,9.605938792228698730e-01,-9.964537620544433594e-02,-1.100790262222290039e+00,4.267981052398681641e-01,3.133714199066162109e-01,2.923693180084228516e+00,-8.577355146408081055e-01,2.919596910476684570e+00
-2.618661820888519287e-01,-6.513518691062927246e-01,5.804361701011657715e-01,-2.493798136711120605e-01,5.730210542678833008e-01,-3.515051305294036865e-01,6.970657706260681152e-01,9.389545917510986328e-01,-9.446544647216796875e-01,3.912305831909179688e-01,7.782750129699707031e-01,1.451894283294677734e+00,-1.888959050178527832e+00,6.500003337860107422e-01
5.541316270828247070e-01,4.148014187812805176e-01,4.559725821018218994e-01,-3.430967628955841064e-01,2.682920694351196289e-01,6.386961936950683594e-01,6.343273520469665527e-01,-1.942062377929687500e-02,1.692921876907348633e+00,-1.268749475479125977e+00,1.251862525939941406e+00,6.353366374969482422e-01,-6.185965538024902344e-01,8.345513343811035156e-01
5.209038853645324707e-01,7.710216194391250610e-02,1.009773969650268555e+00,2.360816895961761475e-01,1.799528896808624268e-01,-9.791678190231323242e-02,9.498919248580932617e-01,7.173824310302734375e-01,7.446181774139404297e-01,1.311015129089355469e+00,6.667780876159667969e-01,2.007732868194580078e+00,5.372042655944824219e-01,2.464253187179565430e+00
-4.151651859283447266e-01,-5.295262932777404785e-01,7.897896766662597656e-01,7.912642955780029297e-01,-3.274206221103668213e-01,4.508535265922546387e-01,2.518485188484191895e-01,8.684027194976806641e-01,-8.003401756286621094e-01,-3.511621952056884766e-01,3.333179950714111328e-01,1.378850460052490234e+00,-1.716845273971557617e+00,-1.251598954200744629e+00
-1.579875946044921875e-01,-8.491696715354919434e-01,6.004223823547363281e-01,4.574322700500488281e-01,3.051874637603759766e-01,-6.630870103836059570e-01,5.078701972961425781e-01,1.468581199645996094e+00,-1.358675718307495117e+00,-2.182807683944702148e+00,1.650707721710205078e-01,2.797875404357910156e+00,1.292340755462646484e-01,2.525848150253295898e+00
3.001286387443542480e-01,-7.085158824920654297e-01,7.536721825599670410e-01,1.152093708515167236e-01,8.093391060829162598e-01,-2.961986064910888672e-01,4.939265251159667969e-01,1.961063861846923828e+00,-1.018001437187194824e+00,1.926747798919677734e+00,-7.603573799133300781e-02,1.818739414215087891e+00,1.032785415649414062e+00,-9.852325916290283203e-01
1.625662893056869507e-01,-2.878275811672210693e-01,3.758782893419265747e-02,8.405484557151794434e-01,-2.149753272533416748e-01,2.031865119934082031e-01,-4.538492858409881592e-01,-2.283628940582275391e+00,1.938962936401367188e+00,-2.131790637969970703e+00,1.954071521759033203e+00,2.137117385864257812e+00,9.391968250274658203e-01,2.931800603866577148e+00
-5.425935983657836914e-01,-1.363558918237686157e-01,8.333486318588256836e-01,3.599239885807037354e-01,-1.907506771385669708e-02,-2.734191119670867920e-01,8.918143510818481445e-01,2.772834300994873047e+00,1.275853872299194336e+00,-7.965068817138671875e-01,1.217605829238891602e+00,-2.884464740753173828e+00,1.531939506530761719e-01,-2.761964797973632812e-01
2.608561217784881592e-01,1.836764253675937653e-02,9.921556711196899414e-01,3.974465727806091309e-01,4.319030046463012695e-01,8.014150857925415039e-01,1.150213778018951416e-01,1.025584220886230469e+00,7.218995094299316406e-01,5.017898082733154297e-01,1.350538492202758789e+00,2.612744331359863281e+00,-1.640556097030639648e+00,-1.625989556312561035e+00
-3.768479228019714355e-01,-6.211523711681365967e-02,7.238550186157226562e-01,-4.067050665616989136e-02,-6.638334393501281738e-01,7.222746014595031738e-01,-1.897115856409072876e-01,-2.818560361862182617e+00,1.609479188919067383e+00,3.643987178802490234e-01,1.739419937133789062e+00,-1.653440237045288086e+00,-1.829592227935791016e+00,1.978319883346557617e+00
1.985995024442672729e-01,1.732425391674041748e-01,9.056084752082824707e-01,-4.849287271499633789e-01,-5.535070896148681641e-01,-4.512413442134857178e-01,5.048319697380065918e-01,2.429355144500732422e+00,-8.285838365554809570e-01,-5.441832542419433594e-01,-1.508898496627807617e+00,2.648169040679931641e+00,-8.194756507873535156e-01,-4.505372047424316406e-02
-7.099569439888000488e-01,-4.807374775409698486e-01,3.355532884597778320e-01,-5.031438469886779785e-01,6.368078589439392090e-01,5.034937858581542969e-01,-2.963376641273498535e-01,-2.390310764312744141e+00,1.622148036956787109e+00,-2.162013053894042969e+00,-1.941765546798706055e-01,1.011685609817504883e+00,1.018462896347045898e+00,2.724301099777221680e+00
5.492772459983825684e-01,-4.575510025024414062e-01,8.838698267936706543e-01,4.175053536891937256e-01,1.378724873065948486e-01,2.758927643299102783e-01,8.547301292419433594e-01,-4.799115657806396484e-01,1.014814138412475586e+00,-2.050102233886718750e+00,-3.565307855606079102e-01,-2.379453420639038086e+00,-4.462289810180664062e-02,-5.612881183624267578e-01
7.008415460586547852e-01,-3.586198687553405762e-01,8.668964356184005737e-02,7.671156525611877441e-01,-3.205875754356384277e-01,5.716423317790031433e-02,5.527110695838928223e-01,2.679382324218750000e+00,-1.957353472709655762e+00,-7.682907581329345703e-01,-2.371563911437988281e-01,2.673647880554199219e+00,1.488906383514404297e+00,-2.447403430938720703e+00
-2.678992971777915955e-02,-2.509564533829689026e-02,1.186468124389648438e+00,2.073410898447036743e-01,3.999149799346923828e-01,4.922700822353363037e-01,7.448139786720275879e-01,1.101849079132080078e+00,1.862580776214599609e-01,2.835574626922607422e+00,-5.919857025146484375e-01,-6.044514179229736328e-01,-1.299326896667480469e+00,-2.308094978332519531e+00
3.192822039127349854e-01,-1.009242832660675049e-01,1.015312194824218750e+00,6.688542366027832031e-01,-6.446625590324401855e-01,-6.711038202047348022e-02,-3.640609681606292725e-01,2.065270423889160156e+00,-1.896795034408569336e-01,9.658889770507812500e-01,5.935702323913574219e-01,5.764758586883544922e-01,-2.004933357238769531e+00,1.751928567886352539e+00
6.888476014137268066e-02,3.219656050205230713e-01,7.750287055969238281e-01,3.693663775920867920e-01,-1.894717663526535034e-01,-7.327310442924499512e-01,5.392346978187561035e-01,-1.521692752838134766e+00,-1.566926479339599609e+00,3.832135200500488281e-01,-1.807001590728759766e+00,1.573475837707519531e+00,-1.226656436920166016e+00,-1.735154509544372559e+00
-2.504787147045135498e-01,-2.514987587928771973e-01,7.047390937805175781e-01,4.029254615306854248e-01,8.758115768432617188e-01,1.015440672636032104e-01,-2.455483973026275635e-01,2.193816661834716797e+00,-7.181280851364135742e-01,-2.091455459594726562e+00,1.677740573883056641e+00,-2.950233221054077148e+00,1.501288175582885742e+00,-2.170477628707885742e+00
4.785884022712707520e-01,3.997965455055236816e-01,8.072175979614257812e-01,6.868928074836730957e-01,-9.715793281793594360e-02,-5.626164674758911133e-01,-4.496678411960601807e-01,-2.195670843124389648e+00,-1.044457316398620605e+00,-1.931572794914245605e+00,6.746368408203125000e-01,-2.814077138900756836e+00,-2.032148361206054688e+00,1.771415472030639648e+00
-4.361043572425842285e-01,2.922840714454650879e-01,4.596434235572814941e-01,-2.296597212553024292e-01,-8.007180094718933105e-01,1.820181310176849365e-01,5.224714875221252441e-01,-1.555145025253295898e+00,-7.381843328475952148e-01,-1.933061838150024414e+00,-1.874906659126281738e+00,1.434383869171142578e+00,1.092669963836669922e-01,1.500683546066284180e+00
4.375876486301422119e-01,-3.095472604036331177e-02,1.463721394538879395e-01,7.075089216232299805e-01,-1.460939496755599976e-01,-6.898068189620971680e-01,4.747866094112396240e-02,-1.409592628479003906e-01,1.164555072784423828e+00,7.855558395385742188e-02,-1.637590765953063965e+00,2.277946472167968750e-02,1.865752696990966797e+00,-2.789424419403076172e+00
-7.422602921724319458e-02,7.808490991592407227e-01,2.462852150201797485e-01,5.980147719383239746e-01,7.648845314979553223e-01,-5.081332102417945862e-02,2.339831590652465820e-01,1.680702686309814453e+00,1.537206172943115234e+00,1.272943019866943359e-01,-1.757510900497436523e-01,2.753586769104003906e+00,-1.839610338211059570e+00,-1.283922195434570312e-01
5.924330651760101318e-02,4.249250143766403198e-02,9.371261596679687500e-01,4.911015629768371582e-01,2.026975154876708984e-02,8.676320314407348633e-01,-7.498777657747268677e-02,-5.838148593902587891e-01,7.795233726501464844e-01,-5.774569511413574219e-02,1.716150760650634766e+00,-2.530956983566284180e+00,-1.755980730056762695e+00,6.615512371063232422e-01
4.881074726581573486e-01,3.912325203418731689e-01,8.330094814300537109e-01,-4.917092919349670410e-01,3.607928380370140076e-02,7.801911830902099609e-01,-3.849961757659912109e-01,-2.577293395996093750e+00,-9.424107074737548828e-01,7.896931171417236328e-01,2.025549411773681641e-01,-1.037370443344116211e+00,2.071892261505126953e+00,1.866612434387207031e-01
6.064053177833557129e-01,5.935240164399147034e-02,8.780328631401062012e-01,3.785379230976104736e-01,6.430699825286865234e-01,2.847624421119689941e-01,6.017311215400695801e-01,-2.746582031250000000e-01,4.416108131408691406e-01,-2.378522872924804688e+00,8.452117443084716797e-01,2.093513965606689453e+00,6.321580410003662109e-01,1.642999887466430664e+00
-4.812829662114381790e-03,-4.455126225948333740e-01,9.797639250755310059e-01,8.638618141412734985e-02,3.428122773766517639e-02,-1.442602276802062988e-01,9.851655364036560059e-01,1.310490608215332031e+00,-1.193708658218383789e+00,-2.874789237976074219e-01,-1.137283563613891602e+00,-9.557988643646240234e-01,-1.947833299636840820e-01,-5.131900310516357422e-01
1.315275728702545166e-01,-7.772149052470922470e-03,1.139226078987121582e+00,-2.267559766769409180e-01,-5.949277281761169434e-01,-3.634917363524436951e-02,7.702736258506774902e-01,-2.402808904647827148e+00,-3.067702054977416992e-01,9.797697067260742188e-01,-5.265266895294189453e-01,-2.061282157897949219e+00,1.771795511245727539e+00,-2.644232273101806641e+00
3.293016925454139709e-02,-7.556229829788208008e-01,5.777454376220703125e-01,2.229751199483871460e-01,-3.093729913234710693e-01,6.059589982032775879e-01,6.981289982795715332e-01,1.968773841857910156e+00,-1.703873872756958008e+00,-2.394034862518310547e+00,1.000266313552856445e+00,1.850076198577880859e+00,2.361252307891845703e-01,5.281851291656494141e-01
-4.633632302284240723e-01,-4.554817974567413330e-01,8.466141819953918457e-01,4.620199501514434814e-01,-4.371646642684936523e-01,7.025365829467773438e-01,3.191661834716796875e-01,3.654613494873046875e-01,-7.135772705078125000e-01,-2.241724491119384766e+00,-6.132469177246093750e-01,9.811503887176513672e-01,1.048388242721557617e+00,2.248546838760375977e+00
9.506219625473022461e-02,6.767206192016601562e-01,-1.147663742303848267e-01,3.696854710578918457e-01,6.632949113845825195e-01,5.958076715469360352e-01,2.615066766738891602e-01,1.311800479888916016e+00,1.962023735046386719e+00,5.958454608917236328e-01,-6.214230060577392578e-01,4.623777866363525391e-01,-1.203276872634887695e+00,9.574477672576904297e-01
2.647694945335388184e-01,7.980575561523437500e-01,1.645245999097824097e-01,4.901679456233978271e-01,7.343486547470092773e-01,4.647336304187774658e-01,-6.700789183378219604e-02,-1.636363863945007324e+00,-1.641091108322143555e+00,2.049487113952636719e+00,-5.547590255737304688e-01,1.558332920074462891e+00,3.103895187377929688e-01,1.876708745956420898e+00
-1.187217906117439270e-01,6.296707987785339355e-01,-4.226078465580940247e-02,7.324798107147216797e-01,-4.284256100654602051e-01,4.814348816871643066e-01,2.194202989339828491e-01,2.048192024230957031e+00,1.987776279449462891e+00,1.889583110809326172e+00,4.757344722747802734e-01,8.467938899993896484e-01,-1.984423398971557617e+00,2.621126890182495117e+00
-1.176848337054252625e-01,-5.848745107650756836e-01,8.906026482582092285e-01,-1.925187259912490845e-01,-2.270615845918655396e-01,6.711546778678894043e-01,6.789189577102661133e-01,1.955059528350830078e+00,-9.741126298904418945e-01,-1.896449089050292969e+00,8.490626811981201172e-01,-1.133507609367370605e+00,-6.709409952163696289e-01,-3.017028093338012695e+00
-3.351151198148727417e-02,4.682723283767700195e-01,7.644371390342712402e-01,3.053754866123199463e-01,-9.683547168970108032e-02,9.415605068206787109e-01,1.040798202157020569e-01,2.194809436798095703e+00,2.778050899505615234e-01,-5.887575149536132812e-01,-1.500112056732177734e+00,7.902586460113525391e-01,-1.965978980064392090e+00,1.503411054611206055e+00
-1.428938060998916626e-01,8.695955574512481689e-02,1.162131547927856445e+00,4.489322602748870850e-01,1.903092414140701294e-01,-2.525874078273773193e-01,8.357283473014831543e-01,-1.690435528755187988e+00,-3.358048200607299805e-01,-9.441421031951904297e-01,-5.443203449249267578e-01,1.314976692199707031e+00,1.159606456756591797e+00,4.129056930541992188e-01
7.572337388992309570e-01,3.004249036312103271e-01,1.762002855539321899e-01,8.298580050468444824e-01,-1.424464732408523560e-01,4.718629121780395508e-01,2.615151405334472656e-01,-2.462914466857910156e+00,-1.874027848243713379e+00,-2.032970428466796875e+00,4.935994148254394531e-01,1.032351255416870117e+00,-9.546134471893310547e-01,9.892270565032958984e-01
-1.965644508600234985e-01,4.227788150310516357e-01,9.863582253456115723e-01,-3.925394415855407715e-01,1.879138797521591187e-01,4.302763342857360840e-01,7.908625006675720215e-01,-8.508515357971191406e-02,-2.427647113800048828e-01,-1.346055030822753906e+00,1.067903280258178711e+00,-2.291652917861938477e+00,-2.935770750045776367e-01,-1.324072122573852539e+00
-1.927676647901535034e-01,3.863684833049774170e-01,6.136905550956726074e-01,3.213810026645660400e-01,8.270610570907592773e-01,3.994140326976776123e-01,-2.305487245321273804e-01,1.059158325195312500e+00,-5.599260330200195312e-02,9.917845726013183594e-01,-1.904151320457458496e+00,-6.215195655822753906e-01,4.160513877868652344e-01,-3.007368564605712891e+00
-4.980656504631042480e-01,4.832801520824432373e-01,4.848476946353912354e-01,-4.025605693459510803e-02,1.148698553442955017e-01,-8.220404386520385742e-01,5.562680959701538086e-01,-1.178401231765747070e+00,-1.209580421447753906e+00,-2.152691841125488281e+00,-1.024077534675598145e+00,-1.019942522048950195e+00,-2.062016248703002930e+00,1.508923292160034180e+00
1.603403985500335693e-01,4.456826746463775635e-01,1.061673283576965332e+00,7.295086383819580078e-01,2.716252505779266357e-01,3.875815570354461670e-01,-4.937788248062133789e-01,-1.924465656280517578e+00,-5.017858743667602539e-01,1.208609580993652344e+00,1.098871231079101562e-03,1.978163242340087891e+00,1.282608509063720703e+00,-2.614042043685913086e+00
1.519505232572555542e-01,-4.375643134117126465e-01,6.787507534027099609e-01,-5.683484487235546112e-03,-3.673382452689111233e-04,6.902411580085754395e-01,7.235569953918457031e-01,2.146752834320068359e+00,-1.917199850082397461e+00,-2.855845212936401367e+00,1.764161109924316406e+00,2.148804187774658203e+00,3.173391819000244141e-01,4.483730792999267578e-01
1.121184229850769043e-01,-4.008195698261260986e-01,4.546777307987213135e-01,5.487704873085021973e-01,7.602210640907287598e-01,-2.987780570983886719e-01,-1.778948158025741577e-01,1.243191719055175781e+00,-3.447626829147338867e-01,-2.283607006072998047e+00,-2.007031440734863281e+00,-1.039846420288085938e+00,1.262175321578979492e+00,7.215862274169921875e-01
-4.590750634670257568e-01,2.509165704250335693e-01,-6.625443696975708008e-02,-2.774502895772457123e-02,8.627225756645202637e-01,-1.565781384706497192e-01,-4.800242781639099121e-01,1.970281124114990234e+00,1.758327484130859375e+00,-2.444086551666259766e+00,1.442972898483276367e+00,-1.523190617561340332e+00,3.722631931304931641e-01,1.463789939880371094e-01
-5.050287246704101562e-01,4.859387129545211792e-02,1.038383007049560547e+00,3.680951893329620361e-02,-3.293069601058959961e-01,2.809253633022308350e-01,9.007124304771423340e-01,-6.185328960418701172e-01,-7.947200536727905273e-01,-9.523472785949707031e-01,-6.992405652999877930e-01,-1.969340085983276367e+00,4.391217231750488281e-02,-2.357777118682861328e+00
6.389916539192199707e-01,3.630311191082000732e-01,4.409684240818023682e-01,8.169669508934020996e-01,-2.505809068679809570e-01,-2.694114148616790771e-01,-4.440628588199615479e-01,5.905675888061523438e-02,1.700325012207031250e+00,-8.938250541687011719e-01,9.524433612823486328e-01,1.892679214477539062e+00,1.319623947143554688e+00,-1.611042022705078125e+00
7.876598834991455078e-02,6.832895278930664062e-01,2.571127116680145264e-01,6.755157709121704102e-01,-2.767426967620849609e-01,-6.533226370811462402e-01,2.006527483463287354e-01,-2.098042249679565430e+00,-1.268064975738525391e+00,6.076478958129882812e-01,1.089987277984619141e+00,9.228088855743408203e-01,-1.352367162704467773e+00,1.666733980178833008e+00
7.772272229194641113e-01,5.763807520270347595e-02,7.999375462532043457e-01,-2.728085219860076904e-01,3.439523279666900635e-01,-5.846238136291503906e-01,6.822663545608520508e-01,-3.491020202636718750e-02,1.065820217132568359e+00,1.542141914367675781e+00,-2.140251398086547852e-01,2.516982078552246094e+00,2.701425552368164062e-01,8.264904022216796875e-01
1.222909390926361084e-01,5.646160244941711426e-01,4.032841324806213379e-02,6.819561123847961426e-01,5.925549268722534180e-01,-4.636324942111968994e-02,-4.262216985225677490e-01,7.389271259307861328e-01,1.525753736495971680e+00,7.549233436584472656e-01,-1.462066173553466797e+00,-2.561840772628784180e+00,-2.420783042907714844e-01,-1.204501390457153320e+00
-1.474980860948562622e-01,7.547982931137084961e-01,3.570064306259155273e-01,9.729524850845336914e-01,-1.718469411134719849e-01,6.865185499191284180e-02,-1.382716745138168335e-01,-1.337113261222839355e+00,-1.859101891517639160e+00,4.353809356689453125e-02,-7.941617965698242188e-01,-2.853488922119140625e-01,-1.856094598770141602e+00,2.026219606399536133e+00
-8.001376986503601074e-01,-3.353021740913391113e-01,2.778677940368652344e-01,3.101530969142913818e-01,-7.353951334953308105e-01,-1.928811967372894287e-01,5.707852840423583984e-01,-2.511728763580322266e+00,1.525766849517822266e+00,2.108353137969970703e+00,4.817461967468261719e-01,4.194116592407226562e-02,-1.561930179595947266e-01,3.317997455596923828e-01
-1.780263036489486694e-01,5.260927081108093262e-01,7.580223083496093750e-01,1.494246870279312134e-01,1.229557581245899200e-02,9.255762696266174316e-01,3.476057350635528564e-01,1.731681346893310547e+00,1.658244848251342773e+00,-2.982861995697021484e-01,1.297754049301147461e+00,9.010217189788818359e-01,-7.475869655609130859e-01,-1.488738059997558594e-01
5.392480492591857910e-01,2.425861656665802002e-01,5.249997973442077637e-01,1.391965895891189575e-01,7.215995788574218750e-01,6.607667356729507446e-02,6.749461293220520020e-01,-2.071832180023193359e+00,-1.835219144821166992e+00,-2.352867126464843750e+00,1.671858549118041992e+00,-9.290590286254882812e-01,8.977227210998535156e-01,2.778840065002441406e-02
2.435227483510971069e-01,6.774720549583435059e-01,7.902260422706604004e-01,4.839558601379394531e-01,7.508755326271057129e-01,4.486328363418579102e-01,2.648095414042472839e-02,-1.943074464797973633e+00,-1.056648612022399902e+00,-3.693499565124511719e-01,-2.537493705749511719e-01,1.349897384643554688e-01,-1.429440498352050781e+00,-7.767031192779541016e-01
7.005447149276733398e-02,4.181857109069824219e-01,1.116830587387084961e+00,3.073651492595672607e-01,1.722689568996429443e-01,9.240778088569641113e-01,1.480886638164520264e-01,-1.288335442543029785e+00,-3.821458816528320312e-01,-9.591486454010009766e-01,4.100232124328613281e-01,1.716307163238525391e+00,6.170313358306884766e-01,-2.651693820953369141e+00
-1.407730132341384888e-01,-5.208572149276733398e-01,8.792005181312561035e-01,7.425714135169982910e-01,-3.233683109283447266e-01,-3.542367815971374512e-01,4.674793481826782227e-01,-2.406250000000000000e+00,7.471938133239746094e-01,-1.280897617340087891e+00,9.371733665466308594e-01,9.290697574615478516e-01,1.702084302902221680e+00,2.280236005783081055e+00
-6.525799632072448730e-02,-2.647163569927215576e-01,1.165397405624389648e+00,1.664526760578155518e-01,2.789316177368164062e-01,-4.161393046379089355e-01,8.493048548698425293e-01,-9.888495206832885742e-01,3.465785980224609375e-01,-2.127806663513183594e+00,-6.290692090988159180e-01,2.775366783142089844e+00,8.313908576965332031e-01,-6.599910259246826172e-01
6.898214817047119141e-01,2.645814418792724609e-01,4.785549826920032501e-03,5.266602039337158203e-01,8.225934505462646484e-01,1.194296479225158691e-01,-1.780606806278228760e-01,5.639858245849609375e-01,1.834699392318725586e+00,-1.129963874816894531e+00,-5.165646076202392578e-01,1.730756759643554688e+00,1.311865568161010742e+00,1.039181947708129883e+00
-2.112544625997543335e-01,7.160621285438537598e-01,8.536301851272583008e-01,-4.213748872280120850e-02,5.301214456558227539e-01,8.388886451721191406e-01,1.160238385200500488e-01,1.952081680297851562e+00,1.000176906585693359e+00,1.100271224975585938e+00,1.105561256408691406e-01,8.665287494659423828e-01,-3.208346366882324219e-01,-8.440442085266113281e-01
1.440514028072357178e-01,4.124498367309570312e-01,4.638435542583465576e-01,6.654901057481765747e-02,7.522846460342407227e-01,-3.778675496578216553e-01,5.355886220932006836e-01,-8.153617382049560547e-01,-1.339311599731445312e+00,-1.696014881134033203e+00,1.875188350677490234e+00,-8.147001266479492188e-02,-1.145453929901123047e+00,-2.213987350463867188e+00
-3.559140861034393311e-01,-5.194303393363952637e-01,1.150199398398399353e-01,-5.534240007400512695e-01,7.642277479171752930e-01,2.954393327236175537e-01,1.496444493532180786e-01,-2.509152889251708984e+00,1.442738294601440430e+00,-2.366878271102905273e+00,1.134637594223022461e+00,1.988641262054443359e+00,1.607164144515991211e+00,-2.823740005493164062e+00
2.820773124694824219e-01,-5.891110897064208984e-01,8.549209833145141602e-01,3.335522711277008057e-01,2.298062145709991455e-01,9.095904231071472168e-01,9.261333942413330078e-02,-9.686597585678100586e-01,1.115506649017333984e+00,-2.189399003982543945e+00,-5.163946151733398438e-01,-2.004265308380126953e+00,1.387935161590576172e+00,1.656042337417602539e+00
3.112505376338958740e-01,-7.568905949592590332e-01,5.951834321022033691e-01,7.722610831260681152e-01,-3.259178698062896729e-01,5.392361283302307129e-01,8.133098483085632324e-02,1.833902359008789062e+00,-1.400986313819885254e+00,-3.698532581329345703e-01,-3.733946084976196289e-01,1.046558856964111328e+00,-1.099431037902832031e+00,-3.408708572387695312e-01
1.475965082645416260e-01,-6.903601884841918945e-01,8.262662291526794434e-01,-4.390366077423095703e-01,-5.126895904541015625e-01,7.183794379234313965e-01,1.683070659637451172e-01,-1.276263236999511719e+00,1.041067361831665039e+00,-3.030674457550048828e-01,1.424655914306640625e-01,-1.130640268325805664e+00,1.292760610580444336e+00,-1.892728805541992188e-01
9.574540704488754272e-02,2.497954815626144409e-01,6.711304187774658203e-01,3.973793387413024902e-01,8.517628908157348633e-01,3.079141974449157715e-01,-1.475757658481597900e-01,1.988603115081787109e+00,-5.535866022109985352e-01,2.653323650360107422e+00,2.029216766357421875e+00,-2.273957729339599609e-01,-9.141125679016113281e-01,-7.216002941131591797e-01
5.812098383903503418e-01,-3.164894282817840576e-01,7.644374668598175049e-02,1.330856084823608398e-01,5.659719705581665039e-01,-1.712090224027633667e-01,7.953938841819763184e-01,1.629498004913330078e-01,1.953099727630615234e+00,1.880470275878906250e+00,1.261911630630493164e+00,-2.145786285400390625e+00,-1.047184109687805176e+00,8.624136447906494141e-01
-5.115118622779846191e-01,9.183246642351150513e-02,7.902655601501464844e-01,-5.176340341567993164e-01,-2.295680902898311615e-02,7.184029817581176758e-01,-4.641391038894653320e-01,2.220054626464843750e+00,2.284598350524902344e-01,-2.358279943466186523e+00,1.448870182037353516e+00,2.083861351013183594e+00,-9.003258943557739258e-01,1.607289552688598633e+00
5.184742435812950134e-02,-8.378479480743408203e-01,3.730240762233734131e-01,3.249100446701049805e-01,-2.226768992841243744e-03,-7.280684709548950195e-01,6.036098599433898926e-01,-1.348283529281616211e+00,1.697742700576782227e+00,-2.092675209045410156e+00,-2.619143724441528320e-01,2.649069786071777344e+00,-1.164324522018432617e+00,-2.985422611236572266e-01
-3.914589285850524902e-01,5.878792405128479004e-01,1.890624128282070160e-02,7.682386040687561035e-01,-7.583239674568176270e-02,6.318839192390441895e-01,-6.914918124675750732e-02,-8.925800323486328125e-01,-1.982679367065429688e+00,-2.651026964187622070e+00,8.407354354858398438e-03,-1.567924380302429199e+00,2.071463108062744141e+00,-7.641150951385498047e-01
-7.120182514190673828e-01,-7.153260707855224609e-02,2.036383561789989471e-02,-4.263808429241180420e-01,8.645120859146118164e-01,-2.660987973213195801e-01,3.090676618739962578e-03,-2.799791336059570312e+00,1.804639339447021484e+00,2.012712478637695312e+00,6.281538009643554688e-01,1.729087352752685547e+00,-1.518019318580627441e+00,-1.301879763603210449e+00
-4.521481096744537354e-01,4.333379268646240234e-01,6.321752071380615234e-01,8.648613095283508301e-01,-4.377281665802001953e-01,1.823399364948272705e-01,1.648064106702804565e-01,1.956844329833984375e+00,8.213043212890625000e-01,-2.143447160720825195e+00,8.609480857849121094e-01,-3.050048351287841797e-01,-2.072398900985717773e+00,-2.570363521575927734e+00
-5.375429987907409668e-02,-5.284287333488464355e-01,8.017827272415161133e-01,-1.584545224905014038e-01,5.656867027282714844e-01,7.965058684349060059e-01,-1.430702805519104004e-01,-1.448376536369323730e+00,1.403090238571166992e+00,2.896101474761962891e-01,9.518387317657470703e-01,1.647996902465820312e-01,-1.628656744956970215e+00,-1.294413805007934570e+00
5.476936325430870056e-02,3.939417004585266113e-01,-1.191424503922462463e-01,6.122974157333374023e-01,-1.863031536340713501e-01,6.645306348800659180e-01,3.857227265834808350e-01,-1.179992556571960449e+00,-1.894382715225219727e+00,-4.757647514343261719e-01,1.231081724166870117e+00,-2.544927597045898438e-01,-1.630034685134887695e+00,2.474901437759399414e+00
-6.664015054702758789e-01,-3.606242537498474121e-01,4.620258808135986328e-01,2.338800281286239624e-01,-3.401550352573394775e-01,-4.253323972225189209e-01,8.054111003875732422e-01,5.740611553192138672e-01,-2.025550842285156250e+00,9.124135971069335938e-02,-1.080967068672180176e+00,-2.115057468414306641e+00,-2.964035272598266602e-01,7.013318538665771484e-01
2.901349067687988281e-01,-1.047468185424804688e-01,7.036523222923278809e-01,8.688989281654357910e-01,-3.824950158596038818e-01,-1.581801027059555054e-01,2.714613378047943115e-01,-1.539522767066955566e+00,-3.494808673858642578e-01,9.753990173339843750e-01,-1.735776185989379883e+00,2.816656589508056641e+00,-1.810900688171386719e+00,1.591880321502685547e-01
6.186603903770446777e-01,9.735319763422012329e-02,-2.248483002185821533e-01,9.882829189300537109e-01,1.167022585868835449e-01,4.759116843342781067e-02,-8.609660714864730835e-02,4.348325729370117188e-02,2.045518398284912109e+00,3.213441371917724609e-01,-4.588663578033447266e-01,-1.772220134735107422e-01,5.682964324951171875e-01,2.938502550125122070e+00
2.069537192583084106e-01,6.995391249656677246e-01,-6.011407077312469482e-02,2.067097872495651245e-01,9.252710342407226562e-01,2.412476837635040283e-01,2.072294354438781738e-01,-1.461868762969970703e+00,-2.026359796524047852e+00,1.712112426757812500e+00,-6.500897407531738281e-01,1.382299900054931641e+00,5.372416973114013672e-01,1.658507585525512695e+00
-1.828533262014389038e-01,-4.983835220336914062e-01,1.009586811065673828e+00,3.136283457279205322e-01,7.069544196128845215e-01,-5.129465460777282715e-01,-3.724762797355651855e-01,1.395627498626708984e+00,-7.015444040298461914e-01,-2.703966379165649414e+00,1.927421092987060547e-01,1.860398769378662109e+00,-1.360983610153198242e+00,1.705185174942016602e+00
8.044254779815673828e-02,-3.578373789787292480e-01,8.879673480987548828e-01,6.885641217231750488e-01,4.651711881160736084e-01,-5.496262311935424805e-01,8.605936914682388306e-02,-2.099320888519287109e-01,8.184447288513183594e-01,7.817363739013671875e-01,1.304798603057861328e+00,-2.592613458633422852e+00,1.156903743743896484e+00,-2.585208415985107422e-01
-4.901797771453857422e-01,5.145453661680221558e-02,1.856174021959304810e-01,7.007693052291870117e-01,-1.994395852088928223e-01,-3.939197063446044922e-01,5.603335499763488770e-01,-1.225736379623413086e+00,-1.910899877548217773e+00,-1.783381819725036621e+00,-1.918859958648681641e+00,2.571675300598144531e+00,6.443858146667480469e-02,2.987880468368530273e+00
-4.723818302154541016e-01,3.143100440502166748e-01,6.840201616287231445e-01,-2.455089427530765533e-02,5.570238828659057617e-01,5.760682821273803711e-01,5.977181196212768555e-01,2.553491592407226562e-01,-1.033316850662231445e+00,1.503058433532714844e+00,-1.293902993202209473e+00,-8.487322330474853516e-01,1.176386594772338867e+00,2.234534502029418945e+00
6.056000292301177979e-02,5.222472548484802246e-01,1.369277089834213257e-01,2.370947897434234619e-01,2.623633146286010742e-01,9.336653351783752441e-01,5.675095319747924805e-02,-9.973790645599365234e-01,-1.572995424270629883e+00,-7.831900119781494141e-01,1.631477355957031250e+00,1.443817138671875000e+00,1.653053522109985352e+00,-6.924476623535156250e-01
4.090182483196258545e-01,-1.563198715448379517e-01,7.610212564468383789e-01,1.265182346105575562e-01,-2.367892265319824219e-01,8.342562317848205566e-01,-4.816021323204040527e-01,2.811132431030273438e+00,-1.590394973754882812e-02,-1.469635963439941406e-02,1.777347564697265625e+00,1.143851280212402344e-01,1.261446237564086914e+00,1.387160539627075195e+00
-3.194022178649902344e-01,-7.949879765510559082e-02,1.090579271316528320e+00,-6.266447901725769043e-01,-3.073043823242187500e-01,-4.110631048679351807e-01,5.864361524581909180e-01,-2.498697280883789062e+00,4.291553497314453125e-01,1.912811279296875000e+00,1.904828548431396484e-01,-1.060952663421630859e+00,-1.759003281593322754e+00,9.829995632171630859e-01
1.831778585910797119e-01,3.277786076068878174e-02,1.050235152244567871e+00,6.992747783660888672e-01,-5.865322351455688477e-01,1.041111722588539124e-01,-3.951652050018310547e-01,-1.148276686668395996e+00,4.298603534698486328e-01,-4.384360313415527344e-01,7.948849201202392578e-01,-8.809380531311035156e-01,-1.916978240013122559e+00,2.260428667068481445e+00
4.920973181724548340e-01,-3.089495375752449036e-02,3.088262379169464111e-01,6.895847320556640625e-01,-1.699315607547760010e-01,5.955853462219238281e-01,3.753321766853332520e-01,-8.749306201934814453e-01,2.086648464202880859e+00,-1.337815403938293457e+00,2.010733604431152344e+00,2.657917976379394531e+00,-1.780063390731811523e+00,8.400166034698486328e-01
-1.656544506549835205e-01,-4.082882404327392578e-01,6.156182885169982910e-01,5.636420845985412598e-01,-4.833537042140960693e-01,-3.913741111755371094e-01,5.436019897460937500e-01,-8.111279010772705078e-01,1.261227846145629883e+00,1.064644336700439453e+00,1.896640062332153320e+00,-2.119789123535156250e+00,4.506003856658935547e-01,1.718437433242797852e+00
8.333398103713989258e-01,4.438291117548942566e-02,1.571747660636901855e-01,4.432266056537628174e-01,-5.734146833419799805e-01,6.004981398582458496e-01,-3.378575444221496582e-01,-2.760558366775512695e+00,-1.812768697738647461e+00,1.652743816375732422e+00,-5.599219799041748047e-01,-6.951558589935302734e-01,2.816736698150634766e-01,6.419880390167236328e-01
8.616480231285095215e-02,7.616180181503295898e-01,4.541306197643280029e-01,-5.500741600990295410e-01,9.754838049411773682e-02,3.152233958244323730e-01,7.671616077423095703e-01,1.062575817108154297e+00,1.880027532577514648e+00,-7.594878673553466797e-01,1.102005720138549805e+00,4.386608600616455078e-01,1.234014034271240234e-01,-6.228747367858886719e-01
-5.098112821578979492e-01,-1.344090104103088379e-01,9.215101599693298340e-01,-8.091447502374649048e-02,-4.244409799575805664e-01,-6.464417576789855957e-01,6.288210153579711914e-01,8.875112533569335938e-01,-1.048824310302734375e+00,-2.293842077255249023e+00,9.871926307678222656e-01,-5.673170089721679688e-03,-4.733861684799194336e-01,3.767371177673339844e-01
-2.677355334162712097e-02,4.044539630413055420e-01,1.961596161127090454e-01,-3.233027830719947815e-02,-7.272677421569824219e-01,-1.711497902870178223e-01,6.638856530189514160e-01,-1.413645505905151367e+00,-1.004095911979675293e+00,-3.188216686248779297e-01,2.079169273376464844e+00,-1.272412300109863281e+00,1.744542837142944336e+00,-5.375480651855468750e-02
-6.595633178949356079e-02,-2.943812310695648193e-01,7.424880266189575195e-01,7.892962098121643066e-01,-2.859459221363067627e-01,2.979338467121124268e-01,-4.544028937816619873e-01,-2.239314556121826172e+00,1.477915287017822266e+00,-2.845842838287353516e-01,1.669982910156250000e+00,-3.257167339324951172e-01,-1.726658105850219727e+00,1.111342668533325195e+00
2.394609749317169189e-01,1.309237778186798096e-01,7.033187747001647949e-01,3.812268674373626709e-01,8.291211128234863281e-01,4.256845265626907349e-02,-4.067088067531585693e-01,2.050364017486572266e+00,-7.557090520858764648e-01,-9.053964614868164062e-01,-1.822378993034362793e+00,2.502498626708984375e-01,1.639206409454345703e+00,2.146348714828491211e+00
4.442049264907836914e-01,4.075854420661926270e-01,5.224050283432006836e-01,4.661362469196319580e-01,3.028713166713714600e-01,-4.663234055042266846e-01,6.881340742111206055e-01,1.256900310516357422e+00,1.789972543716430664e+00,8.171284198760986328e-01,1.230232715606689453e+00,5.195760726928710938e-02,-1.586033344268798828e+00,-1.826607108116149902e+00
-3.788362741470336914e-01,-7.079373002052307129e-01,6.332996487617492676e-01,2.377784103155136108e-01,1.129817683249711990e-02,5.817321538925170898e-01,7.777670025825500488e-01,-2.142947673797607422e+00,1.216311931610107422e+00,-2.811087131500244141e+00,2.262845039367675781e-01,-7.778966426849365234e-01,1.271975278854370117e+00,3.154933452606201172e-01
-3.554229438304901123e-01,2.064346671104431152e-01,1.627246439456939697e-01,-7.308682203292846680e-01,-2.556613385677337646e-01,-1.374630033969879150e-01,6.177157759666442871e-01,6.643149852752685547e-01,-1.733256578445434570e+00,-1.131691694259643555e+00,2.092699050903320312e+00,1.298799037933349609e+00,1.076338291168212891e-01,1.644232988357543945e+00
3.437727987766265869e-01,-7.844831347465515137e-01,3.856286406517028809e-01,-4.487870633602142334e-02,7.937654852867126465e-01,-6.058846116065979004e-01,2.874465286731719971e-02,1.918734550476074219e+00,-1.785468935966491699e+00,2.803157806396484375e+00,5.962264537811279297e-01,-2.968573570251464844e-01,7.544386386871337891e-01,-9.498052597045898438e-01
-6.384891271591186523e-01,2.555502951145172119e-01,2.602745294570922852e-01,9.137377142906188965e-01,1.192030161619186401e-01,-3.833316862583160400e-01,6.269575655460357666e-02,2.242860794067382812e+00,1.173962831497192383e+00,8.295538425445556641e-01,-1.332189798355102539e+00,2.766869544982910156e+00,-2.822479009628295898e-01,2.508898496627807617e+00
2.261316776275634766e-01,5.499485731124877930e-01,9.919524937868118286e-02,9.405112862586975098e-01,-2.692990303039550781e-01,-2.069128155708312988e-01,-1.017640251666307449e-02,-2.638233184814453125e+00,-1.574310302734375000e+00,-2.059047698974609375e+00,-1.404681205749511719e+00,-1.052352309226989746e+00,8.768482208251953125e-01,-9.405915737152099609e-01
-7.594538927078247070e-01,1.622512936592102051e-02,5.108211636543273926e-01,-4.837661087512969971e-01,-4.264171048998832703e-02,7.852873206138610840e-01,-3.840258419513702393e-01,2.616377353668212891e+00,1.654261827468872070e+00,2.052812099456787109e+00,-1.044661998748779297e+00,8.014447689056396484e-01,2.129638195037841797e-01,-2.289704561233520508e+00
1.530221700668334961e-01,-4.474973976612091064e-01,7.235697507858276367e-01,-4.778692424297332764e-01,8.364171385765075684e-01,-5.550809577107429504e-02,-2.626143693923950195e-01,-1.170062184333801270e+00,1.402323246002197266e-01,1.526927947998046875e-02,-1.388014793395996094e+00,2.620548725128173828e+00,-1.448507785797119141e+00,9.696443080902099609e-01
1.402575671672821045e-01,3.959116041660308838e-01,1.027163863182067871e+00,-5.470878481864929199e-01,6.773375272750854492e-01,4.871034324169158936e-01,-6.811103969812393188e-02,1.309261322021484375e+00,4.404048919677734375e-01,2.032613754272460938e+00,2.664828300476074219e-01,1.929990768432617188e+00,-1.975544571876525879e+00,-2.776615858078002930e+00
2.346319705247879028e-01,-2.302810102701187134e-01,1.060275077819824219e+00,2.885045409202575684e-01,1.269624978303909302e-01,5.659351348876953125e-01,7.618156671524047852e-01,8.394033908843994141e-01,3.215787410736083984e-01,8.968231678009033203e-01,1.118235349655151367e+00,-4.949839115142822266e-01,5.822048187255859375e-01,-1.198482513427734375e-02
-4.833794832229614258e-01,-5.120179653167724609e-01,8.871380686759948730e-01,-3.700260221958160400e-01,-4.502849280834197998e-01,6.469662189483642578e-01,-4.916898906230926514e-01,7.546064853668212891e-01,-8.810212612152099609e-01,2.709816932678222656e+00,-7.144069671630859375e-02,1.808055877685546875e+00,7.748878002166748047e-01,-1.237406015396118164e+00
6.847838163375854492e-01,5.259305238723754883e-01,1.303841620683670044e-01,-4.128320515155792236e-01,7.295328974723815918e-01,2.775896191596984863e-01,4.693564176559448242e-01,-2.534029006958007812e+00,-1.843432068824768066e+00,-3.583881855010986328e-01,-6.596875190734863281e-02,-1.756362676620483398e+00,4.467773437500000000e-01,-1.144868493080139160e+00
4.608472287654876709e-01,2.065562009811401367e-01,3.265290856361389160e-01,1.860365271568298340e-01,7.364618778228759766e-01,-1.010395027697086334e-02,6.503170728683471680e-01,1.295791149139404297e+00,9.810137748718261719e-01,2.140895843505859375e+00,1.991242408752441406e+00,-2.191077709197998047e+00,-5.422799587249755859e-01,3.766059875488281250e-01
-3.348199725151062012e-01,-2.216426730155944824e-01,9.736167788505554199e-01,4.217525124549865723e-01,-6.020258665084838867e-01,4.115161895751953125e-01,5.388359427452087402e-01,-1.073387980461120605e+00,-1.404393911361694336e-01,-1.379850864410400391e+00,-1.055914878845214844e+00,-2.392567634582519531e+00,-8.787579536437988281e-01,-7.076885700225830078e-01
-6.709163188934326172e-01,-2.596987970173358917e-02,3.792236149311065674e-01,-2.749470174312591553e-01,-7.536358237266540527e-01,-2.316086441278457642e-01,5.502678155899047852e-01,6.846632957458496094e-01,-1.054443001747131348e+00,2.167778491973876953e+00,-1.425446748733520508e+00,-1.024016380310058594e+00,3.254146575927734375e-01,-1.144059419631958008e+00
-6.446631252765655518e-02,-3.998425602912902832e-02,1.146372318267822266e+00,7.507886886596679688e-01,3.792372345924377441e-01,-5.403010249137878418e-01,2.388141490519046783e-02,1.561393737792968750e+00,-7.265329360961914062e-03,8.737897872924804688e-02,-5.195379257202148438e-03,-1.136143565177917480e+00,-1.997314453125000000e+00,2.719772577285766602e+00
7.732514142990112305e-01,-2.524862885475158691e-01,8.604832738637924194e-02,5.679326653480529785e-01,-5.476604104042053223e-01,6.079802513122558594e-01,-8.877292275428771973e-02,3.230810165405273438e-02,1.954852104187011719e+00,-1.690366983413696289e+00,-6.161916255950927734e-01,-2.667146682739257812e+00,-2.138710021972656250e-02,2.335579156875610352e+00
-1.731706261634826660e-01,-4.138013720512390137e-01,8.504061102867126465e-01,1.906171590089797974e-01,-1.114416960626840591e-02,9.357934594154357910e-01,2.963638305664062500e-01,9.153974056243896484e-01,-1.232054233551025391e-01,2.177274227142333984e-01,1.454232215881347656e+00,-4.098827838897705078e-01,1.602026700973510742e+00,1.389767885208129883e+00
-6.804873049259185791e-02,-5.755750536918640137e-01,1.033975839614868164e+00,5.629792436957359314e-02,-4.625187516212463379e-01,8.767914772033691406e-01,1.189270764589309692e-01,1.565757751464843750e+00,-5.615602731704711914e-01,-5.899605751037597656e-01,2.943949699401855469e-01,-1.811951875686645508e+00,2.229397296905517578e-01,-2.605146408081054688e+00
1.037026345729827881e-01,3.080686628818511963e-01,5.900623202323913574e-01,4.607488512992858887e-01,-1.725703179836273193e-01,-5.024315118789672852e-01,7.109799981117248535e-01,2.525281906127929688e-02,1.107533454895019531e+00,-1.307163834571838379e+00,2.048698425292968750e+00,1.070507049560546875e+00,-1.596720695495605469e+00,2.902116060256958008e+00
3.220387399196624756e-01,1.227928325533866882e-01,7.419909834861755371e-01,-1.658878773450851440e-01,-2.276877313852310181e-01,5.694438815116882324e-01,7.722520828247070312e-01,-6.295881271362304688e-01,1.235262632369995117e+00,-9.548869132995605469e-01,1.838663578033447266e+00,1.512993812561035156e+00,-1.260583400726318359e+00,5.572605133056640625e-02
-6.991247534751892090e-01,-2.501720786094665527e-01,-5.407157912850379944e-02,7.215204834938049316e-01,-4.898410439491271973e-01,-2.105140686035156250e-01,4.417552947998046875e-01,4.622936248779296875e-04,-1.904628872871398926e+00,-2.153869390487670898e+00,-6.993573904037475586e-01,-1.558053493499755859e-01,-1.801658868789672852e-01,6.491086483001708984e-01
-1.468335241079330444e-01,2.657738924026489258e-01,9.917278289794921875e-01,-3.013413846492767334e-01,9.122559428215026855e-02,8.915145993232727051e-01,3.256883919239044189e-01,9.201288223266601562e-02,-7.206149101257324219e-01,6.709597110748291016e-01,-1.413708209991455078e+00,2.911372184753417969e+00,1.002458810806274414e+00,-1.226407766342163086e+00
2.562443912029266357e-01,-6.038447022438049316e-01,7.768272161483764648e-01,3.158367574214935303e-01,6.805357933044433594e-01,-6.604973077774047852e-01,-2.935091964900493622e-02,-9.709794521331787109e-01,1.375135421752929688e+00,1.919083595275878906e-01,8.743672370910644531e-01,-1.188066720962524414e+00,1.322605609893798828e+00,-8.041563034057617188e-01
4.907062351703643799e-01,5.177345871925354004e-01,4.784228503704071045e-01,-4.334156513214111328e-01,1.163438521325588226e-02,-9.032717347145080566e-02,8.965804576873779297e-01,1.031387805938720703e+00,2.010192394256591797e+00,4.966986179351806641e-01,1.243043899536132812e+00,1.337100982666015625e+00,7.876753807067871094e-01,-2.891548156738281250e+00
5.355415344238281250e-01,-4.740145206451416016e-01,1.019865423440933228e-01,7.101287841796875000e-01,1.171562150120735168e-01,5.663168430328369141e-01,4.015927314758300781e-01,-1.507847309112548828e-01,1.956461429595947266e+00,1.678785800933837891e+00,1.156784772872924805e+00,4.606916904449462891e-01,9.273986816406250000e-01,5.102145671844482422e-01
-2.976832091808319092e-01,1.586244106292724609e-01,9.147709608078002930e-01,-5.085679888725280762e-01,-5.406796932220458984e-01,5.247109383344650269e-02,6.680350899696350098e-01,-1.955220699310302734e+00,5.404596328735351562e-01,7.105264663696289062e-01,1.429077625274658203e+00,-2.090140819549560547e+00,7.570271492004394531e-01,-2.861473083496093750e+00
6.754524707794189453e-01,-3.121272027492523193e-01,8.671237155795097351e-03,6.322536468505859375e-01,-5.755282640457153320e-01,4.800639152526855469e-01,1.963699012994766235e-01,2.659702777862548828e+00,-1.634065866470336914e+00,-2.854682922363281250e+00,-7.804031372070312500e-01,-2.068448543548583984e+00,7.979655265808105469e-01,-5.474731922149658203e-01
2.243690490722656250e-01,6.750006675720214844e-01,8.417656272649765015e-02,-4.236713051795959473e-01,-2.508282363414764404e-01,-3.689025044441223145e-01,7.883519530296325684e-01,1.631718635559082031e+00,1.761474132537841797e+00,2.212344646453857422e+00,9.878728389739990234e-01,-2.597475051879882812e+00,-1.515996575355529785e+00,-1.787747859954833984e+00
3.003683984279632568e-01,-5.801573991775512695e-01,7.530604600906372070e-01,-9.827373921871185303e-02,-6.057767868041992188e-01,4.513362944126129150e-01,6.478211879730224609e-01,-1.038177013397216797e+00,6.795339584350585938e-01,1.511845588684082031e-01,-7.801513671875000000e-01,-1.939374446868896484e+00,1.726301670074462891e+00,-9.631693363189697266e-01
2.750630378723144531e-01,-6.888893246650695801e-01,7.905047535896301270e-01,2.697142362594604492e-01,1.779779046773910522e-01,-2.600620687007904053e-01,9.099152684211730957e-01,-8.646783828735351562e-01,1.139307975769042969e+00,1.310992717742919922e+00,6.002917289733886719e-01,1.147144317626953125e+00,4.610879421234130859e-01,-1.879851222038269043e+00
4.085376262664794922e-01,-1.067344993352890015e-01,5.527363419532775879e-01,3.229597210884094238e-01,8.561254739761352539e-01,-2.041219770908355713e-01,3.479660451412200928e-01,-1.504185676574707031e+00,2.433128356933593750e-01,-1.632671833038330078e+00,1.980923652648925781e+00,-1.200979232788085938e+00,-8.838174343109130859e-01,-1.788138270378112793e+00
-4.405956864356994629e-01,-3.237219452857971191e-01,3.685014545917510986e-01,6.797286868095397949e-01,-6.198542118072509766e-01,1.617377698421478271e-01,3.571982681751251221e-01,1.216424465179443359e+00,-7.663779258728027344e-01,-8.972201347351074219e-01,1.816679954528808594e+00,1.752970218658447266e+00,-9.489389657974243164e-01,-2.309839725494384766e+00
2.006946802139282227e-01,3.740262985229492188e-02,9.486905336380004883e-01,7.029870748519897461e-01,-5.099206566810607910e-01,2.646632492542266846e-01,-4.192176163196563721e-01,1.048097610473632812e+00,-5.039358139038085938e-01,2.849329948425292969e+00,1.333616256713867188e+00,2.697703361511230469e+00,1.275971889495849609e+00,-1.280051946640014648e+00
1.444564163684844971e-01,-7.309950590133666992e-01,8.545124530792236328e-01,5.143604278564453125e-01,-1.187255233526229858e-01,3.273659348487854004e-01,7.836894392967224121e-01,-1.260226845741271973e+00,8.969931602478027344e-01,-9.116971492767333984e-01,-2.413743734359741211e-01,-1.445290446281433105e+00,-8.763241767883300781e-02,-1.819963097572326660e+00
2.579698562622070312e-01,5.166190266609191895e-01,9.183309972286224365e-02,-3.834775090217590332e-01,6.380060911178588867e-01,6.670102477073669434e-01,3.147397190332412720e-02,2.289259433746337891e-01,1.813846349716186523e+00,1.164103984832763672e+00,-1.519387483596801758e+00,6.864414215087890625e-01,3.637146949768066406e-01,-1.573234319686889648e+00
-5.911196768283843994e-02,4.303077161312103271e-01,5.508866310119628906e-01,7.551646232604980469e-01,6.173831820487976074e-01,2.070393115282058716e-01,-7.549235969781875610e-02,1.007814884185791016e+00,1.300263404846191406e-01,8.185796737670898438e-01,-1.874520897865295410e+00,-5.144798755645751953e-01,9.104673862457275391e-01,-2.440132379531860352e+00
1.590617299079895020e-01,-1.735826730728149414e-01,-1.443624943494796753e-01,3.134871721267700195e-01,7.203317284584045410e-01,-3.600511550903320312e-01,5.032010078430175781e-01,1.606758117675781250e+00,-2.072691202163696289e+00,2.987980842590332031e-01,1.797408580780029297e+00,-5.524222850799560547e-01,1.822258234024047852e+00,2.311511754989624023e+00
-7.158815264701843262e-01,1.551357805728912354e-01,2.765873968601226807e-01,4.955633580684661865e-01,7.992109060287475586e-01,-2.005435228347778320e-01,2.747022211551666260e-01,-1.338231563568115234e-01,-1.258915901184082031e+00,2.752921104431152344e+00,-7.490910291671752930e-01,8.657755851745605469e-01,1.708762168884277344e+00,-2.507841825485229492e+00
1.797940284013748169e-01,-3.776649236679077148e-01,7.364149689674377441e-01,3.069534301757812500e-01,3.292363286018371582e-01,3.993122577667236328e-01,7.987069487571716309e-01,4.399161338806152344e-01,1.472454071044921875e-01,1.324006557464599609e+00,1.829116582870483398e+00,2.452154159545898438e+00,-1.361085534095764160e+00,2.335001707077026367e+00
-2.201732993125915527e-01,-7.298080921173095703e-01,4.451965689659118652e-01,2.477199435234069824e-01,1.001168638467788696e-01,8.494785428047180176e-01,-4.549699723720550537e-01,-1.923908472061157227e+00,1.757762193679809570e+00,2.950276851654052734e+00,-4.314681291580200195e-01,-2.739262580871582031e-02,1.828862428665161133e+00,2.823000192642211914e+00
-6.665433645248413086e-01,3.644606769084930420e-01,2.199103087186813354e-01,7.323921322822570801e-01,3.418619632720947266e-01,-2.151053249835968018e-01,5.481439828872680664e-01,2.528170585632324219e+00,1.578098297119140625e+00,-2.912067174911499023e+00,2.846779823303222656e-01,-2.330324649810791016e+00,2.023159980773925781e+00,-1.316037893295288086e+00
3.900426626205444336e-01,-1.027056276798248291e-01,7.376925945281982422e-01,7.008301615715026855e-01,-1.337687373161315918e-01,7.003440856933593750e-01,-2.147717215120792389e-02,2.902374267578125000e+00,1.813766956329345703e-01,-3.612446784973144531e-02,1.837037801742553711e+00,2.083230495452880859e+00,-1.339542865753173828e-01,-1.876508474349975586e+00
2.916546165943145752e-01,5.554524064064025879e-01,8.017607331275939941e-01,4.913154616951942444e-02,6.260721087455749512e-01,7.089053392410278320e-01,-3.210498988628387451e-01,-2.298600196838378906e+00,-1.413740873336791992e+00,-2.438066005706787109e-01,-1.016766548156738281e+00,-1.862132191658020020e+00,9.911427497863769531e-01,1.776198625564575195e+00
2.618103623390197754e-01,5.174706578254699707e-01,3.731740713119506836e-01,7.040188312530517578e-01,-6.993531584739685059e-01,-4.526573419570922852e-02,1.149509102106094360e-01,4.022216796875000000e-01,1.077703475952148438e+00,-1.925651907920837402e+00,1.491822957992553711e+00,2.356099128723144531e+00,1.369691848754882812e+00,9.334421157836914062e-02
-4.785525202751159668e-01,1.696051508188247681e-01,7.733158469200134277e-01,5.291480198502540588e-02,-7.140411734580993652e-01,-7.853817194700241089e-02,6.936691999435424805e-01,-2.452347278594970703e+00,7.089772224426269531e-01,-1.870545983314514160e+00,-1.505401492118835449e+00,-1.046768784523010254e+00,-1.055377960205078125e+00,-1.461279630661010742e+00
1.742246150970458984e-01,-4.947920739650726318e-01,8.648662567138671875e-01,6.921250224113464355e-01,-6.410669684410095215e-01,3.156580924987792969e-01,-1.017651334404945374e-01,-1.569448351860046387e+00,1.062933444976806641e+00,2.694296836853027344e+00,-8.296073675155639648e-01,1.322611331939697266e+00,-2.046493291854858398e+00,9.387981891632080078e-01
-3.274755552411079407e-02,-7.181711792945861816e-01,-5.143345147371292114e-02,7.532576322555541992e-01,-4.992298185825347900e-01,3.512915968894958496e-01,2.448810487985610962e-01,1.143911838531494141e+00,-1.834169387817382812e+00,-2.265499353408813477e+00,-8.092476129531860352e-01,-5.612690448760986328e-01,1.055765151977539062e-02,2.413640737533569336e+00
-3.758262395858764648e-01,8.065935224294662476e-02,8.021350502967834473e-01,-6.398265957832336426e-01,2.642965642735362053e-03,6.618727445602416992e-01,3.905630409717559814e-01,1.207931518554687500e+00,-7.917737960815429688e-01,-2.270300626754760742e+00,1.743082761764526367e+00,-1.216271281242370605e+00,4.801418781280517578e-01,-1.715745806694030762e+00
3.270048797130584717e-01,8.126322031021118164e-01,4.498668611049652100e-01,-6.211561560630798340e-01,-1.480986326932907104e-01,-4.114077985286712646e-01,6.503657102584838867e-01,-2.174446582794189453e+00,-1.452733039855957031e+00,1.470088005065917969e+00,4.429183006286621094e-01,-4.993822574615478516e-01,2.062330245971679688e-01,-1.782011985778808594e-01
4.921477138996124268e-01,-2.553765177726745605e-01,8.046334385871887207e-01,6.711573600769042969e-01,-6.180030703544616699e-01,2.897667288780212402e-01,-2.892321348190307617e-01,2.226343154907226562e-01,6.873571872711181641e-01,-1.670979022979736328e+00,-1.057814359664916992e+00,1.511654853820800781e+00,1.562984466552734375e+00,-2.554208993911743164e+00
7.248414158821105957e-01,-1.419129818677902222e-01,8.560838103294372559e-01,2.602916955947875977e-01,4.919112622737884521e-01,4.278384447097778320e-01,7.121978998184204102e-01,-3.160037994384765625e-01,8.535335063934326172e-01,-2.503588676452636719e+00,2.687895298004150391e-01,-2.600579977035522461e+00,1.995928287506103516e-01,3.351879119873046875e-02
-7.701560854911804199e-01,-3.333442211151123047e-01,5.043848752975463867e-01,-1.430070400238037109e-01,-6.284359097480773926e-02,9.025156497955322266e-01,-4.013291895389556885e-01,4.314205646514892578e-01,-1.466694951057434082e+00,-1.019970417022705078e+00,8.520627021789550781e-02,-2.277277469635009766e+00,-1.234011411666870117e+00,5.079205036163330078e-01
3.517822176218032837e-02,-7.054372876882553101e-02,1.253388404846191406e+00,-1.336207799613475800e-02,-2.473047189414501190e-02,9.988446235656738281e-01,3.897765651345252991e-02,-2.427401065826416016e+00,4.346036911010742188e-02,1.831815719604492188e+00,-1.950623989105224609e-01,7.861423492431640625e-02,-1.809622049331665039e-01,-2.701632261276245117e+00
8.091418147087097168e-01,-6.258413195610046387e-04,6.158021688461303711e-01,1.912322640419006348e-01,-1.020544115453958511e-02,9.268119931221008301e-01,-3.230257034301757812e-01,-2.232515811920166016e-01,1.285604000091552734e+00,1.324970722198486328e+00,-4.358490705490112305e-01,1.877871036529541016e+00,1.029623508453369141e+00,4.783763885498046875e-01
5.177219212055206299e-02,-2.281263768672943115e-01,7.712289094924926758e-01,2.353798449039459229e-01,3.831447958946228027e-01,2.252790629863739014e-01,8.643180727958679199e-01,-2.698304653167724609e+00,-6.512360572814941406e-01,-2.588700771331787109e+00,2.069780349731445312e+00,2.578866004943847656e+00,-1.805288434028625488e+00,2.649784326553344727e+00
5.099672824144363403e-02,4.881007075309753418e-01,9.028817415237426758e-01,6.866819858551025391e-01,-3.404845595359802246e-01,-4.302632212638854980e-01,-4.768770635128021240e-01,-2.778741121292114258e+00,-3.817372322082519531e-01,1.596112251281738281e+00,1.113496303558349609e+00,2.838486671447753906e+00,6.110641956329345703e-01,-4.864811897277832031e-01
3.263307735323905945e-03,3.592864274978637695e-01,8.540361523628234863e-01,-2.063184678554534912e-01,-2.799498736858367920e-01,-1.624317914247512817e-01,9.234049320220947266e-01,2.924669742584228516e+00,-4.922683238983154297e-01,2.193370819091796875e+00,1.703862905502319336e+00,-7.379341125488281250e-01,7.654192447662353516e-01,9.883344173431396484e-01
6.150580048561096191e-01,-2.323753535747528076e-01,5.983883142471313477e-01,6.306527256965637207e-01,5.006411671638488770e-01,1.207472160458564758e-01,5.805650949478149414e-01,2.332124710083007812e-01,6.431221961975097656e-01,-9.033515453338623047e-01,-1.346806526184082031e+00,2.210965156555175781e-01,1.208155155181884766e-01,1.391906023025512695e+00
